P3
200 100
255
211 230 255
211 230 255
211 230 255
210 230 255
210 230 255
210 230 255
210 229 255
210 229 255
210 229 255
210 229 255
210 229 255
210 229 255
210 229 255
210 229 255
210 229 255
210 229 255
210 229 255
210 229 255
210 229 255
210 229 255
210 229 255
210 229 255
210 229 255
210 229 255
210 229 255
210 229 255
210 229 255
210 229 255
210 229 255
210 229 255
210 229 255
210 229 255
210 229 255
209 229 255
209 229 255
209 229 255
209 229 255
209 229 255
209 229 255
209 229 255
209 229 255
209 229 255
209 229 255
209 229 255
209 229 255
209 229 255
209 229 255
209 229 255
209 229 255
209 229 255
209 229 255
209 229 255
209 229 255
209 229 255
209 229 255
209 229 255
209 229 255
209 229 255
209 229 255
209 229 255
209 229 255
209 229 255
209 229 255
209 229 255
209 229 255
209 229 255
209 229 255
209 229 255
209 229 255
209 229 255
209 228 255
209 228 255
209 228 255
208 228 255
208 228 255
208 228 255
208 228 255
208 228 255
208 228 255
208 228 255
208 228 255
208 228 255
208 228 255
208 228 255
208 228 255
208 228 255
208 228 255
208 228 255
208 228 255
208 228 255
208 228 255
208 228 255
208 228 255
208 228 255
208 228 255
208 228 255
208 228 255
208 228 255
208 228 255
208 228 255
208 228 255
208 228 255
208 228 255
208 228 255
208 228 255
208 228 255
208 228 255
208 228 255
208 228 255
208 228 255
208 228 255
208 228 255
208 228 255
208 228 255
208 228 255
208 228 255
208 228 255
208 228 255
208 228 255
208 228 255
208 228 255
208 228 255
208 228 255
208 228 255
208 228 255
208 228 255
209 228 255
209 228 255
209 228 255
209 228 255
209 228 255
209 229 255
209 229 255
209 229 255
209 229 255
209 229 255
209 229 255
209 229 255
209 229 255
209 229 255
209 229 255
209 229 255
209 229 255
209 229 255
209 229 255
209 229 255
209 229 255
209 229 255
209 229 255
209 229 255
209 229 255
209 229 255
209 229 255
209 229 255
209 229 255
209 229 255
209 229 255
209 229 255
209 229 255
209 229 255
209 229 255
209 229 255
209 229 255
209 229 255
209 229 255
209 229 255
209 229 255
210 229 255
210 229 255
210 229 255
210 229 255
210 229 255
210 229 255
210 229 255
210 229 255
210 229 255
210 229 255
210 229 255
210 229 255
210 229 255
210 229 255
210 229 255
210 229 255
210 229 255
210 229 255
210 229 255
210 229 255
210 229 255
210 229 255
210 229 255
210 229 255
210 229 255
210 229 255
210 229 255
210 230 255
210 230 255
210 230 255
211 230 255
211 230 255
211 230 255
211 230 255
211 230 255
211 230 255
211 230 255
211 230 255
211 230 255
211 230 255
211 230 255
211 230 255
210 230 255
210 230 255
210 230 255
210 229 255
210 229 255
210 229 255
210 229 255
210 229 255
210 229 255
210 229 255
210 229 255
210 229 255
210 229 255
210 229 255
210 229 255
210 229 255
210 229 255
210 229 255
210 229 255
210 229 255
210 229 255
210 229 255
210 229 255
210 229 255
210 229 255
210 229 255
210 229 255
210 229 255
210 229 255
210 229 255
210 229 255
210 229 255
209 229 255
209 229 255
209 229 255
209 229 255
209 229 255
209 229 255
209 229 255
209 229 255
209 229 255
209 229 255
209 229 255
209 229 255
209 229 255
209 229 255
209 229 255
209 229 255
209 229 255
209 229 255
209 229 255
209 229 255
209 229 255
209 229 255
209 229 255
209 229 255
209 229 255
209 229 255
209 229 255
209 229 255
209 229 255
209 229 255
209 229 255
209 229 255
209 229 255
209 229 255
209 229 255
209 229 255
209 229 255
209 229 255
209 229 255
209 229 255
209 229 255
209 229 255
209 229 255
209 229 255
209 229 255
209 229 255
209 229 255
209 228 255
209 228 255
209 228 255
209 228 255
209 228 255
209 228 255
209 228 255
209 228 255
209 228 255
209 228 255
209 228 255
209 228 255
209 228 255
209 228 255
209 228 255
209 228 255
209 228 255
209 228 255
209 228 255
209 228 255
209 228 255
209 228 255
209 228 255
209 228 255
209 228 255
209 229 255
209 229 255
209 229 255
209 229 255
209 229 255
209 229 255
209 229 255
209 229 255
209 229 255
209 229 255
209 229 255
209 229 255
209 229 255
209 229 255
209 229 255
209 229 255
209 229 255
209 229 255
209 229 255
209 229 255
209 229 255
209 229 255
209 229 255
209 229 255
209 229 255
209 229 255
209 229 255
209 229 255
209 229 255
209 229 255
209 229 255
209 229 255
209 229 255
209 229 255
209 229 255
209 229 255
209 229 255
209 229 255
209 229 255
209 229 255
209 229 255
209 229 255
209 229 255
209 229 255
209 229 255
209 229 255
209 229 255
210 229 255
210 229 255
210 229 255
210 229 255
210 229 255
210 229 255
210 229 255
210 229 255
210 229 255
210 229 255
210 229 255
210 229 255
210 229 255
210 229 255
210 229 255
210 229 255
210 229 255
210 229 255
210 229 255
210 229 255
210 229 255
210 229 255
210 229 255
210 229 255
210 229 255
210 229 255
210 229 255
210 229 255
210 230 255
210 230 255
210 230 255
211 230 255
211 230 255
211 230 255
211 230 255
211 230 255
211 230 255
211 230 255
211 230 255
211 230 255
211 230 255
211 230 255
211 230 255
211 230 255
211 230 255
211 230 255
211 230 255
211 230 255
211 230 255
211 230 255
211 230 255
211 230 255
211 230 255
211 230 255
211 230 255
211 230 255
210 230 255
210 230 255
210 230 255
210 229 255
210 229 255
210 229 255
210 229 255
210 229 255
210 229 255
210 229 255
210 229 255
210 229 255
210 229 255
210 229 255
210 229 255
210 229 255
210 229 255
210 229 255
210 229 255
210 229 255
210 229 255
210 229 255
210 229 255
210 229 255
210 229 255
210 229 255
210 229 255
210 229 255
210 229 255
210 229 255
210 229 255
210 229 255
210 229 255
209 229 255
209 229 255
209 229 255
209 229 255
209 229 255
209 229 255
209 229 255
209 229 255
209 229 255
209 229 255
209 229 255
209 229 255
209 229 255
209 229 255
209 229 255
209 229 255
209 229 255
209 229 255
209 229 255
209 229 255
209 229 255
209 229 255
209 229 255
209 229 255
209 229 255
209 229 255
209 229 255
209 229 255
209 229 255
209 229 255
209 229 255
209 229 255
209 229 255
209 229 255
209 229 255
209 229 255
209 229 255
209 229 255
209 229 255
209 229 255
209 229 255
209 229 255
209 229 255
209 229 255
209 229 255
209 229 255
209 229 255
209 229 255
209 229 255
209 229 255
209 229 255
209 229 255
209 229 255
209 229 255
209 229 255
209 229 255
209 229 255
209 229 255
209 229 255
209 229 255
209 229 255
209 229 255
209 229 255
209 229 255
209 229 255
209 229 255
209 229 255
209 229 255
209 229 255
209 229 255
209 229 255
209 229 255
209 229 255
209 229 255
209 229 255
209 229 255
209 229 255
209 229 255
209 229 255
209 229 255
209 229 255
209 229 255
209 229 255
209 229 255
209 229 255
209 229 255
209 229 255
209 229 255
209 229 255
209 229 255
209 229 255
209 229 255
209 229 255
209 229 255
209 229 255
209 229 255
209 229 255
209 229 255
205 214 239
209 229 255
209 229 255
209 229 255
210 229 255
210 229 255
210 229 255
210 229 255
210 229 255
210 229 255
210 229 255
210 229 255
210 229 255
210 229 255
210 229 255
210 229 255
210 229 255
210 229 255
210 229 255
210 229 255
210 229 255
210 229 255
210 229 255
210 229 255
210 229 255
210 229 255
210 229 255
210 229 255
210 229 255
210 229 255
210 229 255
210 229 255
210 229 255
210 229 255
210 229 255
210 230 255
210 230 255
210 230 255
211 230 255
211 230 255
211 230 255
211 230 255
211 230 255
211 230 255
211 230 255
211 230 255
211 230 255
211 230 255
211 230 255
211 230 255
211 230 255
211 230 255
211 230 255
211 230 255
211 230 255
211 230 255
211 230 255
211 230 255
211 230 255
211 230 255
211 230 255
211 230 255
211 230 255
211 230 255
211 230 255
211 230 255
211 230 255
211 230 255
211 230 255
211 230 255
211 230 255
211 230 255
211 230 255
211 230 255
211 230 255
210 230 255
210 230 255
210 230 255
210 229 255
210 229 255
210 229 255
210 229 255
210 229 255
210 229 255
210 229 255
210 229 255
210 229 255
210 229 255
210 229 255
210 229 255
210 229 255
210 229 255
210 229 255
210 229 255
210 229 255
210 229 255
210 229 255
210 229 255
210 229 255
210 229 255
210 229 255
210 229 255
210 229 255
210 229 255
210 229 255
210 229 255
210 229 255
210 229 255
210 229 255
210 229 255
210 229 255
209 229 255
209 229 255
209 229 255
209 229 255
209 229 255
209 229 255
209 229 255
209 229 255
209 229 255
209 229 255
209 229 255
209 229 255
209 229 255
209 229 255
209 229 255
209 229 255
209 229 255
209 229 255
209 229 255
209 229 255
209 229 255
209 229 255
209 229 255
209 229 255
209 229 255
209 229 255
209 229 255
209 229 255
209 229 255
209 229 255
209 229 255
209 229 255
209 229 255
209 229 255
209 229 255
209 229 255
209 229 255
209 229 255
209 229 255
209 229 255
209 229 255
209 229 255
209 229 255
209 229 255
209 229 255
209 229 255
209 229 255
209 229 255
209 229 255
209 229 255
209 229 255
209 229 255
209 229 255
209 229 255
209 229 255
209 229 255
209 229 255
209 229 255
209 229 255
209 229 255
209 229 255
209 229 255
209 229 255
209 229 255
209 229 255
209 229 255
209 229 255
209 229 255
209 229 255
209 229 255
209 229 255
209 229 255
209 229 255
209 229 255
209 229 255
209 229 255
209 229 255
209 229 255
209 229 255
209 229 255
209 229 255
209 229 255
209 229 255
209 229 255
210 229 255
210 229 255
210 229 255
210 229 255
200 191 213
184 121 134
210 229 255
210 229 255
210 229 255
210 229 255
210 229 255
210 229 255
210 229 255
210 229 255
210 229 255
210 229 255
210 229 255
210 229 255
210 229 255
210 229 255
210 229 255
210 229 255
210 229 255
210 229 255
210 229 255
210 229 255
210 229 255
210 229 255
210 229 255
210 229 255
210 229 255
210 229 255
210 229 255
210 230 255
210 230 255
210 230 255
211 230 255
211 230 255
211 230 255
211 230 255
211 230 255
211 230 255
211 230 255
211 230 255
211 230 255
211 230 255
211 230 255
211 230 255
211 230 255
211 230 255
211 230 255
211 230 255
211 230 255
211 230 255
211 230 255
211 230 255
211 230 255
211 230 255
211 230 255
211 230 255
211 230 255
211 230 255
211 230 255
211 230 255
211 230 255
211 230 255
211 230 255
211 230 255
211 230 255
211 230 255
211 230 255
211 230 255
211 230 255
211 230 255
211 230 255
211 230 255
211 230 255
211 230 255
211 230 255
211 230 255
211 230 255
211 230 255
211 230 255
211 230 255
211 230 255
211 230 255
211 230 255
210 230 255
210 230 255
210 230 255
210 230 255
210 229 255
210 229 255
210 229 255
210 229 255
210 229 255
210 229 255
210 229 255
210 229 255
210 229 255
210 229 255
210 229 255
210 229 255
210 229 255
210 229 255
210 229 255
210 229 255
210 229 255
210 229 255
210 229 255
210 229 255
210 229 255
210 229 255
210 229 255
210 229 255
210 229 255
210 229 255
210 229 255
210 229 255
210 229 255
210 229 255
210 229 255
210 229 255
210 229 255
210 229 255
210 229 255
210 229 255
210 229 255
209 229 255
209 229 255
209 229 255
209 229 255
209 229 255
209 229 255
209 229 255
209 229 255
209 229 255
209 229 255
209 229 255
209 229 255
209 229 255
209 229 255
209 229 255
209 229 255
209 229 255
209 229 255
209 229 255
209 229 255
209 229 255
209 229 255
209 229 255
209 229 255
209 229 255
209 229 255
209 229 255
209 229 255
209 229 255
209 229 255
209 229 255
209 229 255
209 229 255
209 229 255
209 229 255
209 229 255
209 229 255
209 229 255
209 229 255
209 229 255
209 229 255
209 229 255
209 229 255
209 229 255
209 229 255
209 229 255
209 229 255
209 229 255
209 229 255
209 229 255
209 229 255
209 229 255
209 229 255
209 229 255
209 229 255
209 229 255
209 229 255
209 229 255
209 229 255
210 229 255
210 229 255
210 229 255
210 229 255
210 229 255
210 229 255
210 229 255
210 229 255
210 229 255
210 229 255
210 229 255
210 229 255
210 229 255
210 229 255
210 229 255
210 229 255
201 195 217
176 56 61
185 129 143
210 229 255
210 229 255
210 229 255
210 229 255
210 229 255
210 229 255
210 229 255
210 229 255
210 229 255
210 229 255
210 229 255
210 229 255
210 229 255
210 229 255
210 229 255
210 229 255
210 229 255
210 229 255
210 229 255
210 230 255
210 230 255
210 230 255
210 230 255
211 230 255
211 230 255
211 230 255
211 230 255
211 230 255
211 230 255
211 230 255
211 230 255
211 230 255
211 230 255
211 230 255
211 230 255
211 230 255
211 230 255
211 230 255
211 230 255
211 230 255
211 230 255
211 230 255
211 230 255
211 230 255
211 230 255
211 230 255
211 230 255
211 230 255
211 230 255
211 230 255
211 230 255
211 230 255
212 230 255
212 230 255
212 230 255
212 230 255
211 230 255
211 230 255
211 230 255
211 230 255
211 230 255
211 230 255
211 230 255
211 230 255
211 230 255
211 230 255
211 230 255
211 230 255
211 230 255
211 230 255
211 230 255
211 230 255
211 230 255
211 230 255
211 230 255
211 230 255
211 230 255
211 230 255
211 230 255
211 230 255
211 230 255
211 230 255
211 230 255
211 230 255
211 230 255
211 230 255
211 230 255
211 230 255
211 230 255
210 230 255
210 230 255
210 230 255
210 230 255
210 229 255
210 229 255
210 229 255
210 229 255
210 229 255
210 229 255
210 229 255
210 229 255
210 229 255
210 229 255
210 229 255
210 229 255
210 229 255
210 229 255
210 229 255
210 229 255
210 229 255
210 229 255
210 229 255
210 229 255
210 229 255
210 229 255
210 229 255
210 229 255
210 229 255
210 229 255
210 229 255
210 229 255
210 229 255
210 229 255
210 229 255
210 229 255
210 229 255
210 229 255
210 229 255
210 229 255
210 229 255
210 229 255
210 229 255
210 229 255
210 229 255
210 229 255
210 229 255
210 229 255
210 229 255
210 229 255
210 229 255
210 229 255
210 229 255
210 229 255
210 229 255
210 229 255
210 229 255
209 229 255
210 229 255
209 229 255
210 229 255
209 229 255
209 229 255
209 229 255
209 229 255
210 229 255
209 229 255
209 229 255
210 229 255
210 229 255
210 229 255
210 229 255
210 229 255
210 229 255
210 229 255
210 229 255
210 229 255
210 229 255
210 229 255
210 229 255
210 229 255
210 229 255
210 229 255
210 229 255
210 229 255
210 229 255
210 229 255
210 229 255
210 229 255
210 229 255
210 229 255
210 229 255
210 229 255
210 229 255
210 229 255
210 229 255
210 229 255
210 229 255
210 229 255
210 229 255
210 229 255
210 229 255
210 229 255
210 229 255
210 229 255
210 229 255
210 229 255
200 190 212
177 56 62
175 52 56
186 135 150
210 229 255
210 229 255
210 229 255
210 229 255
210 229 255
210 229 255
210 229 255
210 229 255
210 229 255
210 229 255
210 229 255
210 230 255
210 230 255
210 230 255
210 230 255
211 230 255
211 230 255
211 230 255
211 230 255
211 230 255
211 230 255
211 230 255
211 230 255
211 230 255
211 230 255
211 230 255
211 230 255
211 230 255
211 230 255
211 230 255
211 230 255
211 230 255
211 230 255
211 230 255
211 230 255
211 230 255
211 230 255
211 230 255
211 230 255
211 230 255
211 230 255
211 230 255
211 230 255
211 230 255
211 230 255
211 230 255
211 230 255
211 230 255
212 230 255
212 230 255
212 230 255
212 230 255
212 230 255
212 230 255
212 230 255
212 230 255
212 230 255
212 230 255
212 230 255
212 230 255
212 230 255
212 230 255
211 230 255
211 230 255
211 230 255
211 230 255
211 230 255
211 230 255
211 230 255
211 230 255
211 230 255
211 230 255
211 230 255
211 230 255
211 230 255
211 230 255
211 230 255
211 230 255
211 230 255
211 230 255
211 230 255
211 230 255
211 230 255
211 230 255
211 230 255
211 230 255
211 230 255
211 230 255
211 230 255
211 230 255
211 230 255
211 230 255
211 230 255
211 230 255
211 230 255
211 230 255
211 230 255
211 230 255
210 230 255
210 230 255
210 230 255
210 230 255
210 229 255
210 229 255
210 229 255
210 229 255
210 229 255
210 229 255
210 229 255
210 229 255
210 229 255
210 229 255
210 229 255
210 229 255
210 229 255
210 229 255
210 229 255
210 229 255
210 229 255
210 229 255
210 229 255
210 229 255
210 229 255
210 229 255
210 229 255
210 229 255
210 229 255
210 229 255
210 229 255
210 229 255
210 229 255
210 229 255
210 229 255
210 229 255
210 229 255
210 229 255
210 229 255
210 229 255
210 229 255
210 229 255
210 229 255
210 229 255
210 229 255
210 229 255
210 229 255
210 229 255
210 229 255
210 229 255
210 229 255
210 229 255
210 229 255
210 229 255
210 229 255
210 229 255
210 229 255
210 229 255
210 229 255
210 229 255
210 229 255
210 229 255
210 229 255
210 229 255
210 229 255
210 229 255
210 229 255
210 229 255
210 229 255
210 229 255
210 229 255
210 229 255
210 229 255
210 229 255
210 229 255
210 229 255
210 229 255
210 229 255
210 229 255
210 229 255
210 229 255
210 229 255
210 229 255
210 229 255
210 229 255
210 229 255
210 229 255
210 229 255
210 229 255
210 229 255
210 229 255
210 229 255
210 229 255
210 229 255
210 229 255
210 229 255
210 229 255
202 197 219
175 52 56
176 52 57
175 52 56
188 135 150
210 229 255
210 229 255
210 229 255
210 230 255
210 230 255
210 230 255
211 230 255
211 230 255
211 230 255
211 230 255
211 230 255
211 230 255
211 230 255
211 230 255
211 230 255
211 230 255
211 230 255
211 230 255
211 230 255
211 230 255
211 230 255
211 230 255
211 230 255
211 230 255
211 230 255
211 230 255
211 230 255
211 230 255
211 230 255
211 230 255
211 230 255
211 230 255
211 230 255
211 230 255
211 230 255
211 230 255
211 230 255
211 230 255
211 230 255
211 230 255
211 230 255
212 230 255
212 230 255
212 230 255
212 230 255
212 230 255
212 230 255
212 230 255
212 230 255
212 230 255
212 230 255
212 230 255
212 230 255
212 230 255
212 230 255
212 230 255
212 230 255
212 230 255
212 230 255
212 230 255
212 230 255
212 230 255
212 230 255
212 230 255
212 230 255
212 230 255
212 230 255
212 230 255
212 230 255
212 230 255
211 230 255
211 230 255
211 230 255
211 230 255
211 230 255
211 230 255
211 230 255
211 230 255
211 230 255
211 230 255
211 230 255
211 230 255
211 230 255
211 230 255
211 230 255
211 230 255
211 230 255
211 230 255
211 230 255
211 230 255
211 230 255
211 230 255
211 230 255
211 230 255
211 230 255
211 230 255
211 230 255
211 230 255
211 230 255
211 230 255
211 230 255
211 230 255
211 230 255
211 230 255
211 230 255
211 230 255
211 230 255
210 230 255
210 230 255
210 230 255
210 230 255
210 230 255
210 229 255
210 229 255
210 229 255
210 229 255
210 229 255
210 229 255
210 229 255
210 229 255
210 229 255
210 229 255
210 229 255
210 229 255
210 229 255
210 229 255
210 229 255
210 229 255
210 229 255
210 229 255
210 229 255
210 229 255
210 229 255
210 229 255
210 229 255
210 229 255
210 229 255
210 229 255
210 229 255
210 229 255
210 229 255
210 229 255
210 229 255
210 229 255
210 229 255
210 229 255
210 229 255
210 229 255
210 229 255
210 229 255
210 229 255
210 229 255
210 229 255
210 229 255
210 229 255
210 229 255
210 229 255
210 229 255
210 229 255
210 229 255
210 229 255
210 229 255
210 229 255
210 229 255
210 229 255
210 229 255
210 229 255
210 229 255
210 229 255
210 229 255
210 229 255
210 229 255
210 229 255
210 229 255
210 229 255
210 229 255
210 229 255
210 229 255
210 229 255
210 229 255
210 229 255
210 229 255
210 229 255
210 229 255
210 229 255
210 229 255
210 229 255
210 229 255
210 229 255
210 229 255
210 229 255
210 229 255
210 230 255
210 230 255
200 189 210
176 52 57
178 52 56
178 52 56
175 52 56
187 140 156
211 230 255
211 230 255
211 230 255
211 230 255
211 230 255
211 230 255
211 230 255
211 230 255
211 230 255
211 230 255
211 230 255
211 230 255
211 230 255
211 230 255
211 230 255
211 230 255
211 230 255
211 230 255
211 230 255
211 230 255
211 230 255
211 230 255
211 230 255
211 230 255
211 230 255
211 230 255
211 230 255
211 230 255
211 230 255
211 230 255
211 230 255
211 230 255
211 230 255
211 230 255
212 230 255
212 230 255
212 230 255
212 230 255
212 230 255
212 230 255
212 230 255
212 230 255
212 230 255
212 230 255
212 230 255
212 230 255
212 230 255
212 230 255
212 230 255
212 230 255
212 230 255
212 230 255
212 231 255
212 230 255
212 230 255
212 230 255
212 230 255
212 230 255
212 230 255
212 230 255
212 230 255
212 230 255
212 230 255
212 230 255
212 230 255
212 230 255
212 230 255
212 230 255
212 230 255
212 230 255
212 230 255
212 230 255
212 230 255
212 230 255
212 230 255
212 230 255
212 230 255
212 230 255
211 230 255
211 230 255
211 230 255
211 230 255
211 230 255
211 230 255
211 230 255
211 230 255
211 230 255
211 230 255
211 230 255
211 230 255
211 230 255
211 230 255
211 230 255
211 230 255
211 230 255
211 230 255
211 230 255
211 230 255
211 230 255
211 230 255
211 230 255
211 230 255
211 230 255
211 230 255
211 230 255
211 230 255
211 230 255
211 230 255
211 230 255
211 230 255
211 230 255
211 230 255
211 230 255
211 230 255
211 230 255
211 230 255
211 230 255
211 230 255
211 230 255
211 230 255
210 230 255
210 230 255
210 230 255
210 230 255
210 230 255
210 230 255
210 229 255
210 229 255
210 229 255
210 229 255
210 229 255
210 229 255
210 229 255
210 229 255
210 229 255
210 229 255
210 229 255
210 229 255
210 229 255
210 229 255
210 229 255
210 229 255
210 229 255
210 229 255
210 229 255
210 229 255
210 229 255
210 229 255
210 229 255
210 229 255
210 229 255
210 229 255
210 229 255
210 229 255
210 229 255
210 229 255
210 229 255
210 229 255
210 229 255
210 229 255
210 229 255
210 229 255
210 229 255
210 229 255
210 229 255
210 229 255
210 229 255
210 229 255
210 229 255
210 229 255
210 229 255
210 229 255
210 229 255
210 229 255
210 229 255
210 229 255
210 229 255
210 230 255
210 230 255
210 230 255
210 230 255
210 230 255
210 230 255
210 230 255
211 230 255
211 230 255
211 230 255
211 230 255
211 230 255
211 230 255
211 230 255
211 230 255
211 230 255
195 165 183
175 60 66
193 56 60
176 52 56
172 51 56
175 52 56
185 125 139
211 230 255
211 230 255
211 230 255
211 230 255
211 230 255
211 230 255
211 230 255
211 230 255
211 230 255
211 230 255
211 230 255
211 230 255
211 230 255
211 230 255
211 230 255
211 230 255
211 230 255
211 230 255
211 230 255
211 230 255
211 230 255
211 230 255
211 230 255
211 230 255
211 230 255
211 230 255
211 230 255
212 230 255
212 230 255
212 230 255
212 230 255
212 230 255
212 230 255
212 230 255
212 230 255
212 230 255
212 230 255
212 230 255
212 230 255
212 230 255
212 230 255
212 230 255
212 230 255
212 230 255
212 230 255
212 230 255
212 230 255
212 230 255
212 230 255
212 230 255
212 230 255
212 231 255
212 231 255
212 231 255
212 231 255
212 231 255
212 231 255
212 231 255
212 231 255
212 231 255
212 230 255
212 230 255
212 230 255
212 230 255
212 230 255
212 230 255
212 230 255
212 230 255
212 230 255
212 230 255
212 230 255
212 230 255
212 230 255
212 230 255
212 230 255
212 230 255
212 230 255
212 230 255
212 230 255
212 230 255
212 230 255
212 230 255
212 230 255
212 230 255
212 230 255
211 230 255
211 230 255
211 230 255
211 230 255
211 230 255
211 230 255
211 230 255
211 230 255
211 230 255
211 230 255
211 230 255
211 230 255
211 230 255
211 230 255
211 230 255
211 230 255
211 230 255
211 230 255
211 230 255
211 230 255
211 230 255
211 230 255
211 230 255
211 230 255
211 230 255
211 230 255
211 230 255
211 230 255
211 230 255
211 230 255
211 230 255
211 230 255
211 230 255
211 230 255
211 230 255
211 230 255
211 230 255
211 230 255
211 230 255
211 230 255
211 230 255
211 230 255
211 230 255
211 230 255
211 230 255
211 230 255
211 230 255
211 230 255
211 230 255
211 230 255
211 230 255
211 230 255
211 230 255
211 230 255
211 230 255
211 230 255
211 230 255
211 230 255
211 230 255
210 230 255
211 230 255
211 230 255
210 230 255
210 230 255
210 230 255
210 230 255
210 230 255
210 230 255
210 230 255
210 230 255
210 230 255
210 230 255
210 230 255
210 230 255
210 230 255
210 230 255
211 230 255
211 230 255
211 230 255
211 230 255
211 230 255
211 230 255
211 230 255
211 230 255
211 230 255
211 230 255
211 230 255
211 230 255
211 230 255
211 230 255
211 230 255
211 230 255
211 230 255
211 230 255
211 230 255
211 230 255
211 230 255
211 230 255
211 230 255
211 230 255
211 230 255
211 230 255
211 230 255
211 230 255
211 230 255
211 230 255
211 230 255
201 196 217
174 60 66
172 51 56
176 52 57
187 54 59
175 52 57
174 51 56
187 129 143
211 230 255
211 230 255
211 230 255
211 230 255
211 230 255
211 230 255
211 230 255
211 230 255
211 230 255
211 230 255
211 230 255
211 230 255
211 230 255
211 230 255
211 230 255
211 230 255
211 230 255
211 230 255
212 230 255
212 230 255
212 230 255
212 230 255
212 230 255
212 230 255
212 230 255
212 230 255
212 230 255
212 230 255
212 230 255
212 230 255
212 230 255
212 230 255
212 230 255
212 230 255
212 230 255
212 230 255
212 230 255
212 230 255
212 230 255
212 230 255
212 230 255
212 230 255
212 230 255
212 230 255
212 231 255
212 231 255
212 231 255
212 231 255
212 231 255
212 231 255
212 231 255
212 231 255
213 231 255
213 231 255
213 231 255
213 231 255
213 231 255
213 231 255
212 231 255
212 231 255
212 231 255
212 231 255
212 231 255
212 231 255
212 231 255
212 231 255
212 231 255
212 231 255
212 230 255
212 230 255
212 230 255
212 230 255
212 230 255
212 230 255
212 230 255
212 230 255
212 230 255
212 230 255
212 230 255
212 230 255
212 230 255
212 230 255
212 230 255
212 230 255
212 230 255
212 230 255
212 230 255
212 230 255
212 230 255
212 230 255
212 230 255
212 230 255
212 230 255
212 230 255
212 230 255
211 230 255
211 230 255
211 230 255
211 230 255
211 230 255
211 230 255
211 230 255
211 230 255
211 230 255
211 230 255
211 230 255
211 230 255
211 230 255
211 230 255
211 230 255
211 230 255
211 230 255
211 230 255
211 230 255
211 230 255
211 230 255
211 230 255
211 230 255
211 230 255
211 230 255
211 230 255
211 230 255
211 230 255
211 230 255
211 230 255
211 230 255
211 230 255
211 230 255
211 230 255
211 230 255
211 230 255
211 230 255
211 230 255
211 230 255
211 230 255
211 230 255
211 230 255
211 230 255
211 230 255
211 230 255
211 230 255
211 230 255
211 230 255
211 230 255
211 230 255
211 230 255
211 230 255
211 230 255
211 230 255
211 230 255
211 230 255
211 230 255
211 230 255
211 230 255
211 230 255
211 230 255
211 230 255
211 230 255
211 230 255
211 230 255
211 230 255
211 230 255
211 230 255
211 230 255
211 230 255
211 230 255
211 230 255
211 230 255
211 230 255
211 230 255
211 230 255
211 230 255
211 230 255
211 230 255
211 230 255
211 230 255
211 230 255
211 230 255
211 230 255
211 230 255
211 230 255
211 230 255
211 230 255
211 230 255
211 230 255
211 230 255
211 230 255
211 230 255
211 230 255
211 230 255
211 230 255
198 188 209
193 56 60
187 55 59
190 55 60
173 51 56
205 60 64
176 52 56
178 52 57
183 113 125
211 230 255
211 230 255
211 230 255
211 230 255
211 230 255
211 230 255
211 230 255
211 230 255
211 230 255
212 230 255
212 230 255
212 230 255
212 230 255
212 230 255
212 230 255
212 230 255
212 230 255
212 230 255
212 230 255
212 230 255
212 230 255
212 230 255
212 230 255
212 230 255
212 230 255
212 230 255
212 230 255
212 230 255
212 230 255
212 230 255
212 230 255
212 230 255
212 230 255
212 230 255
212 230 255
212 230 255
212 231 255
212 231 255
212 231 255
212 231 255
212 231 255
212 231 255
212 231 255
212 231 255
212 231 255
212 231 255
213 231 255
213 231 255
213 231 255
213 231 255
213 231 255
213 231 255
213 231 255
213 231 255
213 231 255
213 231 255
213 231 255
213 231 255
213 231 255
213 231 255
213 231 255
213 231 255
213 231 255
213 231 255
213 231 255
212 231 255
212 231 255
212 231 255
212 231 255
212 231 255
212 231 255
212 231 255
212 231 255
212 231 255
212 231 255
212 231 255
212 230 255
212 230 255
212 230 255
212 230 255
212 230 255
212 230 255
212 230 255
212 230 255
212 230 255
212 230 255
212 230 255
212 230 255
212 230 255
212 230 255
212 230 255
212 230 255
212 230 255
212 230 255
212 230 255
212 230 255
212 230 255
212 230 255
212 230 255
212 230 255
212 230 255
212 230 255
212 230 255
212 230 255
212 230 255
212 230 255
211 230 255
211 230 255
211 230 255
211 230 255
211 230 255
211 230 255
211 230 255
211 230 255
211 230 255
211 230 255
211 230 255
211 230 255
211 230 255
211 230 255
211 230 255
211 230 255
211 230 255
211 230 255
211 230 255
211 230 255
211 230 255
211 230 255
211 230 255
211 230 255
211 230 255
211 230 255
211 230 255
211 230 255
211 230 255
211 230 255
211 230 255
211 230 255
211 230 255
211 230 255
211 230 255
211 230 255
211 230 255
211 230 255
211 230 255
211 230 255
211 230 255
211 230 255
211 230 255
211 230 255
211 230 255
211 230 255
211 230 255
211 230 255
211 230 255
211 230 255
211 230 255
211 230 255
211 230 255
211 230 255
211 230 255
211 230 255
211 230 255
211 230 255
211 230 255
211 230 255
211 230 255
211 230 255
211 230 255
211 230 255
211 230 255
211 230 255
211 230 255
211 230 255
211 230 255
211 230 255
211 230 255
211 230 255
211 230 255
211 230 255
211 230 255
211 230 255
211 230 255
211 230 255
211 230 255
211 230 255
211 230 255
211 230 255
211 230 255
211 230 255
198 185 206
174 51 56
174 51 56
177 52 56
192 56 60
175 52 56
208 60 64
176 52 56
205 59 63
189 141 156
212 230 255
212 230 255
212 230 255
212 230 255
212 230 255
212 230 255
212 230 255
212 230 255
212 230 255
212 230 255
212 230 255
212 230 255
212 230 255
212 230 255
212 230 255
212 230 255
212 230 255
212 230 255
212 230 255
212 230 255
212 230 255
212 230 255
212 230 255
212 230 255
212 230 255
212 230 255
212 230 255
212 230 255
212 231 255
212 231 255
212 231 255
212 231 255
212 231 255
212 231 255
212 231 255
212 231 255
212 231 255
212 231 255
212 231 255
213 231 255
213 231 255
213 231 255
213 231 255
213 231 255
213 231 255
213 231 255
213 231 255
213 231 255
213 231 255
213 231 255
213 231 255
213 231 255
213 231 255
213 231 255
213 231 255
213 231 255
213 231 255
213 231 255
213 231 255
213 231 255
213 231 255
213 231 255
213 231 255
213 231 255
213 231 255
213 231 255
213 231 255
213 231 255
213 231 255
213 231 255
213 231 255
213 231 255
213 231 255
213 231 255
212 231 255
212 231 255
212 231 255
212 231 255
212 231 255
212 231 255
212 231 255
212 231 255
212 231 255
212 231 255
212 231 255
212 230 255
212 230 255
212 230 255
212 230 255
212 230 255
212 230 255
212 230 255
212 230 255
212 230 255
212 230 255
212 230 255
212 230 255
212 230 255
212 230 255
212 230 255
212 230 255
212 230 255
212 230 255
212 230 255
212 230 255
212 230 255
212 230 255
212 230 255
212 230 255
212 230 255
212 230 255
212 230 255
212 230 255
212 230 255
212 230 255
212 230 255
212 230 255
212 230 255
212 230 255
212 230 255
211 230 255
211 230 255
211 230 255
211 230 255
211 230 255
211 230 255
211 230 255
211 230 255
211 230 255
211 230 255
211 230 255
211 230 255
211 230 255
211 230 255
211 230 255
211 230 255
211 230 255
211 230 255
211 230 255
211 230 255
211 230 255
211 230 255
211 230 255
211 230 255
211 230 255
211 230 255
211 230 255
211 230 255
211 230 255
211 230 255
211 230 255
211 230 255
211 230 255
211 230 255
211 230 255
211 230 255
211 230 255
211 230 255
211 230 255
211 230 255
211 230 255
211 230 255
211 230 255
211 230 255
211 230 255
211 230 255
211 230 255
211 230 255
211 230 255
211 230 255
211 230 255
211 230 255
211 230 255
211 230 255
211 230 255
211 230 255
211 230 255
211 230 255
211 230 255
211 230 255
211 230 255
211 230 255
211 230 255
211 230 255
211 230 255
212 230 255
212 230 255
212 230 255
212 230 255
202 196 217
174 51 56
192 56 60
187 55 59
190 56 60
188 55 59
191 56 60
175 51 56
178 52 57
175 52 56
186 139 154
212 230 255
212 230 255
212 230 255
212 230 255
212 230 255
212 230 255
212 230 255
212 230 255
212 230 255
212 230 255
212 230 255
212 230 255
212 230 255
212 230 255
212 230 255
212 230 255
212 230 255
212 230 255
212 230 255
212 230 255
212 231 255
212 231 255
212 231 255
212 231 255
212 231 255
212 231 255
212 231 255
212 231 255
212 231 255
212 231 255
212 231 255
213 231 255
213 231 255
213 231 255
213 231 255
213 231 255
213 231 255
213 231 255
213 231 255
213 231 255
213 231 255
213 231 255
213 231 255
213 231 255
213 231 255
213 231 255
213 231 255
213 231 255
213 231 255
213 231 255
213 231 255
213 231 255
213 231 255
213 231 255
213 231 255
213 231 255
213 231 255
213 231 255
213 231 255
213 231 255
213 231 255
213 231 255
213 231 255
213 231 255
213 231 255
213 231 255
213 231 255
213 231 255
213 231 255
213 231 255
213 231 255
213 231 255
213 231 255
213 231 255
213 231 255
213 231 255
213 231 255
213 231 255
213 231 255
213 231 255
213 231 255
213 231 255
212 231 255
212 231 255
212 231 255
212 231 255
212 231 255
212 231 255
212 231 255
212 231 255
212 231 255
212 231 255
212 231 255
212 231 255
212 231 255
212 230 255
212 230 255
212 230 255
212 230 255
212 230 255
212 230 255
212 230 255
212 230 255
212 230 255
212 230 255
212 230 255
212 230 255
212 230 255
212 230 255
212 230 255
212 230 255
212 230 255
212 230 255
212 230 255
212 230 255
212 230 255
212 230 255
212 230 255
212 230 255
212 230 255
212 230 255
212 230 255
212 230 255
212 230 255
212 230 255
212 230 255
212 230 255
212 230 255
212 230 255
212 230 255
212 230 255
212 230 255
212 230 255
212 230 255
212 230 255
212 230 255
212 230 255
212 230 255
212 230 255
212 230 255
212 230 255
212 230 255
212 230 255
723 726 730
972 972 972
967 967 968
957 958 958
942 943 944
947 948 948
947 948 948
947 948 948
922 923 924
937 938 939
937 938 939
937 938 939
952 953 953
942 943 944
962 962 963
962 962 963
957 958 958
742 745 748
212 230 255
212 230 255
212 230 255
212 230 255
212 230 255
212 230 255
212 230 255
212 230 255
212 230 255
212 230 255
212 230 255
212 230 255
212 230 255
212 230 255
212 230 255
212 230 255
212 230 255
212 230 255
212 230 255
212 230 255
212 230 255
212 230 255
212 230 255
212 230 255
212 230 255
212 230 255
212 230 255
202 197 219
174 60 66
217 62 66
174 51 56
191 56 60
215 62 66
193 56 60
176 52 56
175 52 56
175 52 56
175 52 56
186 121 134
212 230 255
212 230 255
212 230 255
212 230 255
212 230 255
212 230 255
212 230 255
212 230 255
212 230 255
212 230 255
212 231 255
212 231 255
212 231 255
212 231 255
212 231 255
212 231 255
212 231 255
212 231 255
212 231 255
212 231 255
212 231 255
212 231 255
213 231 255
213 231 255
213 231 255
213 231 255
213 231 255
213 231 255
213 231 255
213 231 255
213 231 255
213 231 255
213 231 255
213 231 255
213 231 255
213 231 255
213 231 255
213 231 255
213 231 255
213 231 255
213 231 255
213 231 255
213 231 255
213 231 255
213 231 255
213 231 255
213 231 255
213 231 255
213 231 255
213 231 255
213 231 255
213 231 255
214 231 255
213 231 255
213 231 255
213 231 255
213 231 255
213 231 255
213 231 255
213 231 255
213 231 255
213 231 255
213 231 255
213 231 255
213 231 255
213 231 255
213 231 255
213 231 255
213 231 255
213 231 255
213 231 255
213 231 255
213 231 255
213 231 255
213 231 255
213 231 255
213 231 255
213 231 255
213 231 255
213 231 255
213 231 255
213 231 255
213 231 255
213 231 255
213 231 255
213 231 255
213 231 255
213 231 255
213 231 255
213 231 255
213 231 255
213 231 255
213 231 255
212 231 255
212 231 255
212 231 255
212 231 255
212 231 255
212 231 255
212 231 255
212 231 255
212 231 255
212 231 255
212 231 255
212 231 255
212 231 255
212 230 255
212 230 255
212 230 255
212 230 255
212 230 255
212 230 255
212 230 255
212 230 255
212 230 255
212 230 255
212 230 255
212 230 255
212 230 255
212 230 255
212 230 255
212 230 255
212 230 255
212 230 255
212 230 255
212 230 255
212 230 255
212 230 255
212 230 255
212 230 255
212 230 255
212 230 255
212 230 255
212 230 255
212 230 255
212 230 255
212 230 255
212 230 255
212 230 255
212 230 255
212 230 255
212 230 255
212 230 255
611 615 621
991 991 991
991 991 991
991 991 991
991 991 991
991 991 991
991 991 991
991 991 991
991 991 991
991 991 991
991 991 991
991 991 991
991 991 991
991 991 991
991 991 991
991 991 991
991 991 991
648 652 657
212 230 255
212 230 255
212 230 255
212 230 255
212 230 255
212 230 255
212 230 255
212 230 255
212 230 255
212 230 255
212 230 255
212 230 255
212 230 255
212 230 255
212 230 255
212 230 255
212 230 255
212 230 255
212 230 255
212 230 255
212 230 255
212 230 255
212 230 255
212 230 255
212 230 255
212 230 255
197 183 202
174 51 56
176 52 56
205 59 64
200 58 62
204 59 64
173 51 56
192 56 60
191 56 60
175 52 56
217 62 66
175 52 56
202 133 147
212 231 255
212 231 255
212 231 255
212 231 255
212 231 255
212 231 255
212 231 255
212 231 255
212 231 255
212 231 255
212 231 255
213 231 255
213 231 255
213 231 255
213 231 255
213 231 255
213 231 255
213 231 255
213 231 255
213 231 255
213 231 255
213 231 255
213 231 255
213 231 255
213 231 255
213 231 255
213 231 255
213 231 255
213 231 255
213 231 255
213 231 255
213 231 255
213 231 255
213 231 255
213 231 255
213 231 255
213 231 255
213 231 255
213 231 255
213 231 255
213 231 255
213 231 255
213 231 255
213 231 255
213 231 255
213 231 255
213 231 255
213 231 255
213 231 255
213 231 255
213 231 255
213 231 255
214 231 255
214 231 255
214 231 255
214 231 255
214 231 255
214 231 255
214 231 255
214 231 255
214 231 255
213 231 255
213 231 255
213 231 255
213 231 255
213 231 255
213 231 255
213 231 255
213 231 255
213 231 255
213 231 255
213 231 255
213 231 255
213 231 255
213 231 255
213 231 255
213 231 255
213 231 255
213 231 255
213 231 255
213 231 255
213 231 255
213 231 255
213 231 255
213 231 255
213 231 255
213 231 255
213 231 255
213 231 255
213 231 255
213 231 255
213 231 255
213 231 255
213 231 255
213 231 255
213 231 255
213 231 255
213 231 255
213 231 255
213 231 255
213 231 255
213 231 255
213 231 255
213 231 255
213 231 255
212 231 255
212 231 255
212 231 255
212 231 255
212 231 255
212 231 255
212 231 255
212 231 255
212 231 255
212 231 255
212 231 255
212 231 255
212 231 255
212 231 255
212 231 255
212 231 255
212 231 255
212 230 255
212 230 255
212 230 255
212 230 255
212 230 255
212 230 255
212 230 255
212 230 255
212 230 255
212 230 255
212 230 255
212 230 255
212 230 255
212 230 255
212 230 255
212 230 255
212 230 255
212 230 255
212 230 255
212 230 255
212 230 255
359 370 384
991 991 991
991 991 991
991 991 991
991 991 991
991 991 991
991 991 991
991 991 991
991 991 991
991 991 991
991 991 991
991 991 991
991 991 991
991 991 991
991 991 991
991 991 991
991 991 991
346 357 372
212 230 255
212 230 255
212 230 255
212 230 255
212 230 255
212 230 255
212 230 255
212 230 255
212 230 255
212 230 255
212 230 255
212 230 255
212 230 255
212 230 255
212 230 255
212 230 255
212 230 255
212 230 255
212 230 255
212 230 255
212 230 255
212 231 255
212 231 255
212 231 255
212 231 255
198 185 206
189 55 60
172 51 56
206 59 63
191 56 60
186 55 59
172 51 56
192 56 60
234 67 71
175 51 56
189 55 59
175 52 56
174 51 56
198 135 149
213 231 255
213 231 255
213 231 255
213 231 255
213 231 255
213 231 255
213 231 255
213 231 255
213 231 255
213 231 255
213 231 255
213 231 255
213 231 255
213 231 255
213 231 255
213 231 255
213 231 255
213 231 255
213 231 255
213 231 255
213 231 255
213 231 255
213 231 255
213 231 255
213 231 255
213 231 255
213 231 255
213 231 255
213 231 255
213 231 255
213 231 255
213 231 255
213 231 255
213 231 255
213 231 255
213 231 255
213 231 255
213 231 255
213 231 255
213 231 255
213 231 255
213 231 255
213 231 255
213 231 255
214 231 255
214 231 255
214 231 255
214 231 255
214 231 255
214 231 255
214 231 255
214 231 255
214 231 255
214 231 255
214 231 255
214 231 255
214 231 255
214 231 255
214 231 255
214 231 255
214 231 255
214 231 255
214 231 255
214 231 255
214 231 255
214 231 255
214 231 255
214 231 255
214 231 255
213 231 255
213 231 255
213 231 255
213 231 255
213 231 255
213 231 255
213 231 255
213 231 255
213 231 255
213 231 255
213 231 255
213 231 255
213 231 255
213 231 255
213 231 255
213 231 255
213 231 255
213 231 255
213 231 255
213 231 255
213 231 255
213 231 255
213 231 255
213 231 255
213 231 255
213 231 255
213 231 255
213 231 255
213 231 255
213 231 255
213 231 255
213 231 255
213 231 255
213 231 255
213 231 255
213 231 255
213 231 255
213 231 255
213 231 255
213 231 255
213 231 255
213 231 255
213 231 255
213 231 255
213 231 255
213 231 255
213 231 255
213 231 255
213 231 255
213 231 255
212 231 255
212 231 255
212 231 255
212 231 255
212 231 255
212 231 255
212 231 255
212 231 255
212 231 255
212 231 255
212 231 255
212 231 255
212 231 255
212 231 255
212 231 255
212 231 255
212 231 255
212 231 255
212 231 255
212 231 255
212 231 255
212 231 255
212 231 255
212 231 255
212 231 255
697 700 704
785 787 790
742 745 748
703 706 711
773 775 778
703 706 711
736 738 742
723 726 730
749 751 755
717 719 724
742 745 748
655 659 664
717 719 724
669 673 678
703 706 711
697 700 704
212 231 255
212 231 255
212 231 255
212 231 255
212 231 255
212 231 255
212 231 255
212 231 255
212 231 255
212 231 255
212 231 255
212 231 255
212 231 255
212 231 255
212 231 255
212 231 255
212 231 255
212 231 255
212 231 255
212 231 255
212 231 255
212 231 255
212 231 255
212 231 255
212 231 255
199 186 206
173 56 61
173 51 56
190 55 60
174 51 56
191 56 60
192 56 60
174 51 56
172 51 56
194 56 61
206 59 63
191 56 60
174 51 56
175 52 56
203 137 151
213 231 255
213 231 255
213 231 255
213 231 255
213 231 255
213 231 255
213 231 255
213 231 255
213 231 255
213 231 255
213 231 255
213 231 255
213 231 255
213 231 255
213 231 255
213 231 255
213 231 255
213 231 255
213 231 255
213 231 255
213 231 255
213 231 255
213 231 255
213 231 255
213 231 255
213 231 255
213 231 255
213 231 255
213 231 255
213 231 255
213 231 255
213 231 255
213 231 255
213 231 255
213 231 255
214 231 255
214 231 255
214 231 255
214 231 255
214 231 255
214 231 255
214 231 255
214 231 255
214 231 255
214 231 255
214 231 255
214 231 255
214 231 255
214 231 255
214 231 255
214 231 255
214 231 255
214 232 255
214 232 255
214 232 255
214 232 255
214 232 255
214 231 255
214 231 255
214 231 255
214 231 255
214 231 255
214 231 255
214 231 255
214 231 255
214 231 255
214 231 255
214 231 255
214 231 255
214 231 255
214 231 255
214 231 255
214 231 255
214 231 255
214 231 255
214 231 255
214 231 255
214 231 255
214 231 255
213 231 255
213 231 255
213 231 255
213 231 255
213 231 255
213 231 255
213 231 255
213 231 255
213 231 255
213 231 255
213 231 255
213 231 255
213 231 255
213 231 255
213 231 255
213 231 255
213 231 255
213 231 255
213 231 255
213 231 255
213 231 255
213 231 255
213 231 255
213 231 255
213 231 255
213 231 255
213 231 255
213 231 255
213 231 255
213 231 255
213 231 255
213 231 255
213 231 255
213 231 255
213 231 255
213 231 255
213 231 255
213 231 255
213 231 255
213 231 255
213 231 255
213 231 255
213 231 255
213 231 255
213 231 255
213 231 255
213 231 255
213 231 255
213 231 255
213 231 255
213 231 255
213 231 255
213 231 255
213 231 255
213 231 255
213 231 255
213 231 255
213 231 255
213 231 255
213 231 255
213 231 255
213 231 255
213 231 255
213 231 255
213 231 255
213 231 255
213 231 255
213 231 255
213 231 255
213 231 255
213 231 255
213 231 255
213 231 255
213 231 255
213 231 255
213 231 255
213 231 255
213 231 255
213 231 255
213 231 255
213 231 255
213 231 255
213 231 255
213 231 255
213 231 255
213 231 255
213 231 255
213 231 255
213 231 255
213 231 255
213 231 255
213 231 255
213 231 255
213 231 255
213 231 255
213 231 255
213 231 255
213 231 255
213 231 255
213 231 255
213 231 255
213 231 255
213 231 255
213 231 255
213 231 255
201 192 213
171 50 55
171 51 56
190 55 60
191 56 60
172 51 56
219 63 67
220 63 67
175 52 56
204 59 63
207 60 64
191 56 60
192 56 60
175 52 56
175 52 56
182 121 134
213 231 255
213 231 255
213 231 255
213 231 255
213 231 255
213 231 255
213 231 255
213 231 255
213 231 255
213 231 255
213 231 255
213 231 255
213 231 255
213 231 255
213 231 255
213 231 255
213 231 255
213 231 255
213 231 255
213 231 255
213 231 255
213 231 255
213 231 255
213 231 255
214 231 255
214 231 255
214 231 255
214 231 255
214 231 255
214 231 255
214 231 255
214 231 255
214 231 255
214 231 255
214 231 255
214 231 255
214 231 255
214 231 255
214 231 255
214 231 255
214 231 255
214 231 255
214 231 255
214 231 255
214 231 255
214 231 255
214 231 255
214 232 255
214 232 255
214 232 255
214 232 255
214 232 255
214 232 255
214 232 255
214 232 255
214 232 255
214 232 255
214 232 255
214 232 255
214 232 255
214 232 255
214 232 255
214 232 255
214 232 255
214 232 255
214 232 255
214 231 255
214 231 255
214 231 255
214 231 255
214 231 255
214 231 255
214 231 255
214 231 255
214 231 255
214 231 255
214 231 255
214 231 255
214 231 255
214 231 255
214 231 255
214 231 255
214 231 255
214 231 255
214 231 255
214 231 255
214 231 255
214 231 255
214 231 255
214 231 255
214 231 255
213 231 255
213 231 255
213 231 255
213 231 255
213 231 255
213 231 255
213 231 255
213 231 255
213 231 255
213 231 255
213 231 255
213 231 255
213 231 255
213 231 255
213 231 255
213 231 255
213 231 255
213 231 255
213 231 255
213 231 255
213 231 255
213 231 255
213 231 255
213 231 255
213 231 255
213 231 255
213 231 255
213 231 255
213 231 255
213 231 255
213 231 255
213 231 255
213 231 255
213 231 255
213 231 255
213 231 255
213 231 255
213 231 255
213 231 255
213 231 255
213 231 255
213 231 255
213 231 255
213 231 255
213 231 255
213 231 255
213 231 255
213 231 255
213 231 255
213 231 255
213 231 255
213 231 255
213 231 255
213 231 255
213 231 255
213 231 255
213 231 255
213 231 255
213 231 255
213 231 255
213 231 255
213 231 255
213 231 255
213 231 255
213 231 255
213 231 255
213 231 255
213 231 255
213 231 255
213 231 255
213 231 255
213 231 255
213 231 255
213 231 255
213 231 255
213 231 255
213 231 255
213 231 255
213 231 255
213 231 255
213 231 255
213 231 255
213 231 255
213 231 255
213 231 255
213 231 255
213 231 255
213 231 255
213 231 255
213 231 255
213 231 255
213 231 255
199 186 206
170 50 55
174 51 56
206 59 63
206 60 64
176 52 56
173 51 56
246 70 74
191 56 60
190 56 60
174 51 56
177 52 56
195 56 60
173 51 56
175 52 56
191 56 60
188 136 150
213 231 255
213 231 255
213 231 255
213 231 255
213 231 255
213 231 255
213 231 255
213 231 255
213 231 255
213 231 255
213 231 255
213 231 255
213 231 255
213 231 255
213 231 255
214 231 255
214 231 255
214 231 255
214 231 255
214 231 255
214 231 255
214 231 255
214 231 255
214 231 255
214 231 255
214 231 255
214 231 255
214 231 255
214 231 255
214 231 255
214 231 255
214 231 255
214 231 255
214 231 255
214 231 255
214 231 255
214 231 255
214 231 255
214 232 255
214 232 255
214 232 255
214 232 255
214 232 255
214 232 255
214 232 255
214 232 255
214 232 255
214 232 255
214 232 255
214 232 255
214 232 255
214 232 255
215 232 255
215 232 255
215 232 255
214 232 255
214 232 255
214 232 255
214 232 255
214 232 255
214 232 255
214 232 255
214 232 255
214 232 255
214 232 255
214 232 255
214 232 255
214 232 255
214 232 255
214 232 255
214 232 255
214 232 255
214 232 255
214 232 255
214 232 255
214 232 255
214 232 255
214 231 255
214 231 255
214 231 255
214 231 255
214 231 255
214 231 255
214 231 255
214 231 255
214 231 255
214 231 255
214 231 255
214 231 255
214 231 255
214 231 255
214 231 255
214 231 255
214 231 255
214 231 255
214 231 255
214 231 255
214 231 255
214 231 255
214 231 255
214 231 255
214 231 255
214 231 255
213 231 255
213 231 255
213 231 255
213 231 255
213 231 255
213 231 255
213 231 255
213 231 255
213 231 255
213 231 255
213 231 255
213 231 255
213 231 255
213 231 255
213 231 255
213 231 255
213 231 255
213 231 255
213 231 255
213 231 255
213 231 255
213 231 255
213 231 255
213 231 255
213 231 255
213 231 255
213 231 255
213 231 255
213 231 255
213 231 255
213 231 255
213 231 255
213 231 255
213 231 255
213 231 255
213 231 255
213 231 255
213 231 255
213 231 255
213 231 255
213 231 255
213 231 255
213 231 255
213 231 255
213 231 255
213 231 255
213 231 255
213 231 255
213 231 255
213 231 255
213 231 255
213 231 255
213 231 255
213 231 255
213 231 255
213 231 255
213 231 255
213 231 255
213 231 255
213 231 255
213 231 255
213 231 255
213 231 255
213 231 255
213 231 255
213 231 255
213 231 255
213 231 255
213 231 255
213 231 255
213 231 255
213 231 255
213 231 255
213 231 255
213 231 255
213 231 255
213 231 255
213 231 255
213 231 255
200 193 213
169 55 61
171 50 55
173 51 56
206 60 64
205 59 63
219 63 67
173 51 56
187 55 59
203 59 63
190 56 60
190 55 60
189 55 60
177 52 56
175 52 56
177 52 56
175 52 56
184 120 132
213 231 255
213 231 255
214 231 255
214 231 255
214 231 255
214 231 255
214 231 255
214 231 255
214 231 255
214 231 255
214 231 255
214 231 255
214 231 255
214 231 255
214 231 255
214 231 255
214 231 255
214 231 255
214 231 255
214 231 255
214 231 255
214 231 255
214 231 255
214 231 255
214 231 255
214 231 255
214 231 255
214 231 255
214 232 255
214 232 255
214 232 255
214 232 255
214 232 255
214 232 255
214 232 255
214 232 255
214 232 255
214 232 255
214 232 255
214 232 255
214 232 255
214 232 255
214 232 255
214 232 255
214 232 255
214 232 255
214 232 255
214 232 255
214 232 255
215 232 255
215 232 255
215 232 255
215 232 255
215 232 255
215 232 255
215 232 255
215 232 255
215 232 255
215 232 255
215 232 255
215 232 255
215 232 255
215 232 255
215 232 255
215 232 255
214 232 255
214 232 255
214 232 255
214 232 255
214 232 255
214 232 255
214 232 255
214 232 255
214 232 255
214 232 255
214 232 255
214 232 255
214 232 255
214 232 255
214 232 255
214 232 255
214 232 255
214 232 255
214 232 255
214 232 255
214 232 255
214 232 255
214 232 255
214 231 255
214 231 255
214 231 255
214 231 255
214 231 255
214 231 255
214 231 255
214 231 255
214 231 255
214 231 255
214 231 255
214 231 255
214 231 255
214 231 255
214 231 255
214 231 255
214 231 255
214 231 255
214 231 255
214 231 255
214 231 255
214 231 255
214 231 255
214 231 255
214 231 255
214 231 255
214 231 255
214 231 255
214 231 255
214 231 255
214 231 255
213 231 255
213 231 255
213 231 255
213 231 255
213 231 255
213 231 255
213 231 255
213 231 255
213 231 255
213 231 255
213 231 255
213 231 255
213 231 255
213 231 255
213 231 255
213 231 255
213 231 255
213 231 255
213 231 255
213 231 255
213 231 255
213 231 255
213 231 255
213 231 255
213 231 255
213 231 255
213 231 255
213 231 255
213 231 255
213 231 255
213 231 255
213 231 255
213 231 255
213 231 255
213 231 255
213 231 255
213 231 255
213 231 255
213 231 255
213 231 255
213 231 255
213 231 255
213 231 255
213 231 255
213 231 255
213 231 255
213 231 255
213 231 255
213 231 255
213 231 255
213 231 255
213 231 255
213 231 255
213 231 255
213 231 255
213 231 255
213 231 255
213 231 255
213 231 255
213 231 255
213 231 255
213 231 255
196 186 205
170 55 61
172 51 55
191 55 59
171 51 55
188 55 59
204 59 63
175 51 56
231 66 70
219 63 67
171 51 56
206 60 63
191 56 60
193 56 60
174 51 56
207 60 64
175 52 56
175 51 56
187 132 145
214 231 255
214 231 255
214 231 255
214 231 255
214 231 255
214 231 255
214 231 255
214 231 255
214 231 255
214 231 255
214 231 255
214 231 255
214 231 255
214 231 255
214 231 255
214 231 255
214 232 255
214 232 255
214 232 255
214 232 255
214 232 255
214 232 255
214 232 255
214 232 255
214 232 255
214 232 255
214 232 255
214 232 255
214 232 255
214 232 255
214 232 255
214 232 255
214 232 255
214 232 255
214 232 255
214 232 255
214 232 255
214 232 255
214 232 255
215 232 255
215 232 255
215 232 255
215 232 255
215 232 255
215 232 255
215 232 255
215 232 255
215 232 255
215 232 255
215 232 255
215 232 255
215 232 255
215 232 255
215 232 255
215 232 255
215 232 255
215 232 255
215 232 255
215 232 255
215 232 255
215 232 255
215 232 255
215 232 255
215 232 255
215 232 255
215 232 255
215 232 255
215 232 255
215 232 255
215 232 255
215 232 255
215 232 255
215 232 255
215 232 255
215 232 255
215 232 255
214 232 255
214 232 255
214 232 255
214 232 255
214 232 255
214 232 255
214 232 255
214 232 255
214 232 255
214 232 255
214 232 255
214 232 255
214 232 255
214 232 255
214 232 255
214 232 255
214 232 255
214 232 255
214 232 255
214 232 255
214 232 255
214 232 255
214 232 255
214 232 255
214 231 255
214 231 255
214 231 255
214 231 255
214 231 255
214 231 255
214 231 255
214 231 255
214 231 255
214 231 255
214 231 255
214 231 255
214 231 255
214 231 255
214 231 255
214 231 255
214 231 255
214 231 255
214 231 255
214 231 255
214 231 255
214 231 255
214 231 255
213 231 255
212 229 253
212 229 252
211 228 252
212 229 253
212 229 253
211 229 253
212 229 253
212 229 253
210 227 251
213 230 254
212 229 252
212 229 252
212 229 253
212 229 253
212 229 253
212 229 252
212 229 253
211 228 252
211 228 252
211 228 252
212 229 253
210 228 251
212 230 254
211 228 251
212 229 253
211 229 253
212 229 252
212 229 252
213 230 254
213 230 254
212 229 253
211 229 253
212 230 254
213 230 254
212 229 252
212 229 253
211 229 253
211 228 252
211 228 252
212 230 254
212 229 253
213 230 254
211 229 253
212 229 253
211 228 250
213 230 254
212 230 253
212 230 254
213 230 254
213 230 254
213 230 254
212 229 253
211 229 253
212 229 253
212 229 252
212 230 254
196 179 197
197 57 61
170 50 55
170 50 55
173 51 56
172 51 56
173 51 56
189 55 60
220 63 67
201 58 62
203 59 63
206 60 64
191 56 60
217 62 66
202 59 63
202 59 63
176 52 56
178 52 56
192 56 60
186 124 137
214 231 255
214 231 255
214 231 255
214 232 255
214 232 255
214 232 255
214 232 255
214 232 255
214 232 255
214 232 255
214 232 255
214 232 255
214 232 255
214 232 255
214 232 255
214 232 255
214 232 255
214 232 255
214 232 255
214 232 255
214 232 255
214 232 255
214 232 255
214 232 255
214 232 255
214 232 255
214 232 255
214 232 255
214 232 255
215 232 255
215 232 255
215 232 255
215 232 255
215 232 255
215 232 255
215 232 255
215 232 255
215 232 255
215 232 255
215 232 255
215 232 255
215 232 255
215 232 255
215 232 255
215 232 255
215 232 255
215 232 255
215 232 255
215 232 255
215 232 255
215 232 255
215 232 255
215 232 255
215 232 255
215 232 255
215 232 255
215 232 255
215 232 255
215 232 255
215 232 255
215 232 255
215 232 255
215 232 255
215 232 255
215 232 255
215 232 255
215 232 255
215 232 255
215 232 255
215 232 255
215 232 255
215 232 255
215 232 255
215 232 255
215 232 255
215 232 255
215 232 255
215 232 255
215 232 255
215 232 255
215 232 255
215 232 255
215 232 255
215 232 255
215 232 255
215 232 255
215 232 255
214 232 255
214 232 255
214 232 255
214 232 255
214 232 255
214 232 255
214 232 255
214 232 255
214 232 255
214 232 255
214 232 255
214 232 255
214 232 255
214 232 255
214 232 255
214 232 255
214 232 255
214 232 255
214 232 255
214 232 255
214 232 255
214 232 255
214 232 255
214 232 255
214 232 255
214 232 255
214 232 255
214 232 255
214 232 255
214 232 255
214 232 255
214 231 255
214 231 255
214 231 255
214 231 255
214 231 255
212 230 253
192 204 221
194 205 221
192 204 221
190 203 221
194 205 221
192 204 221
193 205 221
191 204 221
190 203 221
191 204 221
190 203 221
190 203 221
190 203 221
192 204 221
192 204 221
190 203 221
191 203 221
191 204 221
192 204 221
192 204 221
191 204 221
191 204 221
192 204 221
190 203 221
194 205 221
190 203 221
193 205 221
190 203 221
193 205 221
191 204 221
191 204 221
191 204 221
190 203 221
191 204 221
191 204 221
193 205 221
191 204 221
192 204 221
192 204 221
191 203 221
191 204 221
191 204 221
189 202 221
188 202 221
192 204 221
190 203 221
190 203 221
191 203 221
193 205 221
191 204 221
191 203 221
191 203 221
193 205 221
193 204 221
193 205 221
192 204 221
183 102 112
169 50 55
171 51 55
170 50 55
171 51 55
231 66 70
243 69 73
204 59 63
206 59 63
229 66 69
190 55 60
176 52 56
234 67 70
206 60 64
191 56 60
204 59 63
174 51 56
189 55 60
176 52 56
187 132 145
214 232 255
214 232 255
214 232 255
214 232 255
214 232 255
214 232 255
214 232 255
214 232 255
214 232 255
214 232 255
214 232 255
214 232 255
214 232 255
214 232 255
214 232 255
214 232 255
215 232 255
215 232 255
215 232 255
215 232 255
215 232 255
215 232 255
215 232 255
215 232 255
215 232 255
215 232 255
215 232 255
215 232 255
215 232 255
215 232 255
215 232 255
215 232 255
215 232 255
215 232 255
215 232 255
215 232 255
215 232 255
215 232 255
215 232 255
215 232 255
215 232 255
215 232 255
215 232 255
215 232 255
215 232 255
215 232 255
215 232 255
215 232 255
215 232 255
215 232 255
215 232 255
215 232 255
215 232 255
215 232 255
215 232 255
215 232 255
215 232 255
215 232 255
215 232 255
215 232 255
215 232 255
215 232 255
215 232 255
215 232 255
215 232 255
215 232 255
215 232 255
215 232 255
215 232 255
215 232 255
215 232 255
215 232 255
215 232 255
215 232 255
215 232 255
215 232 255
215 232 255
215 232 255
215 232 255
215 232 255
215 232 255
215 232 255
215 232 255
215 232 255
215 232 255
215 232 255
215 232 255
215 232 255
215 232 255
215 232 255
215 232 255
215 232 255
215 232 255
215 232 255
215 232 255
215 232 255
215 232 255
215 232 255
215 232 255
215 232 255
215 232 255
215 232 255
214 232 255
214 232 255
214 232 255
214 232 255
214 232 255
214 232 255
214 232 255
214 232 255
214 232 255
214 232 255
214 232 255
214 232 255
214 232 255
214 232 255
214 232 255
214 232 255
214 232 255
214 232 255
214 232 255
214 232 255
214 232 255
212 229 253
193 205 221
193 205 221
191 204 221
191 204 221
193 205 221
192 204 221
194 206 221
192 204 221
193 204 221
193 205 221
190 203 221
192 204 221
193 205 221
190 203 221
191 204 221
190 203 221
191 203 221
190 203 221
191 204 221
189 203 221
191 204 221
190 203 221
193 205 221
193 205 221
192 204 221
192 204 221
192 204 221
192 204 221
192 204 221
191 204 221
193 205 221
192 204 221
194 205 221
193 205 221
193 205 221
194 206 221
192 204 221
192 204 221
192 204 221
191 204 221
193 205 221
191 204 221
192 204 221
190 203 221
190 203 221
191 203 221
193 205 221
190 203 221
191 203 221
192 204 221
191 204 221
192 204 221
190 203 221
192 204 221
192 204 221
191 204 221
169 88 97
168 50 55
171 50 55
169 50 55
171 50 55
203 59 63
169 50 55
246 70 73
217 62 66
215 62 66
171 50 55
205 59 63
187 55 59
203 59 63
190 55 60
174 51 56
175 52 56
193 56 60
185 54 59
183 113 125
214 232 255
215 232 255
214 232 255
215 232 255
215 232 255
215 232 255
215 232 255
215 232 255
215 232 255
215 232 255
215 232 255
215 232 255
215 232 255
215 232 255
215 232 255
215 232 255
215 232 255
215 232 255
215 232 255
215 232 255
215 232 255
215 232 255
215 232 255
215 232 255
215 232 255
215 232 255
215 232 255
215 232 255
215 232 255
215 232 255
215 232 255
215 232 255
215 232 255
215 232 255
215 232 255
215 232 255
215 232 255
215 232 255
215 232 255
215 232 255
215 232 255
215 232 255
215 232 255
215 232 255
215 232 255
215 232 255
215 232 255
215 232 255
215 232 255
215 232 255
215 232 255
215 232 255
216 232 255
216 232 255
216 232 255
216 232 255
216 232 255
216 232 255
216 232 255
216 232 255
215 232 255
215 232 255
215 232 255
215 232 255
215 232 255
215 232 255
215 232 255
215 232 255
215 232 255
215 232 255
215 232 255
215 232 255
215 232 255
215 232 255
215 232 255
215 232 255
215 232 255
215 232 255
215 232 255
215 232 255
215 232 255
215 232 255
215 232 255
215 232 255
215 232 255
215 232 255
215 232 255
215 232 255
215 232 255
215 232 255
215 232 255
215 232 255
215 232 255
215 232 255
215 232 255
215 232 255
215 232 255
215 232 255
215 232 255
215 232 255
215 232 255
215 232 255
215 232 255
215 232 255
215 232 255
215 232 255
215 232 255
215 232 255
215 232 255
215 232 255
215 232 255
215 232 255
215 232 255
215 232 255
215 232 255
215 232 255
215 232 255
215 232 255
215 232 255
215 232 255
215 232 255
215 232 255
214 232 255
214 231 255
190 203 221
193 205 221
193 205 221
192 204 221
192 204 221
191 204 221
191 204 221
190 203 221
191 203 221
190 203 221
190 203 221
191 203 221
191 204 221
190 203 221
193 205 221
191 204 221
193 205 221
191 204 221
194 205 221
191 204 221
191 203 221
192 204 221
191 203 221
194 205 221
191 204 221
188 202 221
191 204 221
192 204 221
191 204 221
192 204 221
191 204 221
192 204 221
191 203 221
193 204 221
189 203 221
192 204 221
191 204 221
193 205 221
191 204 221
191 204 221
191 204 221
190 203 221
191 204 221
194 205 221
191 204 221
195 206 221
195 206 221
193 205 221
189 202 221
194 205 221
192 204 221
191 204 221
193 205 221
193 205 221
190 203 221
192 204 221
169 92 101
166 49 54
187 54 58
168 50 55
204 59 63
215 62 66
246 70 73
214 62 66
174 51 56
189 55 59
220 63 67
187 55 59
188 55 59
222 64 67
202 59 63
191 56 60
188 55 60
172 51 56
207 60 64
188 134 148
215 232 255
215 232 255
215 232 255
215 232 255
215 232 255
215 232 255
215 232 255
215 232 255
215 232 255
215 232 255
215 232 255
215 232 255
215 232 255
215 232 255
215 232 255
215 232 255
215 232 255
215 232 255
215 232 255
215 232 255
215 232 255
215 232 255
215 232 255
215 232 255
215 232 255
215 232 255
215 232 255
215 232 255
215 232 255
215 232 255
215 232 255
215 232 255
215 232 255
215 232 255
215 232 255
215 232 255
215 232 255
215 232 255
215 232 255
215 232 255
215 232 255
215 232 255
215 232 255
215 232 255
215 232 255
216 232 255
216 232 255
216 232 255
216 232 255
216 232 255
216 232 255
216 232 255
216 233 255
216 233 255
216 232 255
216 232 255
216 232 255
216 232 255
216 232 255
216 232 255
216 232 255
216 232 255
216 232 255
216 232 255
216 232 255
216 232 255
216 232 255
216 232 255
216 232 255
216 232 255
216 232 255
215 232 255
215 232 255
215 232 255
215 232 255
215 232 255
215 232 255
215 232 255
215 232 255
215 232 255
215 232 255
215 232 255
215 232 255
215 232 255
215 232 255
215 232 255
215 232 255
215 232 255
215 232 255
215 232 255
215 232 255
215 232 255
215 232 255
215 232 255
215 232 255
215 232 255
215 232 255
215 232 255
215 232 255
215 232 255
215 232 255
215 232 255
215 232 255
215 232 255
215 232 255
215 232 255
215 232 255
215 232 255
215 232 255
215 232 255
215 232 255
215 232 255
215 232 255
215 232 255
215 232 255
215 232 255
215 232 255
215 232 255
215 232 255
215 232 255
215 232 255
215 232 255
215 232 255
212 229 252
192 204 221
192 204 221
191 204 221
192 204 221
193 205 221
190 203 221
192 204 221
193 205 221
191 203 221
191 204 221
190 203 221
191 204 221
191 204 221
191 203 221
193 205 221
193 205 221
192 204 221
191 203 221
191 204 221
191 204 221
193 205 221
192 204 221
191 204 221
193 205 221
191 204 221
193 204 221
192 204 221
190 203 221
191 204 221
192 204 221
192 204 221
192 204 221
191 204 221
191 204 221
193 205 221
191 204 221
190 203 221
190 203 221
188 202 221
190 203 221
191 203 221
190 203 221
191 204 221
190 203 221
190 203 221
193 205 221
192 204 221
190 203 221
193 205 221
191 204 221
192 204 221
190 203 221
191 203 221
193 205 221
191 204 221
192 204 221
172 99 108
204 59 63
168 50 54
170 50 55
169 50 55
216 62 66
174 51 56
186 54 59
206 60 64
171 51 56
220 63 67
206 60 64
205 59 63
234 67 71
219 63 67
233 67 70
174 51 56
173 51 56
191 56 60
185 126 139
215 232 255
215 232 255
215 232 255
215 232 255
215 232 255
215 232 255
215 232 255
215 232 255
215 232 255
215 232 255
215 232 255
215 232 255
215 232 255
215 232 255
215 232 255
215 232 255
215 232 255
215 232 255
215 232 255
215 232 255
215 232 255
215 232 255
215 232 255
215 232 255
215 232 255
215 232 255
215 232 255
215 232 255
215 232 255
215 232 255
215 232 255
215 232 255
216 232 255
216 232 255
216 232 255
216 232 255
216 232 255
216 232 255
216 232 255
216 232 255
216 232 255
216 232 255
216 232 255
216 232 255
216 232 255
216 232 255
216 232 255
216 232 255
216 232 255
216 232 255
216 233 255
216 233 255
216 233 255
216 233 255
216 233 255
216 233 255
216 233 255
216 233 255
216 233 255
216 233 255
216 233 255
216 233 255
216 233 255
216 233 255
216 233 255
216 233 255
216 232 255
216 232 255
216 232 255
216 232 255
216 232 255
216 232 255
216 232 255
216 232 255
216 232 255
216 232 255
216 232 255
216 232 255
216 232 255
216 232 255
216 232 255
216 232 255
216 232 255
216 232 255
216 232 255
215 232 255
215 232 255
215 232 255
215 232 255
215 232 255
215 232 255
215 232 255
215 232 255
215 232 255
215 232 255
215 232 255
215 232 255
215 232 255
215 232 255
215 232 255
215 232 255
215 232 255
215 232 255
215 232 255
215 232 255
215 232 255
215 232 255
215 232 255
215 232 255
215 232 255
215 232 255
215 232 255
215 232 255
215 232 255
215 232 255
215 232 255
215 232 255
215 232 255
215 232 255
215 232 255
215 232 255
215 232 255
215 232 255
214 230 253
191 203 221
191 204 221
192 204 221
190 203 221
194 205 221
190 203 221
188 202 221
191 204 221
192 204 221
190 203 221
192 204 221
192 204 221
191 203 221
193 205 221
190 203 221
191 203 221
191 204 221
191 203 221
192 204 221
190 203 221
189 203 221
190 203 221
192 204 221
191 204 221
193 205 221
194 205 221
193 205 221
193 205 221
192 204 221
191 204 221
192 204 221
193 205 221
193 205 221
192 204 221
191 204 221
190 203 221
193 205 221
192 204 221
191 203 221
192 204 221
191 204 221
193 205 221
195 206 221
190 203 221
192 204 221
191 204 221
194 205 221
189 203 221
191 203 221
193 205 221
191 204 221
193 205 221
192 204 221
192 204 221
191 204 221
191 204 221
171 93 101
169 50 55
171 50 55
186 54 58
203 59 63
218 63 67
220 63 67
217 62 66
246 70 73
204 59 63
204 59 63
173 51 56
173 51 56
207 60 64
207 60 64
207 60 64
204 59 63
205 60 64
191 56 60
217 128 140
215 232 255
215 232 255
215 232 255
215 232 255
215 232 255
215 232 255
215 232 255
215 232 255
215 232 255
215 232 255
215 232 255
215 232 255
215 232 255
215 232 255
215 232 255
215 232 255
215 232 255
215 232 255
215 232 255
216 232 255
216 232 255
216 232 255
216 232 255
216 232 255
216 232 255
216 232 255
216 232 255
216 232 255
216 232 255
216 232 255
216 232 255
216 232 255
216 232 255
216 232 255
216 232 255
216 232 255
216 232 255
216 232 255
216 233 255
216 233 255
216 233 255
216 233 255
216 233 255
216 233 255
216 233 255
216 233 255
216 233 255
216 233 255
216 233 255
216 233 255
216 233 255
216 233 255
216 233 255
216 233 255
216 233 255
216 233 255
216 233 255
216 233 255
216 233 255
216 233 255
216 233 255
216 233 255
216 233 255
216 233 255
216 233 255
216 233 255
216 233 255
216 233 255
216 233 255
216 233 255
216 233 255
216 233 255
216 233 255
216 233 255
216 233 255
216 233 255
216 233 255
216 233 255
216 233 255
216 233 255
216 232 255
216 232 255
216 232 255
216 232 255
216 232 255
216 232 255
216 232 255
216 232 255
216 232 255
216 232 255
216 232 255
216 232 255
216 232 255
216 232 255
216 232 255
216 232 255
216 232 255
216 232 255
216 232 255
216 232 255
216 232 255
216 232 255
215 232 255
215 232 255
215 232 255
215 232 255
215 232 255
215 232 255
215 232 255
215 232 255
215 232 255
215 232 255
215 232 255
215 232 255
215 232 255
215 232 255
215 232 255
215 232 255
215 232 255
215 232 255
215 232 255
215 232 255
215 232 255
214 231 253
190 203 221
192 204 221
194 205 221
193 205 221
191 204 221
191 203 221
192 204 221
193 205 221
190 203 221
193 205 221
192 204 221
192 204 221
191 204 221
191 204 221
191 204 221
190 203 221
193 205 221
192 204 221
191 204 221
191 204 221
191 204 221
191 203 221
189 202 221
191 204 221
190 203 221
193 205 221
192 204 221
191 204 221
194 205 221
191 203 221
192 204 221
191 204 221
191 204 221
192 204 221
193 205 221
193 205 221
190 203 221
193 205 221
192 204 221
192 204 221
190 203 221
192 204 221
192 204 221
191 204 221
189 203 221
192 204 221
194 206 221
192 204 221
192 204 221
191 204 221
190 203 221
189 202 221
190 203 221
191 204 221
192 204 221
190 203 221
171 98 108
199 58 62
168 50 55
186 54 59
218 63 67
218 63 66
186 55 59
204 59 63
201 59 63
219 63 67
233 67 70
233 67 70
218 63 67
191 56 60
190 56 60
190 56 60
191 56 60
174 51 56
177 52 56
202 128 140
215 232 255
215 232 255
216 232 255
216 232 255
216 232 255
216 232 255
216 232 255
216 232 255
216 232 255
216 232 255
216 232 255
216 232 255
216 232 255
216 232 255
216 232 255
216 232 255
216 232 255
216 232 255
216 232 255
216 232 255
216 232 255
216 232 255
216 232 255
216 233 255
216 233 255
216 233 255
216 233 255
216 233 255
216 233 255
216 233 255
216 233 255
216 233 255
216 233 255
216 233 255
216 233 255
216 233 255
216 233 255
216 233 255
216 233 255
216 233 255
216 233 255
216 233 255
216 233 255
216 233 255
216 233 255
216 233 255
216 233 255
216 233 255
216 233 255
216 233 255
216 233 255
216 233 255
216 233 255
216 233 255
216 233 255
216 233 255
216 233 255
216 233 255
216 233 255
216 233 255
216 233 255
216 233 255
216 233 255
216 233 255
216 233 255
216 233 255
216 233 255
216 233 255
216 233 255
216 233 255
216 233 255
216 233 255
216 233 255
216 233 255
216 233 255
216 233 255
216 233 255
216 233 255
216 233 255
216 233 255
216 233 255
216 233 255
216 233 255
216 233 255
216 233 255
216 233 255
216 233 255
216 233 255
216 233 255
216 233 255
216 233 255
216 233 255
216 233 255
216 233 255
216 233 255
216 233 255
216 232 255
216 232 255
216 232 255
216 232 255
216 232 255
216 232 255
216 232 255
216 232 255
216 232 255
216 232 255
216 232 255
216 232 255
216 232 255
216 232 255
216 232 255
216 232 255
216 232 255
216 232 255
216 232 255
216 232 255
216 232 255
216 232 255
216 232 255
216 232 255
216 232 255
216 232 255
216 232 255
215 231 254
193 205 221
194 205 221
194 205 221
193 205 221
192 204 221
192 204 221
191 204 221
190 203 221
192 204 221
191 204 221
191 203 221
193 205 221
194 205 221
191 204 221
191 204 221
192 204 221
193 204 221
191 204 221
192 204 221
190 203 221
193 205 221
190 203 221
193 205 221
190 203 221
193 205 221
192 204 221
192 204 221
190 203 221
191 204 221
191 203 221
193 205 221
193 205 221
191 204 221
194 205 221
192 204 221
192 204 221
191 204 221
191 204 221
195 206 221
191 204 221
190 203 221
192 204 221
193 205 221
192 204 221
193 205 221
191 204 221
192 204 221
192 204 221
193 205 221
192 204 221
188 202 221
192 204 221
189 203 221
189 203 221
195 206 221
192 204 221
171 96 106
164 49 54
167 50 54
167 50 55
186 54 59
217 63 67
230 66 70
205 59 63
189 55 59
258 73 76
232 67 70
256 73 76
218 63 67
205 59 64
174 51 56
190 56 60
217 63 66
190 55 60
204 59 63
195 108 119
216 232 255
216 232 255
216 232 255
216 232 255
216 232 255
216 232 255
216 232 255
216 233 255
216 233 255
216 233 255
216 233 255
216 233 255
216 233 255
216 233 255
216 233 255
216 233 255
216 233 255
216 233 255
216 233 255
216 233 255
216 233 255
216 233 255
216 233 255
216 233 255
216 233 255
216 233 255
216 233 255
216 233 255
216 233 255
216 233 255
216 233 255
216 233 255
216 233 255
216 233 255
216 233 255
216 233 255
216 233 255
216 233 255
216 233 255
216 233 255
216 233 255
216 233 255
216 233 255
216 233 255
216 233 255
216 233 255
216 233 255
216 233 255
216 233 255
216 233 255
216 233 255
216 233 255
217 233 255
217 233 255
217 233 255
217 233 255
217 233 255
217 233 255
217 233 255
217 233 255
217 233 255
217 233 255
217 233 255
217 233 255
217 233 255
217 233 255
217 233 255
216 233 255
216 233 255
216 233 255
216 233 255
216 233 255
216 233 255
216 233 255
216 233 255
216 233 255
216 233 255
216 233 255
216 233 255
216 233 255
216 233 255
216 233 255
216 233 255
216 233 255
216 233 255
216 233 255
216 233 255
216 233 255
216 233 255
216 233 255
216 233 255
216 233 255
216 233 255
216 233 255
216 233 255
216 233 255
216 233 255
216 233 255
216 233 255
216 233 255
216 233 255
216 233 255
216 233 255
216 233 255
216 233 255
216 233 255
216 233 255
216 233 255
216 233 255
216 233 255
216 233 255
216 233 255
216 233 255
216 233 255
216 233 255
216 233 255
216 233 255
216 233 255
216 233 255
216 232 255
216 232 255
216 232 255
216 232 255
213 229 251
190 203 221
191 204 221
192 204 221
192 204 221
192 204 221
192 204 221
192 204 221
188 202 221
189 202 221
189 203 221
191 203 221
189 203 221
190 203 221
193 205 221
192 204 221
192 204 221
190 203 221
190 203 221
193 205 221
193 205 221
189 203 221
192 204 221
193 205 221
191 204 221
189 202 221
191 204 221
192 204 221
191 203 221
193 205 221
191 204 221
192 204 221
189 202 221
191 204 221
190 203 221
191 203 221
192 204 221
191 203 221
194 205 221
191 204 221
192 204 221
194 205 221
192 204 221
192 204 221
192 204 221
193 205 221
189 203 221
193 205 221
192 204 221
193 205 221
192 204 221
191 204 221
193 205 221
193 205 221
192 204 221
191 203 221
193 205 221
169 92 99
197 57 62
168 50 54
169 50 55
216 62 66
199 58 62
204 59 63
218 63 67
279 79 82
171 51 55
203 59 63
219 63 67
193 56 60
217 63 67
206 60 63
189 55 60
189 55 60
192 56 60
177 52 56
196 109 119
216 233 255
216 233 255
216 233 255
216 233 255
216 233 255
216 233 255
216 233 255
216 233 255
216 233 255
216 233 255
216 233 255
216 233 255
216 233 255
216 233 255
216 233 255
216 233 255
216 233 255
216 233 255
216 233 255
216 233 255
216 233 255
216 233 255
216 233 255
216 233 255
216 233 255
216 233 255
216 233 255
216 233 255
216 233 255
216 233 255
216 233 255
216 233 255
216 233 255
216 233 255
216 233 255
216 233 255
216 233 255
216 233 255
217 233 255
217 233 255
217 233 255
217 233 255
217 233 255
217 233 255
217 233 255
217 233 255
217 233 255
217 233 255
217 233 255
217 233 255
217 233 255
217 233 255
217 233 255
217 233 255
217 233 255
217 233 255
217 233 255
217 233 255
217 233 255
217 233 255
217 233 255
217 233 255
217 233 255
217 233 255
217 233 255
217 233 255
217 233 255
217 233 255
217 233 255
217 233 255
217 233 255
217 233 255
217 233 255
217 233 255
217 233 255
217 233 255
217 233 255
217 233 255
217 233 255
217 233 255
217 233 255
217 233 255
216 233 255
216 233 255
216 233 255
216 233 255
216 233 255
216 233 255
216 233 255
216 233 255
216 233 255
216 233 255
216 233 255
216 233 255
216 233 255
216 233 255
216 233 255
216 233 255
216 233 255
216 233 255
216 233 255
216 233 255
216 233 255
216 233 255
216 233 255
216 233 255
216 233 255
216 233 255
216 233 255
216 233 255
216 233 255
216 233 255
216 233 255
216 233 255
216 233 255
216 233 255
216 233 255
216 233 255
216 233 255
216 233 255
216 233 255
216 233 255
216 233 255
213 228 250
194 205 221
190 203 221
194 205 221
190 203 221
190 203 221
190 203 221
191 204 221
192 204 221
191 204 221
190 203 221
191 204 221
189 202 221
191 203 221
190 203 221
192 204 221
193 204 221
193 205 221
192 204 221
194 205 221
194 205 221
193 205 221
190 203 221
188 202 221
190 203 221
192 204 221
191 204 221
192 204 221
192 204 221
191 203 221
191 204 221
190 203 221
193 205 221
193 205 221
192 204 221
191 203 221
192 204 221
193 205 221
194 205 221
193 205 221
190 203 221
193 205 221
189 203 221
192 204 221
189 203 221
192 204 221
192 204 221
191 204 221
190 203 221
192 204 221
190 203 221
193 205 221
189 203 221
193 205 221
191 203 221
191 204 221
192 204 221
171 103 112
168 50 54
184 54 58
243 69 73
202 59 63
213 61 65
203 59 63
204 59 63
191 55 60
235 67 71
219 63 66
205 59 63
204 59 63
219 63 67
204 59 63
189 55 60
172 51 56
187 54 59
202 59 63
186 125 137
216 233 255
216 233 255
216 233 255
216 233 255
216 233 255
216 233 255
216 233 255
216 233 255
216 233 255
216 233 255
216 233 255
216 233 255
216 233 255
216 233 255
216 233 255
216 233 255
216 233 255
216 233 255
216 233 255
216 233 255
216 233 255
216 233 255
217 233 255
217 233 255
217 233 255
217 233 255
217 233 255
217 233 255
217 233 255
217 233 255
217 233 255
217 233 255
217 233 255
217 233 255
217 233 255
217 233 255
217 233 255
217 233 255
217 233 255
217 233 255
217 233 255
217 233 255
217 233 255
217 233 255
217 233 255
217 233 255
217 233 255
217 233 255
217 233 255
217 233 255
217 233 255
217 233 255
217 233 255
217 233 255
217 233 255
217 233 255
217 233 255
217 233 255
217 233 255
217 233 255
217 233 255
217 233 255
217 233 255
217 233 255
217 233 255
217 233 255
217 233 255
217 233 255
217 233 255
217 233 255
217 233 255
217 233 255
217 233 255
217 233 255
217 233 255
217 233 255
217 233 255
217 233 255
217 233 255
217 233 255
217 233 255
217 233 255
217 233 255
217 233 255
217 233 255
217 233 255
217 233 255
217 233 255
217 233 255
217 233 255
217 233 255
217 233 255
217 233 255
217 233 255
217 233 255
217 233 255
217 233 255
217 233 255
217 233 255
217 233 255
217 233 255
217 233 255
216 233 255
216 233 255
216 233 255
216 233 255
216 233 255
216 233 255
216 233 255
216 233 255
216 233 255
216 233 255
216 233 255
216 233 255
216 233 255
216 233 255
216 233 255
216 233 255
216 233 255
216 233 255
216 233 255
216 233 255
216 233 255
214 230 253
191 204 221
190 203 221
193 205 221
190 203 221
191 203 221
191 204 221
190 203 221
189 203 221
193 205 221
190 203 221
190 203 221
191 204 221
190 203 221
192 204 221
190 203 221
193 205 221
193 205 221
192 204 221
192 204 221
191 204 221
194 205 221
192 204 221
190 203 221
191 204 221
191 204 221
192 204 221
190 203 221
192 204 221
195 206 221
190 203 221
192 204 221
191 204 221
190 203 221
193 205 221
193 205 221
192 204 221
192 204 221
192 204 221
193 204 221
192 204 221
193 204 221
191 203 221
193 205 221
192 204 221
191 204 221
194 205 221
190 203 221
190 203 221
193 205 221
191 204 221
191 204 221
190 203 221
192 204 221
192 204 221
194 205 221
192 204 221
169 92 101
201 58 62
206 60 63
230 66 69
253 72 75
232 66 70
241 69 73
186 54 59
245 70 73
243 69 73
172 51 56
174 51 56
175 51 56
189 55 60
190 56 60
189 55 60
190 55 60
177 52 56
191 56 60
187 138 152
216 233 255
216 233 255
217 233 255
217 233 255
217 233 255
217 233 255
217 233 255
217 233 255
217 233 255
217 233 255
217 233 255
217 233 255
217 233 255
217 233 255
217 233 255
217 233 255
217 233 255
217 233 255
217 233 255
217 233 255
217 233 255
217 233 255
217 233 255
217 233 255
217 233 255
217 233 255
217 233 255
217 233 255
217 233 255
217 233 255
217 233 255
217 233 255
217 233 255
217 233 255
217 233 255
217 233 255
217 233 255
217 233 255
217 233 255
217 233 255
217 233 255
217 233 255
217 233 255
217 233 255
217 233 255
217 233 255
217 233 255
217 233 255
217 233 255
217 233 255
217 233 255
217 233 255
217 233 255
217 233 255
217 233 255
217 233 255
217 233 255
217 233 255
217 233 255
217 233 255
217 233 255
217 233 255
217 233 255
217 233 255
217 233 255
217 233 255
217 233 255
217 233 255
217 233 255
217 233 255
217 233 255
217 233 255
217 233 255
217 233 255
217 233 255
217 233 255
217 233 255
217 233 255
217 233 255
217 233 255
217 233 255
217 233 255
217 233 255
217 233 255
217 233 255
217 233 255
217 233 255
217 233 255
217 233 255
217 233 255
217 233 255
217 233 255
217 233 255
217 233 255
217 233 255
217 233 255
217 233 255
217 233 255
217 233 255
217 233 255
217 233 255
217 233 255
217 233 255
217 233 255
217 233 255
217 233 255
217 233 255
217 233 255
217 233 255
217 233 255
217 233 255
217 233 255
217 233 255
217 233 255
217 233 255
217 233 255
217 233 255
217 233 255
217 233 255
217 233 255
217 233 255
217 233 255
217 233 255
215 231 253
191 204 221
192 204 221
191 203 221
191 204 221
193 205 221
192 204 221
192 204 221
190 203 221
193 205 221
192 204 221
192 204 221
193 204 221
189 202 221
191 204 221
191 204 221
193 205 221
192 204 221
190 203 221
193 205 221
191 204 221
191 204 221
193 204 221
192 204 221
192 204 221
191 204 221
192 204 221
194 205 221
191 203 221
191 204 221
190 203 221
193 205 221
190 203 221
191 204 221
192 204 221
190 203 221
191 203 221
191 204 221
190 203 221
191 204 221
191 203 221
193 205 221
192 204 221
190 203 221
190 203 221
194 205 221
191 204 221
191 203 221
193 205 221
193 205 221
192 204 221
190 203 221
190 203 221
192 204 221
194 205 221
192 204 221
191 204 221
170 106 116
184 54 58
202 58 62
216 62 66
216 62 66
242 69 73
268 76 79
217 62 66
188 55 59
246 70 73
171 51 55
233 67 70
245 70 73
205 59 63
191 56 60
174 51 56
200 58 63
173 51 56
188 55 59
186 114 125
217 233 255
217 233 255
217 233 255
217 233 255
217 233 255
217 233 255
217 233 255
217 233 255
217 233 255
217 233 255
217 233 255
217 233 255
217 233 255
217 233 255
217 233 255
217 233 255
217 233 255
217 233 255
217 233 255
217 233 255
217 233 255
217 233 255
217 233 255
217 233 255
217 233 255
217 233 255
217 233 255
217 233 255
217 233 255
217 233 255
217 233 255
217 233 255
217 233 255
217 233 255
217 233 255
217 233 255
217 233 255
217 233 255
217 233 255
217 233 255
217 233 255
217 233 255
217 233 255
217 233 255
217 233 255
217 233 255
217 233 255
217 233 255
217 233 255
217 233 255
217 233 255
217 233 255
218 233 255
218 233 255
218 233 255
218 233 255
218 233 255
218 233 255
218 233 255
217 233 255
217 233 255
217 233 255
217 233 255
217 233 255
217 233 255
217 233 255
217 233 255
217 233 255
217 233 255
217 233 255
217 233 255
217 233 255
217 233 255
217 233 255
217 233 255
217 233 255
217 233 255
217 233 255
217 233 255
217 233 255
217 233 255
217 233 255
217 233 255
217 233 255
217 233 255
217 233 255
217 233 255
217 233 255
217 233 255
217 233 255
217 233 255
217 233 255
217 233 255
217 233 255
217 233 255
217 233 255
217 233 255
217 233 255
217 233 255
217 233 255
217 233 255
217 233 255
217 233 255
217 233 255
217 233 255
217 233 255
217 233 255
217 233 255
217 233 255
217 233 255
217 233 255
217 233 255
217 233 255
217 233 255
217 233 255
217 233 255
217 233 255
217 233 255
217 233 255
217 233 255
217 233 255
217 233 255
217 233 255
215 231 253
190 203 221
192 204 221
192 204 221
192 204 221
190 203 221
189 203 221
191 204 221
194 205 221
192 204 221
191 204 221
193 205 221
192 204 221
192 204 221
194 205 221
193 205 221
192 204 221
189 202 221
192 204 221
193 205 221
193 205 221
191 203 221
190 203 221
192 204 221
193 205 221
190 203 221
191 204 221
191 203 221
191 204 221
191 203 221
192 204 221
192 204 221
190 203 221
193 205 221
188 202 221
192 204 221
191 204 221
191 204 221
194 205 221
192 204 221
192 204 221
193 205 221
188 202 221
193 205 221
192 204 221
192 204 221
191 203 221
192 204 221
192 204 221
193 205 221
190 203 221
190 203 221
192 204 221
192 204 221
193 205 221
190 203 221
190 203 221
171 106 113
185 54 58
167 49 54
183 54 59
195 57 61
183 54 58
219 63 67
218 63 67
187 55 59
242 69 73
172 51 56
206 59 63
170 50 55
233 67 70
229 66 69
190 55 60
175 52 56
233 67 71
175 51 56
201 128 140
217 233 255
217 233 255
217 233 255
217 233 255
217 233 255
217 233 255
217 233 255
217 233 255
217 233 255
217 233 255
217 233 255
217 233 255
217 233 255
217 233 255
217 233 255
217 233 255
217 233 255
217 233 255
217 233 255
217 233 255
217 233 255
217 233 255
217 233 255
217 233 255
217 233 255
217 233 255
217 233 255
217 233 255
217 233 255
217 233 255
217 233 255
217 233 255
217 233 255
217 233 255
217 233 255
217 233 255
217 233 255
217 233 255
217 233 255
217 233 255
217 233 255
217 233 255
217 233 255
217 233 255
217 233 255
218 233 255
218 233 255
218 233 255
218 233 255
218 233 255
218 233 255
218 233 255
218 234 255
218 234 255
218 234 255
218 234 255
218 234 255
218 234 255
218 234 255
218 234 255
218 234 255
218 234 255
218 234 255
218 234 255
218 234 255
218 234 255
218 234 255
218 234 255
218 234 255
218 234 255
218 233 255
218 233 255
218 233 255
218 233 255
218 233 255
218 233 255
218 233 255
218 233 255
218 233 255
217 233 255
217 233 255
217 233 255
217 233 255
217 233 255
217 233 255
217 233 255
217 233 255
217 233 255
217 233 255
217 233 255
217 233 255
217 233 255
217 233 255
217 233 255
217 233 255
217 233 255
217 233 255
217 233 255
217 233 255
217 233 255
217 233 255
217 233 255
217 233 255
217 233 255
217 233 255
217 233 255
217 233 255
217 233 255
217 233 255
217 233 255
217 233 255
217 233 255
217 233 255
217 233 255
217 233 255
217 233 255
217 233 255
217 233 255
217 233 255
217 233 255
217 233 255
217 233 255
217 233 255
215 231 253
192 204 221
194 205 221
192 204 221
191 204 221
191 204 221
191 203 221
191 204 221
190 203 221
193 205 221
193 205 221
191 204 221
193 205 221
189 202 221
193 205 221
192 204 221
191 204 221
189 203 221
189 202 221
191 204 221
193 205 221
191 204 221
190 203 221
191 203 221
190 203 221
191 204 221
193 205 221
189 202 221
192 204 221
190 203 221
192 204 221
195 206 221
190 203 221
192 204 221
193 204 221
192 204 221
194 205 221
194 205 221
192 204 221
194 205 221
189 202 221
189 203 221
192 204 221
191 204 221
192 204 221
190 203 221
191 203 221
192 204 221
191 204 221
190 203 221
191 204 221
193 205 221
192 204 221
192 204 221
191 203 221
191 204 221
191 203 221
202 83 89
164 49 53
180 53 57
184 54 58
200 58 62
231 66 70
233 67 70
168 50 55
231 66 70
243 69 73
189 55 60
220 63 67
231 66 70
188 55 60
229 66 70
205 59 63
215 62 66
184 54 58
171 51 56
202 127 138
217 233 255
217 233 255
217 233 255
217 233 255
217 233 255
217 233 255
217 233 255
217 233 255
217 233 255
217 233 255
217 233 255
217 233 255
217 233 255
217 233 255
217 233 255
217 233 255
217 233 255
217 233 255
217 233 255
217 233 255
217 233 255
217 233 255
217 233 255
217 233 255
217 233 255
218 233 255
218 233 255
218 233 255
218 233 255
218 233 255
218 233 255
218 233 255
218 233 255
218 233 255
218 233 255
218 234 255
218 234 255
218 234 255
218 234 255
218 234 255
218 234 255
218 234 255
218 234 255
218 234 255
218 234 255
218 234 255
218 234 255
218 234 255
218 234 255
218 234 255
218 234 255
218 234 255
218 234 255
218 234 255
218 234 255
218 234 255
218 234 255
218 234 255
218 234 255
218 234 255
218 234 255
218 234 255
218 234 255
218 234 255
218 234 255
218 234 255
218 234 255
218 234 255
218 234 255
218 234 255
218 234 255
218 234 255
218 234 255
218 234 255
218 234 255
218 234 255
218 234 255
218 234 255
218 234 255
218 234 255
218 234 255
218 234 255
218 234 255
218 234 255
218 234 255
218 234 255
218 234 255
218 234 255
218 234 255
218 234 255
218 234 255
218 234 255
218 233 255
218 233 255
218 233 255
218 233 255
218 233 255
218 233 255
218 233 255
218 233 255
218 233 255
218 233 255
218 233 255
217 233 255
217 233 255
217 233 255
217 233 255
217 233 255
217 233 255
217 233 255
217 233 255
217 233 255
217 233 255
217 233 255
217 233 255
217 233 255
217 233 255
217 233 255
217 233 255
217 233 255
217 233 255
217 233 255
217 233 255
214 230 252
191 204 221
191 203 221
192 204 221
191 203 221
193 205 221
193 205 221
191 204 221
193 204 221
194 205 221
193 205 221
191 204 221
189 203 221
191 204 221
192 204 221
193 205 221
192 204 221
194 205 221
191 204 221
192 204 221
190 203 221
189 202 221
192 204 221
191 204 221
190 203 221
192 204 221
192 204 221
192 204 221
192 204 221
193 205 221
192 204 221
192 204 221
193 205 221
189 203 221
195 206 221
188 202 221
188 202 221
191 204 221
193 205 221
191 204 221
189 202 221
194 205 221
191 204 221
193 205 221
192 204 221
191 204 221
191 203 221
190 203 221
189 203 221
191 204 221
192 204 221
193 205 221
192 204 221
190 203 221
192 204 221
192 204 221
189 203 221
168 98 107
187 54 58
211 61 64
214 62 66
186 54 59
254 72 75
218 63 66
169 50 55
218 63 66
205 59 63
203 59 63
233 67 70
219 63 67
185 54 59
174 51 56
173 51 56
174 51 56
172 51 56
206 59 63
201 129 140
218 233 255
218 233 255
218 233 255
218 233 255
218 233 255
218 233 255
218 233 255
218 233 255
218 233 255
218 233 255
218 233 255
218 233 255
218 234 255
218 234 255
218 234 255
218 234 255
218 234 255
218 234 255
218 234 255
218 234 255
218 234 255
218 234 255
218 234 255
218 234 255
218 234 255
218 234 255
218 234 255
218 234 255
218 234 255
218 234 255
218 234 255
218 234 255
218 234 255
218 234 255
218 234 255
218 234 255
218 234 255
218 234 255
218 234 255
218 234 255
218 234 255
218 234 255
218 234 255
218 234 255
218 234 255
218 234 255
218 234 255
218 234 255
218 234 255
218 234 255
218 234 255
218 234 255
218 234 255
218 234 255
218 234 255
218 234 255
218 234 255
218 234 255
218 234 255
218 234 255
218 234 255
218 234 255
218 234 255
218 234 255
218 234 255
218 234 255
218 234 255
218 234 255
218 234 255
218 234 255
218 234 255
218 234 255
218 234 255
218 234 255
218 234 255
218 234 255
218 234 255
218 234 255
218 234 255
218 234 255
218 234 255
218 234 255
218 234 255
218 234 255
218 234 255
218 234 255
218 234 255
218 234 255
218 234 255
218 234 255
218 234 255
218 234 255
218 234 255
218 234 255
218 234 255
218 234 255
218 234 255
218 234 255
218 234 255
218 234 255
218 234 255
218 234 255
218 234 255
218 234 255
218 234 255
218 234 255
218 234 255
218 234 255
218 234 255
218 234 255
218 234 255
218 234 255
218 234 255
218 234 255
218 234 255
218 234 255
218 234 255
218 234 255
218 234 255
218 234 255
218 234 255
218 234 255
218 234 255
216 231 252
191 203 221
191 204 221
193 205 221
191 203 221
195 206 221
191 203 221
190 203 221
193 205 221
192 204 221
192 204 221
190 203 221
191 204 221
192 204 221
190 203 221
192 204 221
191 204 221
192 204 221
192 204 221
191 203 221
192 204 221
191 204 221
191 204 221
190 203 221
192 204 221
194 205 221
192 204 221
191 204 221
193 205 221
190 203 221
192 204 221
190 203 221
193 205 221
191 204 221
191 204 221
190 203 221
192 204 221
190 203 221
194 205 221
191 204 221
194 205 221
193 205 221
194 205 221
192 204 221
193 205 221
193 205 221
190 203 221
192 204 221
193 205 221
191 204 221
193 205 221
193 205 221
190 203 221
192 204 221
193 205 221
192 204 221
194 205 221
171 98 108
184 53 57
225 65 68
185 54 58
241 69 72
229 66 69
218 63 66
216 62 66
186 55 59
182 54 58
204 59 63
204 59 63
188 55 60
173 51 56
219 63 67
175 51 56
201 58 62
189 55 60
206 60 64
188 137 150
218 234 255
218 234 255
218 234 255
218 234 255
218 234 255
218 234 255
218 234 255
218 234 255
218 234 255
218 234 255
218 234 255
218 234 255
218 234 255
218 234 255
218 234 255
218 234 255
218 234 255
218 234 255
218 234 255
218 234 255
218 234 255
218 234 255
218 234 255
218 234 255
218 234 255
218 234 255
218 234 255
218 234 255
218 234 255
218 234 255
218 234 255
218 234 255
218 234 255
218 234 255
218 234 255
218 234 255
218 234 255
218 234 255
218 234 255
218 234 255
218 234 255
218 234 255
218 234 255
218 234 255
218 234 255
218 234 255
218 234 255
218 234 255
218 234 255
218 234 255
218 234 255
218 234 255
218 234 255
218 234 255
218 234 255
218 234 255
218 234 255
218 234 255
218 234 255
218 234 255
218 234 255
218 234 255
218 234 255
218 234 255
218 234 255
218 234 255
218 234 255
218 234 255
218 234 255
218 234 255
218 234 255
218 234 255
218 234 255
218 234 255
218 234 255
218 234 255
218 234 255
218 234 255
218 234 255
218 234 255
218 234 255
218 234 255
218 234 255
218 234 255
218 234 255
218 234 255
218 234 255
218 234 255
218 234 255
218 234 255
218 234 255
218 234 255
218 234 255
218 234 255
218 234 255
218 234 255
218 234 255
218 234 255
218 234 255
218 234 255
218 234 255
218 234 255
218 234 255
218 234 255
218 234 255
218 234 255
218 234 255
218 234 255
218 234 255
218 234 255
218 234 255
218 234 255
218 234 255
218 234 255
218 234 255
218 234 255
218 234 255
218 234 255
218 234 255
218 234 255
218 234 255
218 234 255
218 234 255
215 230 252
193 205 221
191 204 221
190 203 221
193 204 221
193 204 221
192 204 221
191 204 221
192 204 221
193 205 221
190 203 221
192 204 221
191 204 221
191 203 221
191 204 221
192 204 221
191 203 221
192 204 221
191 203 221
190 203 221
191 204 221
190 203 221
193 205 221
193 204 221
194 205 221
191 204 221
192 204 221
192 204 221
190 203 221
192 204 221
189 203 221
192 204 221
191 204 221
192 204 221
190 203 221
191 204 221
192 204 221
189 203 221
191 203 221
193 205 221
194 205 221
191 204 221
190 203 221
189 203 221
192 204 221
191 203 221
191 203 221
192 204 221
189 202 221
193 205 221
190 203 221
192 204 221
194 205 221
191 204 221
190 203 221
190 203 221
188 202 221
168 105 116
166 49 54
214 62 66
213 61 65
196 57 61
213 61 65
255 73 76
277 78 81
198 58 63
189 55 59
243 69 73
216 62 66
181 53 58
214 62 65
189 55 60
192 56 60
175 51 56
204 59 64
192 56 60
184 129 141
218 234 255
218 234 255
218 234 255
218 234 255
218 234 255
218 234 255
218 234 255
218 234 255
218 234 255
218 234 255
218 234 255
218 234 255
218 234 255
218 234 255
218 234 255
218 234 255
218 234 255
218 234 255
218 234 255
218 234 255
218 234 255
218 234 255
218 234 255
218 234 255
218 234 255
218 234 255
218 234 255
218 234 255
218 234 255
218 234 255
218 234 255
218 234 255
218 234 255
218 234 255
218 234 255
218 234 255
218 234 255
218 234 255
218 234 255
218 234 255
218 234 255
218 234 255
218 234 255
218 234 255
218 234 255
218 234 255
218 234 255
218 234 255
218 234 255
218 234 255
218 234 255
218 234 255
219 234 255
219 234 255
219 234 255
219 234 255
219 234 255
219 234 255
219 234 255
219 234 255
219 234 255
219 234 255
219 234 255
219 234 255
219 234 255
219 234 255
219 234 255
219 234 255
219 234 255
219 234 255
219 234 255
219 234 255
219 234 255
219 234 255
218 234 255
218 234 255
218 234 255
218 234 255
218 234 255
218 234 255
218 234 255
218 234 255
218 234 255
218 234 255
218 234 255
218 234 255
218 234 255
218 234 255
218 234 255
218 234 255
218 234 255
218 234 255
218 234 255
218 234 255
218 234 255
218 234 255
218 234 255
218 234 255
218 234 255
218 234 255
218 234 255
218 234 255
218 234 255
218 234 255
218 234 255
218 234 255
218 234 255
218 234 255
218 234 255
218 234 255
218 234 255
218 234 255
218 234 255
218 234 255
218 234 255
218 234 255
218 234 255
218 234 255
218 234 255
218 234 255
218 234 255
218 234 255
218 234 255
216 231 252
193 205 221
193 205 221
190 203 221
192 204 221
193 205 221
194 205 221
190 203 221
192 204 221
189 203 221
190 203 221
190 203 221
190 203 221
193 204 221
193 205 221
190 203 221
190 203 221
190 203 221
193 205 221
193 205 221
191 204 221
191 204 221
191 204 221
191 204 221
192 204 221
192 204 221
190 203 221
191 203 221
193 205 221
191 204 221
194 205 221
190 203 221
191 204 221
192 204 221
191 204 221
192 204 221
191 203 221
193 205 221
190 203 221
193 205 221
192 204 221
192 204 221
191 204 221
192 204 221
190 203 221
191 204 221
190 203 221
191 203 221
192 204 221
192 204 221
193 205 221
192 204 221
191 204 221
192 204 221
191 204 221
189 202 221
192 204 221
187 103 111
167 49 54
209 60 64
201 58 62
228 65 69
198 57 62
214 62 66
185 54 59
184 54 59
201 59 63
204 59 63
169 50 55
219 63 67
213 62 66
171 51 55
216 62 67
190 56 60
189 55 60
206 60 64
218 136 148
218 234 255
218 234 255
218 234 255
218 234 255
218 234 255
218 234 255
218 234 255
218 234 255
218 234 255
218 234 255
218 234 255
218 234 255
218 234 255
218 234 255
218 234 255
218 234 255
218 234 255
218 234 255
218 234 255
218 234 255
218 234 255
218 234 255
218 234 255
218 234 255
218 234 255
218 234 255
218 234 255
218 234 255
218 234 255
218 234 255
218 234 255
219 234 255
219 234 255
219 234 255
219 234 255
219 234 255
219 234 255
219 234 255
219 234 255
219 234 255
219 234 255
219 234 255
219 234 255
219 234 255
219 234 255
219 234 255
219 234 255
219 234 255
219 234 255
219 234 255
219 234 255
219 234 255
219 234 255
219 234 255
219 234 255
219 234 255
219 234 255
219 234 255
219 234 255
219 234 255
219 234 255
219 234 255
219 234 255
219 234 255
219 234 255
219 234 255
219 234 255
219 234 255
219 234 255
219 234 255
219 234 255
219 234 255
219 234 255
219 234 255
219 234 255
219 234 255
219 234 255
219 234 255
219 234 255
219 234 255
219 234 255
219 234 255
219 234 255
219 234 255
219 234 255
219 234 255
219 234 255
219 234 255
219 234 255
219 234 255
219 234 255
219 234 255
219 234 255
219 234 255
219 234 255
219 234 255
219 234 255
219 234 255
219 234 255
219 234 255
219 234 255
219 234 255
219 234 255
219 234 255
219 234 255
219 234 255
218 234 255
218 234 255
218 234 255
218 234 255
218 234 255
218 234 255
218 234 255
218 234 255
218 234 255
218 234 255
218 234 255
218 234 255
218 234 255
218 234 255
218 234 255
218 234 255
218 234 255
215 230 251
193 205 221
192 204 221
192 204 221
192 204 221
190 203 221
191 204 221
190 203 221
191 204 221
190 203 221
190 203 221
190 203 221
192 204 221
193 204 221
191 203 221
191 203 221
194 205 221
190 203 221
190 203 221
193 205 221
190 203 221
192 204 221
192 204 221
190 203 221
192 204 221
192 204 221
189 203 221
191 204 221
191 204 221
190 203 221
191 204 221
190 203 221
192 204 221
192 204 221
191 204 221
192 204 221
191 203 221
192 204 221
193 205 221
189 203 221
191 203 221
192 204 221
191 204 221
189 202 221
190 203 221
192 204 221
191 204 221
191 203 221
190 203 221
193 205 221
191 204 221
193 205 221
193 205 221
191 204 221
193 205 221
192 204 221
191 204 221
170 114 123
163 48 53
210 61 64
183 54 58
229 66 69
254 72 76
199 58 62
185 54 59
229 66 70
170 50 55
190 55 59
191 56 60
187 55 59
205 60 64
205 59 63
169 50 56
188 55 59
173 51 56
189 55 60
189 141 154
219 234 255
219 234 255
219 234 255
219 234 255
219 234 255
219 234 255
219 234 255
219 234 255
219 234 255
219 234 255
219 234 255
219 234 255
219 234 255
219 234 255
219 234 255
219 234 255
219 234 255
219 234 255
219 234 255
219 234 255
219 234 255
219 234 255
219 234 255
219 234 255
219 234 255
219 234 255
219 234 255
219 234 255
219 234 255
219 234 255
219 234 255
219 234 255
219 234 255
219 234 255
219 234 255
219 234 255
219 234 255
219 234 255
219 234 255
219 234 255
219 234 255
219 234 255
219 234 255
219 234 255
219 234 255
219 234 255
219 234 255
219 234 255
219 234 255
219 234 255
219 234 255
219 234 255
219 234 255
219 234 255
219 234 255
219 234 255
219 234 255
219 234 255
219 234 255
219 234 255
219 234 255
219 234 255
219 234 255
219 234 255
219 234 255
219 234 255
219 234 255
219 234 255
219 234 255
219 234 255
219 234 255
219 234 255
219 234 255
219 234 255
219 234 255
219 234 255
219 234 255
219 234 255
219 234 255
219 234 255
219 234 255
219 234 255
219 234 255
219 234 255
219 234 255
219 234 255
219 234 255
219 234 255
219 234 255
219 234 255
219 234 255
219 234 255
219 234 255
219 234 255
219 234 255
219 234 255
219 234 255
219 234 255
219 234 255
219 234 255
219 234 255
219 234 255
219 234 255
219 234 255
219 234 255
219 234 255
219 234 255
219 234 255
219 234 255
219 234 255
219 234 255
219 234 255
219 234 255
219 234 255
219 234 255
219 234 255
219 234 255
219 234 255
219 234 255
219 234 255
219 234 255
219 234 255
219 234 255
216 231 252
193 205 221
192 204 221
192 204 221
189 203 221
193 205 221
190 203 221
192 204 221
192 204 221
193 205 221
191 204 221
194 205 221
191 204 221
192 204 221
193 205 221
192 204 221
191 203 221
190 203 221
190 203 221
191 203 221
192 204 221
191 203 221
191 204 221
189 202 221
193 205 221
194 205 221
191 203 221
190 203 221
195 206 221
192 204 221
191 203 221
192 204 221
191 204 221
190 203 221
193 205 221
191 204 221
191 204 221
193 205 221
194 205 221
190 203 221
190 203 221
193 205 221
193 205 221
194 205 221
192 204 221
192 204 221
191 204 221
194 206 221
190 203 221
191 204 221
194 206 221
193 205 221
190 203 221
194 205 221
193 205 221
191 204 221
190 203 221
182 90 98
184 54 58
178 52 57
201 58 62
225 65 68
238 68 72
215 62 66
202 59 63
188 55 59
170 50 55
217 63 66
200 58 62
187 55 59
188 55 60
172 51 56
186 55 59
173 51 56
174 51 56
170 51 56
184 125 137
219 234 255
219 234 255
219 234 255
219 234 255
219 234 255
219 234 255
219 234 255
219 234 255
219 234 255
219 234 255
219 234 255
219 234 255
219 234 255
219 234 255
219 234 255
219 234 255
219 234 255
219 234 255
219 234 255
219 234 255
219 234 255
219 234 255
219 234 255
219 234 255
219 234 255
219 234 255
219 234 255
219 234 255
219 234 255
219 234 255
219 234 255
219 234 255
219 234 255
219 234 255
219 234 255
219 234 255
219 234 255
219 234 255
219 234 255
219 234 255
219 234 255
219 234 255
219 234 255
219 234 255
219 234 255
219 234 255
219 234 255
219 234 255
219 234 255
219 234 255
219 234 255
219 234 255
219 234 255
219 234 255
219 234 255
219 234 255
219 234 255
219 234 255
219 234 255
219 234 255
219 234 255
219 234 255
219 234 255
219 234 255
219 234 255
219 234 255
219 234 255
219 234 255
219 234 255
219 234 255
219 234 255
219 234 255
219 234 255
219 234 255
219 234 255
219 234 255
219 234 255
219 234 255
219 234 255
219 234 255
219 234 255
219 234 255
219 234 255
219 234 255
219 234 255
219 234 255
219 234 255
219 234 255
219 234 255
219 234 255
219 234 255
219 234 255
219 234 255
219 234 255
219 234 255
219 234 255
219 234 255
219 234 255
219 234 255
219 234 255
219 234 255
219 234 255
219 234 255
219 234 255
219 234 255
219 234 255
219 234 255
219 234 255
219 234 255
219 234 255
219 234 255
219 234 255
219 234 255
219 234 255
219 234 255
219 234 255
219 234 255
219 234 255
219 234 255
219 234 255
219 234 255
219 234 255
219 234 255
218 233 254
192 204 221
192 204 221
192 204 221
191 204 221
191 204 221
192 204 221
194 205 221
191 204 221
193 205 221
191 203 221
191 204 221
192 204 221
193 205 221
192 204 221
192 204 221
191 204 221
188 202 221
193 204 221
191 204 221
190 203 221
191 203 221
191 203 221
193 204 221
192 204 221
194 205 221
193 205 221
193 205 221
192 204 221
191 203 221
193 205 221
192 204 221
192 204 221
192 204 221
192 204 221
190 203 221
192 204 221
190 203 221
194 205 221
193 205 221
191 204 221
190 203 221
193 205 221
191 203 221
194 205 221
190 203 221
192 204 221
194 205 221
193 205 221
194 205 221
191 204 221
191 204 221
190 203 221
190 203 221
191 204 221
193 205 221
189 203 221
184 80 86
201 58 62
215 62 66
185 54 59
224 64 68
219 63 67
169 50 55
186 54 58
240 69 72
187 55 59
186 55 59
216 62 66
204 59 63
188 55 60
170 50 56
170 50 55
187 55 60
174 51 56
186 54 59
184 125 136
219 234 255
219 234 255
219 234 255
219 234 255
219 234 255
219 234 255
219 234 255
219 234 255
219 234 255
219 234 255
219 234 255
219 234 255
219 234 255
219 234 255
219 234 255
219 234 255
219 234 255
219 234 255
219 234 255
219 234 255
219 234 255
219 234 255
219 234 255
219 234 255
219 234 255
219 234 255
219 234 255
219 234 255
219 234 255
219 234 255
219 234 255
219 234 255
219 234 255
219 234 255
219 234 255
219 234 255
219 234 255
219 234 255
219 234 255
219 234 255
219 234 255
219 234 255
219 234 255
219 234 255
219 234 255
219 234 255
219 234 255
219 234 255
219 234 255
219 234 255
219 234 255
219 234 255
220 235 255
220 235 255
220 235 255
220 235 255
220 235 255
220 235 255
220 235 255
220 235 255
220 235 255
219 235 255
220 235 255
219 235 255
219 235 255
219 235 255
219 235 255
219 235 255
219 235 255
219 235 255
219 235 255
219 235 255
219 235 255
219 235 255
219 235 255
219 235 255
219 235 255
219 235 255
219 235 255
219 235 255
219 235 255
219 235 255
219 234 255
219 234 255
219 234 255
219 234 255
219 234 255
219 234 255
219 234 255
219 234 255
219 234 255
219 234 255
219 234 255
219 234 255
219 234 255
219 234 255
219 234 255
219 234 255
219 234 255
219 234 255
219 234 255
219 234 255
219 234 255
219 234 255
219 234 255
219 234 255
219 234 255
219 234 255
219 234 255
219 234 255
219 234 255
219 234 255
219 234 255
219 234 255
219 234 255
219 234 255
219 234 255
219 234 255
219 234 255
219 234 255
219 234 255
219 234 255
219 234 255
217 232 253
192 204 221
192 204 221
191 203 221
191 204 221
192 204 221
191 204 221
190 203 221
194 205 221
192 204 221
192 204 221
191 204 221
192 204 221
190 203 221
190 203 221
192 204 221
192 204 221
190 203 221
191 203 221
190 203 221
191 204 221
192 204 221
193 205 221
190 203 221
191 204 221
190 203 221
192 204 221
192 204 221
191 204 221
192 204 221
190 203 221
193 205 221
192 204 221
191 204 221
190 203 221
189 203 221
193 205 221
192 204 221
193 205 221
189 202 221
194 205 221
190 203 221
191 204 221
193 205 221
194 205 221
192 204 221
191 204 221
189 202 221
188 202 221
192 204 221
191 203 221
194 205 221
189 203 221
191 203 221
190 203 221
191 204 221
193 205 221
185 97 105
185 54 58
228 65 68
259 73 76
242 69 73
200 58 62
203 59 63
196 57 62
212 61 65
198 58 62
254 72 75
213 62 66
214 62 66
187 55 59
201 58 62
215 62 66
189 55 59
170 50 55
175 51 56
202 144 157
219 234 255
219 234 255
219 234 255
219 234 255
219 234 255
219 234 255
219 234 255
219 234 255
219 234 255
219 234 255
219 234 255
219 234 255
219 234 255
219 234 255
219 234 255
219 234 255
219 234 255
219 234 255
219 234 255
219 234 255
219 234 255
219 234 255
219 234 255
219 235 255
219 235 255
219 235 255
219 235 255
219 235 255
219 235 255
219 235 255
219 235 255
219 235 255
219 235 255
219 235 255
219 235 255
219 235 255
219 235 255
219 235 255
219 235 255
219 235 255
219 235 255
220 235 255
220 235 255
220 235 255
220 235 255
220 235 255
220 235 255
220 235 255
220 235 255
220 235 255
220 235 255
220 235 255
220 235 255
220 235 255
220 235 255
220 235 255
220 235 255
220 235 255
220 235 255
220 235 255
220 235 255
220 235 255
220 235 255
220 235 255
220 235 255
220 235 255
220 235 255
220 235 255
220 235 255
220 235 255
220 235 255
220 235 255
220 235 255
220 235 255
220 235 255
220 235 255
220 235 255
220 235 255
220 235 255
220 235 255
220 235 255
220 235 255
220 235 255
220 235 255
220 235 255
220 235 255
220 235 255
220 235 255
220 235 255
220 235 255
220 235 255
220 235 255
220 235 255
220 235 255
220 235 255
220 235 255
220 235 255
220 235 255
220 235 255
220 235 255
220 235 255
220 235 255
220 235 255
220 235 255
220 235 255
220 235 255
220 235 255
220 235 255
220 235 255
220 235 255
220 235 255
220 235 255
219 235 255
220 235 255
219 235 255
220 235 255
219 235 255
219 235 255
219 235 255
220 235 255
219 235 255
219 235 255
219 235 255
217 232 253
190 203 221
189 203 221
191 204 221
193 205 221
192 204 221
193 205 221
188 202 221
190 203 221
192 204 221
196 206 221
192 204 221
191 204 221
190 203 221
190 203 221
192 204 221
191 204 221
190 203 221
189 203 221
192 204 221
189 203 221
191 204 221
195 206 221
192 204 221
191 204 221
191 203 221
191 204 221
191 203 221
192 204 221
192 204 221
190 203 221
191 204 221
191 204 221
190 203 221
192 204 221
194 205 221
194 205 221
191 203 221
190 203 221
192 204 221
190 203 221
191 204 221
189 202 221
192 204 221
191 204 221
192 204 221
192 204 221
190 203 221
192 204 221
192 204 221
193 205 221
191 204 221
192 204 221
192 204 221
192 204 221
192 204 221
191 204 221
168 79 86
176 51 56
181 53 57
183 53 58
199 58 62
200 58 63
170 50 55
185 54 59
214 62 65
200 58 63
187 55 59
184 54 59
185 54 59
202 59 63
173 51 56
172 51 56
173 51 56
188 55 60
173 51 56
187 131 143
220 235 255
220 235 255
220 235 255
220 235 255
220 235 255
220 235 255
220 235 255
220 235 255
220 235 255
220 235 255
220 235 255
220 235 255
220 235 255
220 235 255
220 235 255
220 235 255
220 235 255
220 235 255
220 235 255
220 235 255
220 235 255
220 235 255
220 235 255
220 235 255
220 235 255
220 235 255
220 235 255
220 235 255
220 235 255
220 235 255
220 235 255
220 235 255
220 235 255
220 235 255
220 235 255
220 235 255
220 235 255
220 235 255
220 235 255
220 235 255
220 235 255
220 235 255
220 235 255
220 235 255
220 235 255
220 235 255
220 235 255
220 235 255
220 235 255
220 235 255
220 235 255
220 235 255
220 235 255
220 235 255
220 235 255
220 235 255
220 235 255
220 235 255
220 235 255
220 235 255
220 235 255
220 235 255
220 235 255
220 235 255
220 235 255
220 235 255
220 235 255
220 235 255
220 235 255
220 235 255
220 235 255
220 235 255
220 235 255
220 235 255
220 235 255
220 235 255
220 235 255
220 235 255
220 235 255
220 235 255
220 235 255
220 235 255
220 235 255
220 235 255
220 235 255
220 235 255
220 235 255
220 235 255
220 235 255
220 235 255
220 235 255
220 235 255
220 235 255
220 235 255
220 235 255
220 235 255
220 235 255
220 235 255
220 235 255
220 235 255
220 235 255
220 235 255
220 235 255
220 235 255
220 235 255
220 235 255
220 235 255
220 235 255
220 235 255
220 235 255
220 235 255
220 235 255
220 235 255
220 235 255
220 235 255
220 235 255
220 235 255
220 235 255
220 235 255
220 235 255
220 235 255
220 235 255
220 235 255
217 232 253
193 205 221
192 204 221
193 205 221
192 204 221
190 203 221
189 203 221
190 203 221
191 203 221
192 204 221
190 203 221
190 203 221
190 203 221
193 205 221
191 203 221
194 205 221
192 204 221
191 204 221
192 204 221
192 204 221
192 204 221
192 204 221
191 204 221
192 204 221
192 204 221
194 205 221
191 204 221
192 204 221
192 204 221
192 204 221
192 204 221
190 203 221
193 205 221
191 203 221
194 205 221
192 204 221
191 203 221
191 204 221
190 203 221
192 204 221
193 205 221
190 203 221
189 203 221
191 203 221
192 204 221
192 204 221
190 203 221
193 205 221
193 204 221
192 204 221
191 203 221
193 205 221
191 204 221
191 204 221
192 204 221
190 203 221
192 204 221
184 86 94
164 49 53
192 56 60
213 61 65
196 57 61
164 49 54
183 54 58
213 61 65
196 57 61
218 63 66
168 50 55
166 50 55
185 54 59
190 55 60
206 60 64
170 51 56
170 50 55
188 55 60
174 51 56
185 117 127
220 235 255
220 235 255
220 235 255
220 235 255
220 235 255
220 235 255
220 235 255
220 235 255
220 235 255
220 235 255
220 235 255
220 235 255
220 235 255
220 235 255
220 235 255
220 235 255
220 235 255
220 235 255
220 235 255
220 235 255
220 235 255
220 235 255
220 235 255
220 235 255
220 235 255
220 235 255
220 235 255
220 235 255
220 235 255
220 235 255
220 235 255
220 235 255
220 235 255
220 235 255
220 235 255
220 235 255
220 235 255
220 235 255
220 235 255
220 235 255
220 235 255
220 235 255
220 235 255
220 235 255
220 235 255
220 235 255
220 235 255
220 235 255
220 235 255
220 235 255
220 235 255
220 235 255
220 235 255
220 235 255
220 235 255
220 235 255
220 235 255
220 235 255
220 235 255
220 235 255
220 235 255
220 235 255
220 235 255
220 235 255
220 235 255
220 235 255
220 235 255
220 235 255
220 235 255
220 235 255
220 235 255
220 235 255
220 235 255
220 235 255
220 235 255
220 235 255
220 235 255
220 235 255
220 235 255
220 235 255
220 235 255
220 235 255
220 235 255
220 235 255
220 235 255
220 235 255
220 235 255
220 235 255
220 235 255
220 235 255
220 235 255
220 235 255
220 235 255
220 235 255
220 235 255
220 235 255
220 235 255
220 235 255
220 235 255
220 235 255
220 235 255
220 235 255
220 235 255
220 235 255
220 235 255
220 235 255
220 235 255
220 235 255
220 235 255
220 235 255
220 235 255
220 235 255
220 235 255
220 235 255
220 235 255
220 235 255
220 235 255
220 235 255
220 235 255
220 235 255
220 235 255
220 235 255
220 235 255
218 233 253
190 203 221
192 204 221
191 203 221
191 203 221
191 203 221
192 204 221
191 204 221
192 204 221
190 203 221
192 204 221
189 203 221
192 204 221
192 204 221
192 204 221
190 203 221
194 205 221
193 205 221
193 205 221
190 203 221
191 204 221
191 203 221
192 204 221
189 202 221
190 203 221
195 206 221
192 204 221
193 205 221
189 203 221
190 203 221
191 204 221
192 204 221
192 204 221
191 204 221
194 205 221
190 203 221
190 203 221
192 204 221
191 204 221
191 204 221
191 204 221
193 205 221
192 204 221
193 205 221
192 204 221
193 205 221
191 204 221
190 203 221
192 204 221
191 204 221
193 205 221
191 204 221
192 204 221
192 204 221
194 205 221
190 203 221
192 204 221
201 94 101
178 52 56
181 53 57
166 49 54
215 62 66
201 58 62
184 54 59
184 54 58
186 54 59
216 62 66
202 59 63
188 55 60
214 62 65
188 55 60
202 59 63
188 55 60
171 51 56
169 50 55
170 51 56
184 112 122
220 235 255
220 235 255
220 235 255
220 235 255
220 235 255
220 235 255
220 235 255
220 235 255
220 235 255
220 235 255
220 235 255
220 235 255
220 235 255
220 235 255
220 235 255
220 235 255
220 235 255
220 235 255
220 235 255
220 235 255
220 235 255
220 235 255
220 235 255
220 235 255
220 235 255
220 235 255
220 235 255
220 235 255
220 235 255
220 235 255
220 235 255
220 235 255
220 235 255
220 235 255
220 235 255
220 235 255
220 235 255
220 235 255
220 235 255
220 235 255
220 235 255
220 235 255
220 235 255
220 235 255
220 235 255
220 235 255
220 235 255
220 235 255
220 235 255
220 235 255
220 235 255
220 235 255
220 235 255
220 235 255
220 235 255
220 235 255
220 235 255
220 235 255
220 235 255
220 235 255
220 235 255
220 235 255
220 235 255
220 235 255
220 235 255
220 235 255
220 235 255
220 235 255
220 235 255
220 235 255
220 235 255
220 235 255
220 235 255
220 235 255
220 235 255
220 235 255
220 235 255
220 235 255
220 235 255
220 235 255
220 235 255
220 235 255
220 235 255
220 235 255
220 235 255
220 235 255
220 235 255
220 235 255
220 235 255
220 235 255
220 235 255
220 235 255
220 235 255
220 235 255
220 235 255
220 235 255
220 235 255
220 235 255
220 235 255
220 235 255
220 235 255
220 235 255
220 235 255
220 235 255
220 235 255
220 235 255
220 235 255
220 235 255
220 235 255
220 235 255
220 235 255
220 235 255
220 235 255
220 235 255
220 235 255
220 235 255
220 235 255
220 235 255
220 235 255
220 235 255
220 235 255
220 235 255
220 235 255
218 232 252
192 204 221
194 205 221
192 204 221
192 204 221
194 205 221
190 203 221
190 203 221
192 204 221
192 204 221
195 206 221
191 203 221
192 204 221
191 204 221
192 204 221
190 203 221
192 204 221
192 204 221
193 205 221
191 204 221
193 205 221
190 203 221
192 204 221
189 203 221
191 204 221
193 205 221
192 204 221
194 205 221
192 204 221
190 203 221
195 206 221
191 204 221
192 204 221
192 204 221
190 203 221
192 204 221
191 203 221
191 204 221
191 203 221
190 203 221
190 203 221
189 203 221
192 204 221
189 203 221
191 203 221
191 204 221
193 205 221
191 204 221
192 204 221
191 203 221
191 203 221
193 205 221
193 205 221
192 204 221
193 205 221
191 203 221
189 203 221
170 104 114
163 48 53
181 53 58
181 53 58
183 54 58
216 62 66
186 54 59
181 53 58
184 54 58
166 49 55
171 51 55
198 58 62
203 59 63
216 62 66
205 59 64
174 51 56
172 51 56
173 51 56
187 55 59
195 109 118
220 235 255
220 235 255
220 235 255
220 235 255
220 235 255
220 235 255
220 235 255
220 235 255
220 235 255
220 235 255
220 235 255
220 235 255
220 235 255
220 235 255
220 235 255
220 235 255
220 235 255
220 235 255
220 235 255
220 235 255
220 235 255
220 235 255
220 235 255
220 235 255
220 235 255
220 235 255
220 235 255
220 235 255
220 235 255
220 235 255
220 235 255
220 235 255
220 235 255
220 235 255
220 235 255
220 235 255
220 235 255
220 235 255
220 235 255
220 235 255
220 235 255
220 235 255
220 235 255
220 235 255
220 235 255
220 235 255
220 235 255
220 235 255
220 235 255
220 235 255
220 235 255
220 235 255
221 235 255
221 235 255
221 235 255
221 235 255
221 235 255
221 235 255
221 235 255
221 235 255
221 235 255
221 235 255
221 235 255
221 235 255
221 235 255
221 235 255
221 235 255
221 235 255
221 235 255
221 235 255
221 235 255
221 235 255
221 235 255
221 235 255
221 235 255
221 235 255
221 235 255
221 235 255
221 235 255
221 235 255
221 235 255
221 235 255
221 235 255
221 235 255
221 235 255
221 235 255
221 235 255
221 235 255
221 235 255
221 235 255
221 235 255
221 235 255
221 235 255
221 235 255
221 235 255
221 235 255
221 235 255
221 235 255
221 235 255
221 235 255
221 235 255
221 235 255
221 235 255
221 235 255
221 235 255
221 235 255
221 235 255
221 235 255
221 235 255
221 235 255
221 235 255
221 235 255
221 235 255
221 235 255
221 235 255
221 235 255
221 235 255
221 235 255
221 235 255
221 235 255
221 235 255
221 235 255
221 235 255
219 233 253
192 204 221
193 205 221
191 204 221
193 205 221
191 204 221
191 204 221
189 203 221
192 204 221
192 204 221
192 204 221
191 203 221
191 204 221
193 205 221
192 204 221
191 204 221
192 204 221
190 203 221
189 203 221
192 204 221
190 203 221
191 204 221
195 206 221
192 204 221
194 205 221
190 203 221
191 204 221
192 204 221
190 203 221
188 202 221
191 204 221
191 203 221
190 203 221
191 204 221
192 204 221
192 204 221
190 203 221
191 204 221
192 204 221
192 204 221
195 206 221
193 205 221
192 204 221
193 205 221
191 203 221
193 205 221
192 204 221
189 202 221
190 203 221
191 204 221
191 204 221
191 204 221
191 204 221
194 205 221
191 204 221
191 204 221
193 205 221
165 77 83
160 48 53
193 56 60
164 49 54
178 52 57
199 58 62
199 58 62
184 54 59
166 50 55
187 55 59
182 53 58
170 50 55
184 54 59
169 50 55
204 59 63
187 55 59
188 55 60
219 63 67
188 55 60
199 121 131
221 235 255
221 235 255
221 235 255
221 235 255
221 235 255
221 235 255
221 235 255
221 235 255
221 235 255
221 235 255
221 235 255
221 235 255
221 235 255
221 235 255
221 235 255
221 235 255
221 235 255
221 235 255
221 235 255
221 235 255
221 235 255
221 235 255
221 235 255
221 235 255
221 235 255
221 235 255
221 235 255
221 235 255
221 235 255
221 235 255
221 235 255
221 235 255
221 235 255
221 235 255
221 235 255
221 235 255
221 235 255
221 235 255
221 235 255
221 235 255
221 235 255
221 235 255
221 235 255
221 235 255
221 235 255
221 235 255
221 235 255
221 235 255
221 235 255
221 235 255
221 235 255
221 235 255
221 235 255
221 235 255
221 235 255
221 235 255
221 235 255
221 235 255
221 235 255
221 235 255
221 235 255
221 235 255
221 235 255
221 235 255
221 235 255
221 235 255
221 235 255
221 235 255
221 235 255
221 235 255
221 235 255
221 235 255
221 235 255
221 235 255
221 235 255
221 235 255
221 235 255
221 235 255
221 235 255
221 235 255
221 235 255
221 235 255
221 235 255
221 235 255
221 235 255
221 235 255
221 235 255
221 235 255
221 235 255
221 235 255
221 235 255
221 235 255
221 235 255
221 235 255
221 235 255
221 235 255
221 235 255
221 235 255
221 235 255
221 235 255
221 235 255
221 235 255
221 235 255
221 235 255
221 235 255
221 235 255
221 235 255
221 235 255
221 235 255
221 235 255
221 235 255
221 235 255
221 235 255
221 235 255
221 235 255
221 235 255
221 235 255
221 235 255
221 235 255
221 235 255
221 235 255
221 235 255
221 235 255
218 232 252
191 204 221
190 203 221
191 204 221
192 204 221
191 204 221
191 203 221
194 205 221
189 202 221
190 203 221
191 203 221
190 203 221
191 204 221
192 204 221
191 203 221
191 203 221
193 205 221
191 204 221
191 204 221
189 202 221
190 203 221
192 204 221
192 204 221
193 205 221
190 203 221
193 205 221
192 204 221
193 205 221
189 203 221
190 203 221
193 205 221
192 204 221
191 204 221
193 205 221
191 203 221
191 204 221
188 202 221
191 204 221
193 205 221
190 203 221
193 205 221
189 203 221
192 204 221
189 203 221
193 205 221
193 205 221
190 203 221
192 204 221
191 203 221
190 203 221
190 203 221
191 203 221
192 204 221
193 205 221
190 203 221
190 203 221
193 204 221
165 97 105
162 48 53
179 52 57
164 49 53
223 64 68
239 68 72
187 55 59
200 58 62
182 54 58
240 69 72
178 52 57
188 55 59
182 54 58
183 54 58
172 51 56
187 55 59
201 59 63
173 51 56
189 55 60
211 129 139
221 235 255
221 235 255
221 235 255
221 235 255
221 235 255
221 235 255
221 235 255
221 235 255
221 235 255
221 235 255
221 235 255
221 235 255
221 235 255
221 235 255
221 235 255
221 235 255
221 235 255
221 235 255
221 235 255
221 235 255
221 235 255
221 235 255
221 235 255
221 235 255
221 235 255
221 235 255
221 235 255
221 235 255
221 235 255
221 235 255
221 235 255
221 235 255
221 235 255
221 235 255
221 235 255
221 235 255
221 235 255
221 235 255
221 235 255
221 235 255
221 235 255
221 235 255
221 235 255
221 235 255
221 235 255
221 235 255
221 235 255
221 235 255
221 235 255
221 235 255
221 235 255
221 235 255
221 235 255
221 235 255
221 235 255
221 235 255
221 235 255
221 235 255
221 235 255
221 235 255
221 235 255
221 235 255
221 235 255
221 235 255
221 235 255
221 235 255
221 235 255
221 235 255
221 235 255
221 235 255
221 235 255
221 235 255
221 235 255
221 235 255
221 235 255
221 235 255
221 235 255
221 235 255
221 235 255
221 235 255
221 235 255
221 235 255
221 235 255
221 235 255
221 235 255
221 235 255
221 235 255
221 235 255
221 235 255
221 235 255
221 235 255
221 235 255
221 235 255
221 235 255
221 235 255
221 235 255
221 235 255
221 235 255
221 235 255
221 235 255
221 235 255
221 235 255
221 235 255
221 235 255
221 235 255
221 235 255
221 235 255
221 235 255
221 235 255
221 235 255
221 235 255
221 235 255
221 235 255
221 235 255
221 235 255
221 235 255
221 235 255
221 235 255
221 235 255
221 235 255
221 235 255
221 235 255
221 235 255
216 231 250
191 203 221
190 203 221
189 202 221
189 203 221
193 205 221
191 203 221
193 204 221
194 205 221
192 204 221
194 205 221
192 204 221
192 204 221
190 203 221
193 205 221
192 204 221
193 205 221
191 203 221
193 205 221
191 204 221
188 202 221
192 204 221
193 205 221
191 204 221
191 203 221
188 202 221
191 204 221
193 205 221
192 204 221
191 204 221
192 204 221
193 205 221
192 204 221
190 203 221
191 203 221
193 205 221
192 204 221
191 204 221
191 204 221
192 204 221
192 204 221
193 204 221
191 203 221
189 202 221
192 204 221
191 203 221
193 205 221
191 204 221
192 204 221
191 203 221
192 204 221
191 203 221
194 206 221
192 204 221
193 205 221
189 202 221
193 205 221
182 79 85
162 48 53
161 48 53
161 48 53
182 53 58
195 57 61
235 67 71
221 64 68
190 56 60
224 64 68
169 50 55
186 55 59
185 54 59
186 55 59
172 51 56
197 58 62
173 51 55
184 54 59
169 50 55
208 109 118
221 235 255
221 235 255
221 235 255
221 235 255
221 235 255
221 235 255
221 235 255
221 235 255
221 235 255
221 235 255
221 235 255
221 235 255
221 235 255
221 235 255
221 235 255
221 235 255
221 235 255
221 235 255
221 235 255
221 235 255
221 235 255
221 235 255
221 235 255
221 235 255
221 235 255
221 235 255
221 235 255
221 235 255
221 235 255
221 235 255
221 235 255
221 235 255
221 235 255
221 235 255
221 235 255
221 235 255
221 235 255
221 235 255
221 235 255
221 235 255
221 235 255
221 235 255
221 235 255
221 235 255
221 235 255
221 235 255
221 235 255
221 235 255
221 235 255
221 235 255
221 235 255
221 235 255
221 236 255
221 236 255
221 236 255
221 236 255
221 236 255
221 236 255
221 236 255
221 236 255
221 236 255
221 236 255
221 236 255
221 236 255
221 236 255
221 236 255
221 236 255
221 236 255
221 236 255
221 236 255
221 236 255
221 236 255
221 236 255
221 236 255
221 236 255
221 236 255
221 236 255
221 236 255
221 236 255
221 236 255
221 236 255
221 236 255
221 236 255
221 236 255
221 236 255
221 236 255
221 236 255
221 236 255
221 236 255
221 236 255
221 236 255
221 236 255
221 236 255
221 236 255
221 236 255
221 236 255
221 236 255
221 236 255
221 236 255
221 236 255
221 236 255
221 236 255
221 236 255
221 236 255
221 236 255
221 236 255
221 236 255
221 236 255
221 236 255
221 236 255
221 236 255
221 236 255
221 236 255
221 236 255
221 236 255
221 236 255
221 236 255
221 236 255
221 236 255
221 236 255
221 236 255
221 236 255
221 236 255
218 232 252
192 204 221
190 203 221
191 204 221
191 204 221
192 204 221
193 205 221
194 205 221
192 204 221
192 204 221
195 206 221
192 204 221
190 203 221
192 204 221
190 203 221
193 205 221
191 203 221
192 204 221
192 204 221
191 204 221
193 205 221
190 203 221
192 204 221
188 202 221
191 204 221
192 204 221
192 204 221
191 204 221
193 205 221
192 204 221
192 204 221
193 205 221
194 205 221
191 203 221
191 204 221
191 204 221
192 204 221
192 204 221
191 203 221
193 205 221
191 204 221
192 204 221
192 204 221
193 204 221
191 204 221
190 203 221
194 205 221
192 204 221
189 203 221
189 202 221
191 204 221
191 204 221
192 204 221
193 205 221
192 204 221
192 204 221
190 203 221
166 100 109
159 47 52
180 53 57
161 48 53
182 54 58
182 53 58
196 57 61
180 53 57
198 58 62
184 54 59
201 58 62
200 58 63
200 58 63
186 55 59
170 50 55
168 50 55
189 55 60
175 51 56
171 51 55
227 137 147
221 236 255
221 236 255
221 236 255
221 236 255
221 236 255
221 236 255
221 236 255
221 236 255
221 236 255
221 236 255
221 236 255
221 236 255
221 236 255
221 236 255
221 236 255
221 236 255
221 236 255
221 236 255
221 236 255
221 236 255
221 236 255
221 236 255
221 236 255
221 236 255
221 236 255
221 236 255
221 236 255
221 236 255
221 236 255
221 236 255
221 236 255
221 236 255
221 236 255
221 236 255
221 236 255
221 236 255
221 236 255
221 236 255
221 236 255
221 236 255
221 236 255
221 236 255
221 236 255
221 236 255
221 236 255
221 236 255
221 236 255
221 236 255
221 236 255
221 236 255
221 236 255
221 236 255
222 236 255
222 236 255
222 236 255
222 236 255
222 236 255
222 236 255
222 236 255
222 236 255
222 236 255
222 236 255
222 236 255
222 236 255
222 236 255
222 236 255
222 236 255
222 236 255
222 236 255
222 236 255
222 236 255
222 236 255
222 236 255
222 236 255
222 236 255
222 236 255
222 236 255
222 236 255
222 236 255
222 236 255
222 236 255
222 236 255
222 236 255
222 236 255
222 236 255
222 236 255
222 236 255
222 236 255
222 236 255
222 236 255
222 236 255
222 236 255
222 236 255
222 236 255
222 236 255
222 236 255
222 236 255
222 236 255
222 236 255
222 236 255
222 236 255
222 236 255
222 236 255
222 236 255
222 236 255
222 236 255
222 236 255
222 236 255
222 236 255
222 236 255
222 236 255
222 236 255
222 236 255
222 236 255
222 236 255
222 236 255
222 236 255
222 236 255
222 236 255
222 236 255
222 236 255
222 236 255
222 236 255
217 231 250
191 204 221
192 204 221
191 203 221
191 204 221
192 204 221
191 204 221
191 204 221
192 204 221
191 204 221
191 203 221
193 205 221
191 204 221
190 203 221
190 203 221
193 205 221
192 204 221
192 204 221
193 205 221
190 203 221
190 203 221
195 206 221
190 203 221
191 204 221
190 203 221
194 205 221
191 203 221
193 205 221
192 204 221
190 203 221
193 205 221
192 204 221
193 205 221
192 204 221
192 204 221
193 205 221
193 205 221
191 204 221
190 203 221
191 204 221
191 204 221
193 205 221
192 204 221
194 205 221
193 205 221
194 205 221
192 204 221
190 203 221
192 204 221
191 204 221
191 204 221
192 204 221
193 205 221
192 204 221
191 203 221
190 203 221
191 204 221
167 102 111
160 47 52
160 48 54
181 53 58
163 49 53
180 53 57
168 50 55
197 57 62
199 58 62
201 59 63
182 54 59
202 58 63
186 55 59
215 62 66
187 55 60
187 55 59
170 50 55
168 50 55
187 55 60
184 123 134
222 236 255
222 236 255
222 236 255
222 236 255
222 236 255
222 236 255
222 236 255
222 236 255
222 236 255
222 236 255
222 236 255
222 236 255
222 236 255
222 236 255
222 236 255
222 236 255
222 236 255
222 236 255
222 236 255
222 236 255
222 236 255
222 236 255
222 236 255
222 236 255
222 236 255
222 236 255
222 236 255
222 236 255
222 236 255
222 236 255
222 236 255
222 236 255
222 236 255
222 236 255
222 236 255
222 236 255
222 236 255
222 236 255
222 236 255
222 236 255
222 236 255
222 236 255
222 236 255
222 236 255
222 236 255
222 236 255
222 236 255
222 236 255
222 236 255
222 236 255
222 236 255
222 236 255
222 236 255
222 236 255
222 236 255
222 236 255
222 236 255
222 236 255
222 236 255
222 236 255
222 236 255
222 236 255
222 236 255
222 236 255
222 236 255
222 236 255
222 236 255
222 236 255
222 236 255
222 236 255
222 236 255
222 236 255
222 236 255
222 236 255
222 236 255
222 236 255
222 236 255
222 236 255
222 236 255
222 236 255
222 236 255
222 236 255
222 236 255
222 236 255
222 236 255
222 236 255
222 236 255
222 236 255
222 236 255
222 236 255
222 236 255
222 236 255
222 236 255
222 236 255
222 236 255
222 236 255
222 236 255
222 236 255
222 236 255
222 236 255
222 236 255
222 236 255
222 236 255
222 236 255
222 236 255
222 236 255
222 236 255
222 236 255
222 236 255
222 236 255
222 236 255
222 236 255
222 236 255
222 236 255
222 236 255
222 236 255
222 236 255
222 236 255
222 236 255
222 236 255
222 236 255
222 236 255
222 236 255
219 232 252
190 203 221
192 204 221
192 204 221
190 203 221
192 204 221
191 204 221
193 204 221
191 204 221
190 203 221
192 204 221
191 204 221
192 204 221
193 205 221
190 203 221
191 204 221
193 205 221
191 203 221
190 203 221
194 205 221
191 204 221
191 204 221
192 204 221
192 204 221
190 203 221
192 204 221
192 204 221
191 204 221
191 204 221
191 203 221
190 203 221
192 204 221
190 203 221
189 202 221
193 205 221
191 203 221
194 205 221
192 204 221
188 202 221
193 205 221
192 204 221
189 202 221
189 203 221
192 204 221
191 203 221
190 203 221
192 204 221
190 203 221
191 203 221
190 203 221
192 204 221
190 203 221
194 205 221
192 204 221
190 203 221
190 203 221
192 204 221
166 98 107
179 53 57
180 53 58
160 48 53
182 53 58
200 58 62
186 54 59
223 64 68
183 54 59
168 50 55
213 62 65
200 58 62
169 50 55
185 54 59
185 54 59
202 59 63
169 50 55
173 51 56
170 50 55
201 123 134
222 236 255
222 236 255
222 236 255
222 236 255
222 236 255
222 236 255
222 236 255
222 236 255
222 236 255
222 236 255
222 236 255
222 236 255
222 236 255
222 236 255
222 236 255
222 236 255
222 236 255
222 236 255
222 236 255
222 236 255
222 236 255
222 236 255
222 236 255
222 236 255
222 236 255
222 236 255
222 236 255
222 236 255
222 236 255
222 236 255
222 236 255
222 236 255
222 236 255
222 236 255
222 236 255
222 236 255
222 236 255
222 236 255
222 236 255
222 236 255
222 236 255
222 236 255
222 236 255
222 236 255
222 236 255
222 236 255
222 236 255
222 236 255
222 236 255
222 236 255
222 236 255
222 236 255
222 236 255
222 236 255
222 236 255
222 236 255
222 236 255
222 236 255
222 236 255
222 236 255
222 236 255
222 236 255
222 236 255
222 236 255
222 236 255
222 236 255
222 236 255
222 236 255
222 236 255
222 236 255
222 236 255
222 236 255
222 236 255
222 236 255
222 236 255
222 236 255
222 236 255
222 236 255
222 236 255
222 236 255
222 236 255
222 236 255
222 236 255
222 236 255
222 236 255
222 236 255
222 236 255
222 236 255
222 236 255
222 236 255
222 236 255
222 236 255
222 236 255
222 236 255
222 236 255
222 236 255
222 236 255
222 236 255
222 236 255
222 236 255
222 236 255
222 236 255
222 236 255
222 236 255
222 236 255
222 236 255
222 236 255
222 236 255
222 236 255
222 236 255
222 236 255
222 236 255
222 236 255
222 236 255
222 236 255
222 236 255
222 236 255
222 236 255
222 236 255
222 236 255
222 236 255
222 236 255
222 236 255
220 234 253
191 204 221
192 204 221
192 204 221
190 203 221
189 203 221
192 204 221
195 206 221
191 204 221
190 203 221
193 205 221
192 204 221
191 204 221
192 204 221
191 204 221
190 203 221
192 204 221
192 204 221
192 204 221
194 205 221
190 203 221
193 204 221
192 204 221
190 203 221
192 204 221
191 204 221
193 204 221
194 205 221
193 205 221
192 204 221
189 202 221
192 204 221
190 203 221
191 203 221
190 203 221
192 204 221
190 203 221
192 204 221
194 206 221
191 204 221
191 204 221
191 204 221
192 204 221
194 205 221
191 204 221
193 205 221
189 202 221
192 204 221
193 204 221
191 204 221
189 203 221
191 204 221
190 203 221
191 203 221
192 204 221
191 203 221
193 205 221
182 97 105
162 48 53
222 64 68
193 56 61
195 57 61
196 57 61
192 56 61
201 58 63
214 62 66
195 57 61
216 62 66
164 49 54
169 50 55
186 55 59
200 58 63
169 50 55
171 51 56
188 55 60
171 51 56
186 128 139
222 236 255
222 236 255
222 236 255
222 236 255
222 236 255
222 236 255
222 236 255
222 236 255
222 236 255
222 236 255
222 236 255
222 236 255
222 236 255
222 236 255
222 236 255
222 236 255
222 236 255
222 236 255
222 236 255
222 236 255
222 236 255
222 236 255
222 236 255
222 236 255
222 236 255
222 236 255
222 236 255
222 236 255
222 236 255
222 236 255
222 236 255
222 236 255
222 236 255
222 236 255
222 236 255
222 236 255
222 236 255
222 236 255
222 236 255
222 236 255
222 236 255
222 236 255
222 236 255
222 236 255
222 236 255
222 236 255
222 236 255
222 236 255
222 236 255
222 236 255
222 236 255
222 236 255
222 236 255
222 236 255
222 236 255
222 236 255
222 236 255
222 236 255
222 236 255
222 236 255
222 236 255
222 236 255
222 236 255
222 236 255
222 236 255
222 236 255
222 236 255
222 236 255
222 236 255
222 236 255
222 236 255
222 236 255
222 236 255
222 236 255
222 236 255
222 236 255
222 236 255
222 236 255
222 236 255
222 236 255
222 236 255
222 236 255
222 236 255
222 236 255
222 236 255
222 236 255
222 236 255
222 236 255
222 236 255
222 236 255
222 236 255
222 236 255
222 236 255
222 236 255
222 236 255
222 236 255
222 236 255
222 236 255
222 236 255
222 236 255
222 236 255
222 236 255
222 236 255
222 236 255
222 236 255
222 236 255
222 236 255
222 236 255
222 236 255
222 236 255
222 236 255
222 236 255
222 236 255
222 236 255
222 236 255
222 236 255
222 236 255
222 236 255
222 236 255
222 236 255
222 236 255
222 236 255
222 236 255
220 234 253
193 205 221
191 203 221
190 203 221
192 204 221
189 202 221
191 204 221
192 204 221
193 205 221
190 203 221
190 203 221
190 203 221
192 204 221
192 204 221
191 203 221
191 204 221
192 204 221
193 204 221
191 204 221
192 204 221
191 203 221
191 204 221
192 204 221
190 203 221
189 203 221
190 203 221
193 205 221
192 204 221
191 204 221
191 203 221
192 204 221
191 203 221
193 205 221
189 202 221
191 204 221
191 203 221
192 204 221
190 203 221
192 204 221
192 204 221
190 203 221
189 203 221
192 204 221
190 203 221
192 204 221
193 205 221
189 203 221
189 202 221
194 205 221
192 204 221
192 204 221
190 203 221
190 203 221
190 203 221
192 204 221
193 205 221
191 204 221
169 105 114
187 55 59
162 48 53
198 57 61
193 56 61
162 48 54
181 53 58
183 54 59
238 68 72
165 49 54
199 58 62
181 53 58
187 55 59
211 61 65
185 54 59
184 54 59
168 50 55
167 50 55
183 54 58
196 125 135
222 236 255
222 236 255
222 236 255
222 236 255
222 236 255
222 236 255
222 236 255
222 236 255
222 236 255
222 236 255
222 236 255
222 236 255
222 236 255
222 236 255
222 236 255
222 236 255
222 236 255
222 236 255
222 236 255
222 236 255
222 236 255
222 236 255
222 236 255
222 236 255
222 236 255
222 236 255
222 236 255
222 236 255
222 236 255
222 236 255
222 236 255
222 236 255
222 236 255
222 236 255
222 236 255
222 236 255
222 236 255
222 236 255
222 236 255
222 236 255
222 236 255
222 236 255
222 236 255
222 236 255
222 236 255
222 236 255
222 236 255
222 236 255
222 236 255
222 236 255
222 236 255
222 236 255
222 236 255
222 236 255
222 236 255
222 236 255
222 236 255
222 236 255
222 236 255
222 236 255
222 236 255
222 236 255
222 236 255
222 236 255
222 236 255
222 236 255
222 236 255
222 236 255
222 236 255
222 236 255
222 236 255
222 236 255
222 236 255
222 236 255
222 236 255
222 236 255
222 236 255
222 236 255
222 236 255
222 236 255
222 236 255
222 236 255
223 236 255
222 236 255
223 236 255
223 236 255
223 236 255
223 236 255
223 236 255
223 236 255
223 236 255
223 236 255
223 236 255
223 236 255
223 236 255
223 236 255
223 236 255
223 236 255
223 236 255
223 236 255
223 236 255
223 236 255
223 236 255
223 236 255
223 236 255
223 236 255
223 236 255
223 236 255
223 236 255
223 236 255
223 236 255
223 236 255
223 236 255
223 236 255
223 236 255
223 236 255
223 236 255
223 236 255
223 236 255
223 236 255
223 236 255
223 236 255
223 236 255
219 233 252
194 205 221
192 204 221
193 205 221
193 205 221
191 204 221
191 204 221
191 204 221
189 202 221
190 203 221
191 204 221
191 204 221
192 204 221
190 203 221
192 204 221
191 204 221
192 204 221
190 203 221
194 205 221
192 204 221
193 205 221
191 204 221
192 204 221
192 204 221
191 204 221
191 203 221
192 204 221
191 203 221
191 204 221
191 204 221
194 206 221
195 206 221
193 205 221
192 204 221
194 205 221
194 205 221
194 205 221
192 204 221
192 204 221
189 202 221
190 203 221
191 204 221
192 204 221
191 204 221
193 205 221
191 204 221
190 203 221
194 205 221
188 202 221
192 204 221
193 205 221
192 204 221
191 204 221
192 204 221
192 204 221
194 205 221
191 204 221
189 90 97
171 51 55
180 53 57
177 52 57
182 53 58
177 52 57
164 49 54
181 53 58
180 53 58
198 58 62
195 57 61
195 57 61
166 50 55
168 50 55
166 50 55
184 54 59
171 51 55
186 55 59
188 55 60
199 125 136
223 236 255
223 236 255
223 236 255
223 236 255
223 236 255
223 236 255
223 236 255
223 236 255
223 236 255
223 236 255
223 236 255
223 236 255
223 236 255
223 236 255
223 236 255
223 236 255
223 236 255
223 236 255
223 236 255
223 236 255
223 236 255
223 236 255
223 236 255
222 236 255
222 236 255
222 236 255
222 236 255
222 236 255
222 236 255
222 236 255
222 236 255
222 236 255
222 236 255
222 236 255
222 236 255
222 236 255
222 236 255
222 236 255
222 236 255
222 236 255
222 236 255
222 236 255
222 236 255
222 236 255
222 236 255
222 236 255
222 236 255
222 236 255
222 236 255
222 236 255
222 236 255
222 236 255
223 236 255
223 236 255
223 236 255
223 236 255
223 236 255
223 236 255
223 236 255
223 236 255
223 236 255
223 236 255
223 236 255
223 236 255
223 236 255
223 236 255
223 236 255
223 236 255
223 236 255
223 236 255
223 236 255
223 236 255
223 236 255
223 236 255
223 236 255
223 236 255
223 236 255
223 236 255
223 236 255
223 236 255
223 236 255
223 236 255
223 236 255
223 236 255
223 236 255
223 236 255
223 236 255
223 236 255
223 236 255
223 236 255
223 236 255
223 236 255
223 236 255
223 236 255
223 236 255
223 236 255
223 236 255
223 236 255
223 236 255
223 236 255
223 236 255
223 236 255
223 236 255
223 236 255
223 236 255
223 236 255
223 236 255
223 236 255
223 236 255
223 236 255
223 236 255
223 236 255
223 236 255
223 236 255
223 236 255
223 236 255
223 236 255
223 236 255
223 236 255
223 236 255
223 236 255
223 236 255
223 236 255
221 234 253
190 203 221
192 204 221
189 202 221
191 203 221
192 204 221
192 204 221
193 205 221
191 204 221
192 204 221
192 204 221
189 202 221
187 201 221
192 204 221
190 203 221
191 203 221
192 204 221
191 204 221
191 204 221
191 204 221
191 204 221
191 204 221
191 204 221
192 204 221
192 204 221
191 204 221
193 205 221
191 204 221
190 203 221
191 204 221
192 204 221
191 204 221
192 204 221
191 203 221
192 204 221
190 203 221
191 204 221
192 204 221
192 204 221
192 204 221
190 203 221
192 204 221
191 204 221
191 204 221
192 204 221
193 205 221
191 204 221
190 203 221
191 204 221
192 204 221
189 203 221
188 202 221
192 204 221
190 203 221
192 204 221
191 204 221
191 204 221
185 98 105
179 53 57
176 52 56
180 53 58
182 53 58
199 58 62
164 49 54
189 55 60
165 49 54
209 61 65
196 57 62
168 50 55
224 65 69
170 50 55
198 58 62
171 51 56
170 50 55
200 58 62
187 55 59
188 142 154
223 236 255
223 236 255
223 236 255
223 236 255
223 236 255
223 236 255
223 236 255
223 236 255
223 236 255
223 236 255
223 236 255
223 236 255
223 236 255
223 236 255
223 236 255
223 236 255
223 236 255
223 236 255
223 236 255
223 236 255
223 236 255
223 236 255
223 236 255
223 236 255
223 236 255
223 236 255
223 236 255
223 236 255
223 236 255
223 236 255
223 236 255
223 236 255
223 236 255
223 236 255
223 236 255
223 236 255
223 236 255
223 236 255
223 236 255
223 236 255
223 236 255
223 236 255
223 236 255
223 236 255
223 236 255
223 236 255
223 236 255
223 236 255
223 236 255
223 236 255
223 236 255
223 236 255
223 236 255
223 236 255
223 236 255
223 236 255
223 236 255
223 236 255
223 236 255
223 236 255
223 236 255
223 236 255
223 236 255
223 236 255
223 236 255
223 236 255
223 236 255
223 236 255
223 236 255
223 236 255
223 236 255
223 236 255
223 236 255
223 236 255
223 236 255
223 236 255
223 236 255
223 237 255
223 237 255
223 237 255
223 237 255
223 237 255
223 237 255
223 237 255
223 237 255
223 237 255
223 237 255
223 237 255
223 237 255
223 237 255
223 237 255
223 237 255
223 237 255
223 237 255
223 237 255
223 237 255
223 237 255
223 237 255
223 237 255
223 237 255
223 237 255
223 237 255
223 237 255
223 237 255
223 237 255
223 237 255
223 237 255
223 237 255
223 237 255
223 237 255
223 237 255
223 237 255
223 237 255
223 237 255
223 237 255
223 237 255
223 237 255
223 237 255
223 237 255
223 237 255
223 237 255
223 237 255
223 237 255
221 234 253
191 204 221
193 205 221
191 204 221
191 204 221
192 204 221
190 203 221
192 204 221
191 204 221
193 205 221
191 204 221
193 205 221
190 203 221
193 204 221
190 203 221
193 205 221
192 204 221
193 205 221
191 204 221
190 203 221
191 204 221
189 202 221
192 204 221
192 204 221
191 204 221
192 204 221
192 204 221
193 204 221
190 203 221
191 204 221
190 203 221
191 204 221
190 203 221
191 204 221
190 203 221
192 204 221
192 204 221
192 204 221
191 203 221
192 204 221
192 204 221
191 204 221
193 205 221
191 204 221
193 205 221
191 204 221
192 204 221
193 205 221
191 204 221
191 204 221
192 204 221
192 204 221
191 204 221
190 203 221
195 206 221
191 203 221
193 204 221
164 95 105
175 51 55
194 56 60
161 48 53
188 55 60
199 58 62
178 52 57
194 56 61
213 62 66
184 54 58
183 54 58
179 53 58
167 50 55
180 53 58
169 50 55
171 51 55
185 54 59
168 50 55
217 63 67
186 126 136
223 237 255
223 237 255
223 237 255
223 237 255
223 237 255
223 237 255
223 237 255
223 237 255
223 237 255
223 237 255
223 237 255
223 237 255
223 237 255
223 237 255
223 237 255
223 237 255
223 237 255
223 237 255
223 237 255
223 237 255
223 237 255
223 237 255
223 237 255
223 237 255
223 237 255
223 237 255
223 237 255
223 237 255
223 236 255
223 237 255
223 236 255
223 236 255
223 236 255
223 236 255
223 236 255
223 236 255
223 236 255
223 236 255
223 236 255
223 236 255
223 236 255
223 236 255
223 236 255
223 236 255
223 236 255
223 236 255
223 236 255
223 236 255
223 236 255
223 236 255
223 236 255
223 236 255
223 237 255
223 237 255
223 237 255
223 237 255
223 237 255
223 237 255
223 237 255
223 237 255
223 237 255
223 237 255
223 237 255
223 237 255
223 237 255
223 237 255
223 237 255
223 237 255
223 237 255
223 237 255
223 237 255
223 237 255
223 237 255
223 237 255
223 237 255
223 237 255
223 237 255
223 237 255
223 237 255
223 237 255
223 237 255
223 237 255
223 237 255
223 237 255
223 237 255
223 237 255
223 237 255
223 237 255
223 237 255
223 237 255
223 237 255
223 237 255
223 237 255
223 237 255
223 237 255
223 237 255
223 237 255
223 237 255
223 237 255
223 237 255
223 237 255
223 237 255
223 237 255
223 237 255
223 237 255
223 237 255
223 237 255
223 237 255
223 237 255
223 237 255
223 237 255
223 237 255
223 237 255
223 237 255
223 237 255
223 237 255
223 237 255
223 237 255
223 237 255
223 237 255
223 237 255
223 237 255
223 237 255
222 235 254
189 202 221
190 203 221
189 202 221
191 204 221
190 203 221
192 204 221
192 204 221
191 204 221
192 204 221
190 203 221
189 203 221
191 204 221
195 206 221
194 205 221
192 204 221
191 204 221
195 206 221
192 204 221
192 204 221
190 203 221
191 203 221
191 204 221
192 204 221
193 205 221
190 203 221
190 203 221
191 204 221
193 205 221
192 204 221
190 203 221
190 203 221
193 205 221
193 204 221
191 203 221
194 205 221
192 204 221
191 204 221
192 204 221
191 204 221
192 204 221
192 204 221
189 202 221
192 204 221
190 203 221
191 204 221
191 204 221
191 203 221
194 205 221
195 206 221
191 204 221
190 203 221
192 204 221
193 205 221
195 206 221
192 204 221
192 204 221
180 98 107
206 59 63
180 53 57
158 47 53
181 53 58
177 52 57
189 55 60
164 49 54
227 65 69
197 57 62
165 49 55
200 58 63
185 54 59
166 49 55
168 50 55
167 50 55
169 50 56
170 50 55
172 51 56
185 130 141
223 237 255
223 237 255
223 237 255
223 237 255
223 237 255
223 237 255
223 237 255
223 237 255
223 237 255
223 237 255
223 237 255
223 237 255
223 237 255
223 237 255
223 237 255
223 237 255
223 237 255
223 237 255
223 237 255
223 237 255
223 237 255
223 237 255
223 237 255
223 237 255
223 237 255
223 237 255
223 237 255
223 237 255
223 237 255
223 237 255
223 237 255
223 237 255
223 237 255
223 237 255
223 237 255
223 237 255
223 237 255
223 237 255
223 237 255
223 237 255
223 237 255
223 237 255
223 237 255
223 237 255
223 237 255
223 237 255
223 237 255
223 237 255
223 237 255
223 237 255
223 237 255
223 237 255
223 237 255
223 237 255
223 237 255
223 237 255
223 237 255
223 237 255
223 237 255
223 237 255
223 237 255
223 237 255
223 237 255
223 237 255
223 237 255
223 237 255
223 237 255
223 237 255
223 237 255
223 237 255
223 237 255
223 237 255
223 237 255
223 237 255
223 237 255
223 237 255
223 237 255
223 237 255
223 237 255
223 237 255
223 237 255
223 237 255
223 237 255
223 237 255
223 237 255
223 237 255
223 237 255
223 237 255
224 237 255
224 237 255
224 237 255
224 237 255
224 237 255
224 237 255
224 237 255
224 237 255
224 237 255
224 237 255
224 237 255
224 237 255
224 237 255
224 237 255
224 237 255
224 237 255
224 237 255
224 237 255
224 237 255
224 237 255
224 237 255
224 237 255
224 237 255
224 237 255
224 237 255
224 237 255
224 237 255
224 237 255
224 237 255
224 237 255
224 237 255
224 237 255
224 237 255
224 237 255
224 237 255
222 235 253
194 205 221
191 204 221
191 204 221
192 204 221
192 204 221
189 202 221
192 204 221
191 204 221
193 204 221
193 205 221
190 203 221
191 204 221
191 204 221
191 203 221
190 203 221
191 204 221
192 204 221
190 203 221
191 204 221
193 205 221
193 205 221
192 204 221
189 203 221
192 204 221
192 204 221
193 205 221
190 203 221
189 203 221
191 204 221
192 204 221
194 205 221
192 204 221
192 204 221
190 203 221
190 203 221
190 203 221
189 203 221
192 204 221
191 204 221
192 204 221
191 204 221
193 205 221
192 204 221
192 204 221
193 205 221
192 204 221
192 204 221
190 203 221
190 203 221
192 204 221
192 204 221
194 205 221
192 204 221
192 204 221
192 204 221
192 204 221
168 112 121
179 52 57
179 53 57
177 52 57
199 58 62
161 48 53
210 61 65
192 56 61
175 52 57
165 49 54
179 53 58
184 54 59
178 53 58
185 54 59
167 50 55
183 54 58
170 50 56
204 59 64
170 50 55
199 124 133
224 237 255
224 237 255
224 237 255
224 237 255
224 237 255
224 237 255
224 237 255
224 237 255
224 237 255
224 237 255
224 237 255
224 237 255
224 237 255
224 237 255
224 237 255
223 237 255
223 237 255
223 237 255
223 237 255
223 237 255
223 237 255
223 237 255
223 237 255
223 237 255
223 237 255
223 237 255
223 237 255
223 237 255
223 237 255
223 237 255
223 237 255
223 237 255
223 237 255
223 237 255
223 237 255
223 237 255
223 237 255
223 237 255
223 237 255
223 237 255
223 237 255
223 237 255
223 237 255
223 237 255
223 237 255
223 237 255
223 237 255
223 237 255
223 237 255
223 237 255
223 237 255
223 237 255
223 237 255
223 237 255
223 237 255
223 237 255
223 237 255
224 237 255
224 237 255
224 237 255
224 237 255
224 237 255
224 237 255
224 237 255
224 237 255
224 237 255
224 237 255
224 237 255
224 237 255
224 237 255
224 237 255
224 237 255
224 237 255
224 237 255
224 237 255
224 237 255
224 237 255
224 237 255
224 237 255
224 237 255
224 237 255
224 237 255
224 237 255
224 237 255
224 237 255
224 237 255
224 237 255
224 237 255
224 237 255
224 237 255
224 237 255
224 237 255
224 237 255
224 237 255
224 237 255
224 237 255
224 237 255
224 237 255
224 237 255
224 237 255
224 237 255
224 237 255
224 237 255
224 237 255
224 237 255
224 237 255
224 237 255
224 237 255
224 237 255
224 237 255
224 237 255
224 237 255
224 237 255
224 237 255
224 237 255
224 237 255
224 237 255
224 237 255
224 237 255
224 237 255
224 237 255
224 237 255
224 237 255
221 234 253
190 203 221
191 203 221
191 203 221
192 204 221
191 203 221
190 203 221
192 204 221
194 205 221
193 205 221
189 203 221
191 204 221
193 205 221
192 204 221
191 204 221
192 204 221
190 203 221
190 203 221
191 204 221
190 203 221
190 203 221
191 204 221
191 204 221
191 204 221
192 204 221
191 204 221
192 204 221
191 204 221
192 204 221
191 203 221
190 203 221
190 203 221
191 204 221
192 204 221
194 206 221
191 203 221
191 203 221
191 204 221
192 204 221
192 204 221
192 204 221
191 204 221
192 204 221
191 204 221
193 205 221
191 204 221
192 204 221
191 204 221
190 203 221
191 203 221
191 204 221
192 204 221
190 203 221
192 204 221
192 204 221
191 204 221
191 204 221
167 107 115
158 47 52
178 52 57
190 55 60
159 48 53
173 51 57
161 48 54
165 49 54
162 49 54
183 54 58
164 49 54
183 54 59
167 50 55
168 50 55
184 54 59
170 51 56
185 55 59
182 54 58
184 54 58
185 120 129
224 237 255
224 237 255
224 237 255
224 237 255
224 237 255
224 237 255
224 237 255
224 237 255
224 237 255
224 237 255
224 237 255
224 237 255
224 237 255
224 237 255
224 237 255
224 237 255
224 237 255
224 237 255
224 237 255
224 237 255
224 237 255
224 237 255
224 237 255
224 237 255
224 237 255
224 237 255
224 237 255
224 237 255
224 237 255
224 237 255
224 237 255
224 237 255
224 237 255
224 237 255
224 237 255
224 237 255
224 237 255
224 237 255
224 237 255
224 237 255
224 237 255
224 237 255
224 237 255
224 237 255
224 237 255
224 237 255
224 237 255
223 237 255
223 237 255
223 237 255
223 237 255
223 237 255
224 237 255
224 237 255
224 237 255
224 237 255
224 237 255
224 237 255
224 237 255
224 237 255
224 237 255
224 237 255
224 237 255
224 237 255
224 237 255
224 237 255
224 237 255
224 237 255
224 237 255
224 237 255
224 237 255
224 237 255
224 237 255
224 237 255
224 237 255
224 237 255
224 237 255
224 237 255
224 237 255
224 237 255
224 237 255
224 237 255
224 237 255
224 237 255
224 237 255
224 237 255
224 237 255
224 237 255
224 237 255
224 237 255
224 237 255
224 237 255
224 237 255
224 237 255
224 237 255
224 237 255
224 237 255
224 237 255
224 237 255
224 237 255
224 237 255
224 237 255
224 237 255
224 237 255
224 237 255
224 237 255
224 237 255
224 237 255
224 237 255
224 237 255
224 237 255
224 237 255
224 237 255
224 237 255
224 237 255
224 237 255
224 237 255
224 237 255
224 237 255
224 237 255
224 237 255
224 237 255
224 237 255
221 235 253
192 204 221
191 204 221
191 204 221
191 204 221
191 203 221
193 205 221
189 202 221
192 204 221
192 204 221
192 204 221
191 204 221
191 204 221
194 205 221
193 205 221
192 204 221
193 205 221
190 203 221
193 205 221
192 204 221
192 204 221
193 205 221
189 203 221
192 204 221
193 205 221
192 204 221
191 204 221
190 203 221
191 204 221
190 203 221
192 204 221
191 204 221
193 205 221
189 202 221
192 204 221
191 203 221
189 202 221
190 203 221
193 205 221
191 204 221
192 204 221
191 204 221
193 205 221
189 203 221
190 203 221
192 204 221
192 204 221
191 203 221
191 204 221
191 203 221
188 202 221
192 204 221
190 203 221
192 204 221
192 204 221
189 203 221
193 205 221
174 96 104
176 52 56
159 47 52
171 51 56
175 52 57
230 66 70
162 48 54
165 49 54
162 49 54
179 53 58
176 52 57
191 56 61
180 53 58
164 49 54
188 55 59
169 50 56
170 51 56
170 50 55
172 51 56
195 123 133
224 237 255
224 237 255
224 237 255
224 237 255
224 237 255
224 237 255
224 237 255
224 237 255
224 237 255
224 237 255
224 237 255
224 237 255
224 237 255
224 237 255
224 237 255
224 237 255
224 237 255
224 237 255
224 237 255
224 237 255
224 237 255
224 237 255
224 237 255
224 237 255
224 237 255
224 237 255
224 237 255
224 237 255
224 237 255
224 237 255
224 237 255
224 237 255
224 237 255
224 237 255
224 237 255
224 237 255
224 237 255
224 237 255
224 237 255
224 237 255
224 237 255
224 237 255
224 237 255
224 237 255
224 237 255
224 237 255
224 237 255
224 237 255
224 237 255
224 237 255
224 237 255
224 237 255
224 237 255
224 237 255
224 237 255
224 237 255
224 237 255
224 237 255
224 237 255
224 237 255
224 237 255
224 237 255
224 237 255
224 237 255
224 237 255
224 237 255
224 237 255
224 237 255
224 237 255
224 237 255
224 237 255
224 237 255
224 237 255
224 237 255
224 237 255
224 237 255
224 237 255
224 237 255
224 237 255
224 237 255
224 237 255
224 237 255
224 237 255
224 237 255
224 237 255
224 237 255
224 237 255
224 237 255
224 237 255
224 237 255
224 237 255
224 237 255
224 237 255
224 237 255
224 237 255
224 237 255
224 237 255
224 237 255
224 237 255
224 237 255
224 237 255
224 237 255
224 237 255
224 237 255
224 237 255
224 237 255
224 237 255
224 237 255
224 237 255
224 237 255
224 237 255
224 237 255
224 237 255
224 237 255
224 237 255
224 237 255
224 237 255
224 237 255
224 237 255
224 237 255
224 237 255
224 237 255
224 237 255
223 235 254
190 203 221
190 203 221
192 204 221
191 204 221
190 203 221
191 203 221
191 204 221
190 203 221
192 204 221
193 204 221
195 206 221
194 205 221
190 203 221
192 204 221
190 203 221
193 205 221
191 204 221
191 204 221
193 205 221
192 204 221
193 205 221
193 205 221
192 204 221
192 204 221
190 203 221
190 203 221
193 205 221
194 205 221
193 205 221
190 203 221
194 205 221
189 202 221
192 204 221
193 204 221
191 204 221
190 203 221
191 204 221
193 205 221
191 204 221
189 203 221
191 203 221
193 205 221
192 204 221
192 204 221
191 203 221
192 204 221
190 203 221
190 203 221
193 205 221
190 203 221
192 204 221
192 204 221
192 204 221
191 203 221
191 204 221
190 203 221
168 103 111
153 46 51
157 47 52
161 48 53
159 48 53
174 51 56
208 60 64
160 48 54
163 49 54
194 57 61
162 49 54
206 60 64
179 53 58
169 50 55
182 54 59
167 50 55
166 49 54
184 54 59
169 50 55
185 126 136
224 237 255
224 237 255
224 237 255
224 237 255
224 237 255
224 237 255
224 237 255
224 237 255
224 237 255
224 237 255
224 237 255
224 237 255
224 237 255
224 237 255
224 237 255
224 237 255
224 237 255
224 237 255
224 237 255
224 237 255
224 237 255
224 237 255
224 237 255
224 237 255
224 237 255
224 237 255
224 237 255
224 237 255
224 237 255
224 237 255
224 237 255
224 237 255
224 237 255
224 237 255
224 237 255
224 237 255
224 237 255
224 237 255
224 237 255
224 237 255
224 237 255
224 237 255
224 237 255
224 237 255
224 237 255
224 237 255
224 237 255
224 237 255
224 237 255
224 237 255
224 237 255
224 237 255
224 237 255
224 237 255
224 237 255
224 237 255
224 237 255
224 237 255
224 237 255
224 237 255
224 237 255
224 237 255
224 237 255
224 237 255
224 237 255
224 237 255
224 237 255
224 237 255
224 237 255
224 237 255
224 237 255
224 237 255
224 237 255
224 237 255
224 237 255
224 237 255
224 237 255
224 237 255
224 237 255
224 237 255
224 237 255
224 237 255
224 237 255
224 237 255
224 237 255
224 237 255
224 237 255
224 237 255
224 237 255
224 237 255
224 237 255
224 237 255
224 237 255
225 237 255
225 237 255
225 237 255
225 237 255
225 237 255
225 237 255
225 237 255
225 237 255
225 237 255
225 237 255
225 237 255
225 237 255
225 237 255
225 237 255
225 237 255
225 237 255
225 237 255
225 237 255
225 237 255
225 237 255
225 237 255
225 237 255
225 237 255
225 237 255
225 237 255
225 237 255
225 237 255
225 237 255
225 237 255
225 237 255
222 235 253
190 203 221
194 206 221
192 204 221
192 204 221
190 203 221
191 204 221
190 203 221
190 203 221
192 204 221
192 204 221
192 204 221
193 205 221
192 204 221
191 204 221
191 203 221
191 203 221
188 202 221
190 203 221
191 204 221
192 204 221
192 204 221
192 204 221
192 204 221
191 203 221
192 204 221
191 204 221
189 203 221
190 203 221
193 205 221
193 205 221
192 204 221
188 202 221
190 203 221
191 204 221
192 204 221
192 204 221
191 204 221
192 204 221
191 203 221
195 206 221
194 206 221
193 205 221
191 203 221
192 204 221
190 203 221
191 204 221
190 203 221
192 204 221
190 203 221
192 204 221
192 204 221
193 204 221
193 205 221
194 206 221
191 203 221
192 204 221
167 96 103
158 47 52
175 52 56
171 51 56
196 57 61
191 56 60
177 52 57
159 48 53
180 53 58
175 52 57
163 49 54
165 49 54
178 53 58
213 62 66
207 60 65
167 50 55
208 60 65
185 54 59
170 50 55
197 136 146
225 237 255
225 237 255
225 237 255
225 237 255
225 237 255
225 237 255
225 237 255
225 237 255
225 237 255
225 237 255
224 237 255
224 237 255
224 237 255
224 237 255
224 237 255
224 237 255
224 237 255
224 237 255
224 237 255
224 237 255
224 237 255
224 237 255
224 237 255
224 237 255
224 237 255
224 237 255
224 237 255
224 237 255
224 237 255
224 237 255
224 237 255
224 237 255
224 237 255
224 237 255
224 237 255
224 237 255
224 237 255
224 237 255
224 237 255
224 237 255
224 237 255
224 237 255
224 237 255
224 237 255
224 237 255
224 237 255
224 237 255
224 237 255
224 237 255
224 237 255
224 237 255
224 237 255
224 237 255
224 237 255
224 237 255
224 237 255
224 237 255
224 237 255
224 237 255
224 237 255
224 237 255
224 237 255
224 237 255
224 237 255
224 237 255
224 237 255
224 237 255
224 237 255
224 237 255
224 237 255
225 237 255
225 237 255
225 237 255
225 237 255
225 237 255
225 237 255
225 237 255
225 237 255
225 237 255
225 237 255
225 237 255
225 237 255
225 237 255
225 237 255
225 237 255
225 237 255
225 237 255
225 237 255
225 237 255
225 237 255
225 238 255
225 238 255
225 238 255
225 238 255
225 238 255
225 238 255
225 238 255
225 238 255
225 238 255
225 238 255
225 238 255
225 238 255
225 238 255
225 238 255
225 238 255
225 238 255
225 238 255
225 238 255
225 238 255
225 238 255
225 238 255
225 238 255
225 238 255
225 238 255
225 238 255
225 238 255
225 238 255
225 238 255
225 238 255
225 238 255
225 238 255
225 238 255
225 238 255
224 237 254
190 203 221
188 202 221
193 205 221
190 203 221
191 203 221
193 205 221
192 204 221
189 203 221
192 204 221
190 203 221
193 205 221
190 203 221
189 203 221
192 204 221
191 204 221
191 204 221
191 203 221
193 205 221
192 204 221
192 204 221
191 203 221
191 204 221
190 203 221
193 205 221
191 203 221
191 203 221
193 205 221
192 204 221
192 204 221
192 204 221
192 204 221
190 203 221
191 204 221
192 204 221
190 203 221
190 203 221
190 203 221
194 205 221
189 202 221
193 205 221
193 205 221
193 205 221
190 203 221
190 203 221
191 203 221
192 204 221
193 205 221
192 204 221
190 203 221
192 204 221
190 203 221
190 203 221
193 205 221
190 203 221
192 204 221
193 205 221
165 96 105
210 61 64
158 47 52
190 56 60
195 57 62
161 48 54
218 63 67
181 53 58
191 56 61
162 48 54
163 49 54
191 56 61
163 49 55
183 54 59
183 54 59
195 57 62
168 50 55
168 50 55
168 50 56
182 122 132
225 238 255
225 238 255
225 238 255
225 238 255
225 238 255
225 238 255
225 238 255
225 238 255
225 238 255
225 238 255
225 238 255
225 238 255
225 238 255
225 238 255
225 237 255
225 237 255
225 237 255
225 237 255
225 237 255
225 237 255
225 237 255
225 237 255
225 237 255
225 237 255
225 237 255
225 237 255
225 237 255
225 237 255
225 237 255
225 237 255
225 237 255
225 237 255
225 237 255
225 237 255
224 237 255
224 237 255
224 237 255
224 237 255
224 237 255
224 237 255
224 237 255
224 237 255
224 237 255
224 237 255
224 237 255
224 237 255
224 237 255
224 237 255
224 237 255
224 237 255
224 237 255
224 237 255
225 237 255
225 237 255
225 237 255
225 237 255
225 237 255
225 237 255
225 237 255
225 237 255
225 237 255
225 237 255
225 237 255
225 237 255
225 237 255
225 237 255
225 237 255
225 237 255
225 238 255
225 238 255
225 238 255
225 238 255
225 238 255
225 238 255
225 238 255
225 238 255
225 238 255
225 238 255
225 238 255
225 238 255
225 238 255
225 238 255
225 238 255
225 238 255
225 238 255
225 238 255
225 238 255
225 238 255
225 238 255
225 238 255
225 238 255
225 238 255
225 238 255
225 238 255
225 238 255
225 238 255
225 238 255
225 238 255
225 238 255
225 238 255
225 238 255
225 238 255
225 238 255
225 238 255
225 238 255
225 238 255
225 238 255
225 238 255
225 238 255
225 238 255
225 238 255
225 238 255
225 238 255
225 238 255
225 238 255
225 238 255
225 238 255
225 238 255
225 238 255
225 238 255
225 238 255
225 238 255
225 238 255
222 235 252
190 203 221
193 205 221
191 204 221
191 204 221
190 203 221
192 204 221
189 203 221
189 203 221
192 204 221
193 205 221
191 203 221
193 205 221
193 205 221
189 203 221
191 204 221
191 204 221
193 205 221
190 203 221
190 203 221
193 205 221
194 206 221
192 204 221
193 205 221
193 205 221
192 204 221
192 204 221
195 206 221
193 205 221
190 203 221
191 204 221
191 203 221
191 204 221
191 204 221
193 205 221
192 204 221
193 205 221
190 203 221
192 204 221
192 204 221
191 204 221
193 205 221
192 204 221
191 204 221
190 203 221
190 203 221
189 203 221
194 205 221
193 205 221
192 204 221
191 204 221
189 202 221
192 204 221
189 203 221
191 204 221
189 203 221
191 203 221
167 105 113
161 48 52
173 51 56
174 52 57
157 47 52
175 52 57
157 47 53
160 48 54
178 53 58
218 63 67
180 53 58
161 48 54
195 57 61
189 56 60
184 54 59
164 49 54
167 50 55
167 50 55
185 54 59
192 146 158
225 238 255
225 238 255
225 238 255
225 238 255
225 238 255
225 238 255
225 238 255
225 238 255
225 238 255
225 238 255
225 238 255
225 238 255
225 238 255
225 238 255
225 238 255
225 238 255
225 238 255
225 238 255
225 238 255
225 238 255
225 238 255
225 238 255
225 238 255
225 238 255
225 238 255
225 238 255
225 238 255
225 238 255
225 238 255
225 238 255
225 238 255
225 238 255
225 238 255
225 238 255
225 238 255
225 238 255
225 237 255
225 237 255
225 237 255
225 237 255
225 237 255
225 237 255
225 237 255
225 237 255
225 237 255
225 237 255
225 237 255
225 237 255
225 237 255
225 237 255
225 237 255
225 237 255
225 238 255
225 238 255
225 238 255
225 238 255
225 238 255
225 238 255
225 238 255
225 238 255
225 238 255
225 238 255
225 238 255
225 238 255
225 238 255
225 238 255
225 238 255
225 238 255
225 238 255
225 238 255
225 238 255
225 238 255
225 238 255
225 238 255
225 238 255
225 238 255
225 238 255
225 238 255
225 238 255
225 238 255
225 238 255
225 238 255
225 238 255
225 238 255
225 238 255
225 238 255
225 238 255
225 238 255
225 238 255
225 238 255
225 238 255
225 238 255
225 238 255
225 238 255
225 238 255
225 238 255
225 238 255
225 238 255
225 238 255
225 238 255
225 238 255
225 238 255
225 238 255
225 238 255
225 238 255
225 238 255
225 238 255
225 238 255
225 238 255
225 238 255
225 238 255
225 238 255
225 238 255
225 238 255
225 238 255
225 238 255
225 238 255
225 238 255
225 238 255
225 238 255
225 238 255
225 238 255
225 238 255
223 236 253
193 205 221
190 203 221
191 204 221
190 203 221
192 204 221
189 202 221
190 203 221
192 204 221
191 204 221
188 202 221
192 204 221
191 203 221
191 204 221
189 203 221
196 206 221
193 205 221
190 203 221
190 203 221
193 205 221
192 204 221
193 205 221
190 203 221
187 202 221
191 203 221
193 205 221
192 204 221
189 203 221
193 205 221
192 204 221
191 203 221
192 204 221
191 204 221
192 204 221
191 204 221
193 205 221
192 204 221
191 204 221
192 204 221
193 204 221
192 204 221
190 203 221
194 205 221
190 203 221
189 202 221
193 204 221
190 203 221
191 203 221
189 202 221
191 204 221
192 204 221
193 205 221
192 204 221
191 203 221
189 203 221
191 204 221
192 204 221
162 97 107
181 53 58
158 47 52
170 51 56
173 51 56
201 59 63
158 48 53
173 51 56
186 55 59
179 53 58
206 60 64
207 60 65
176 52 57
181 54 59
197 58 62
164 49 54
181 53 58
168 50 55
169 50 55
187 131 141
225 238 255
225 238 255
225 238 255
225 238 255
225 238 255
225 238 255
225 238 255
225 238 255
225 238 255
225 238 255
225 238 255
225 238 255
225 238 255
225 238 255
225 238 255
225 238 255
225 238 255
225 238 255
225 238 255
225 238 255
225 238 255
225 238 255
225 238 255
225 238 255
225 238 255
225 238 255
225 238 255
225 238 255
225 238 255
225 238 255
225 238 255
225 238 255
225 238 255
225 238 255
225 238 255
225 238 255
225 238 255
225 238 255
225 238 255
225 238 255
225 238 255
225 238 255
225 238 255
225 238 255
225 238 255
225 238 255
225 238 255
225 238 255
225 238 255
225 238 255
225 238 255
225 238 255
225 238 255
225 238 255
225 238 255
225 238 255
225 238 255
225 238 255
225 238 255
225 238 255
225 238 255
225 238 255
225 238 255
225 238 255
225 238 255
225 238 255
225 238 255
225 238 255
225 238 255
225 238 255
225 238 255
225 238 255
225 238 255
225 238 255
225 238 255
225 238 255
225 238 255
225 238 255
225 238 255
225 238 255
225 238 255
225 238 255
225 238 255
225 238 255
225 238 255
225 238 255
225 238 255
225 238 255
225 238 255
225 238 255
225 238 255
225 238 255
225 238 255
225 238 255
225 238 255
225 238 255
225 238 255
226 238 255
226 238 255
226 238 255
226 238 255
226 238 255
226 238 255
226 238 255
226 238 255
226 238 255
226 238 255
226 238 255
226 238 255
226 238 255
226 238 255
226 238 255
226 238 255
226 238 255
226 238 255
226 238 255
226 238 255
226 238 255
226 238 255
226 238 255
226 238 255
226 238 255
226 238 255
223 235 253
192 204 221
192 204 221
193 205 221
191 203 221
193 205 221
191 204 221
190 203 221
191 203 221
192 204 221
191 203 221
189 202 221
192 204 221
189 202 221
191 203 221
191 204 221
189 203 221
190 203 221
190 203 221
191 203 221
190 203 221
191 204 221
193 205 221
190 203 221
190 203 221
190 203 221
191 204 221
190 203 221
194 205 221
191 204 221
192 204 221
192 204 221
191 204 221
192 204 221
194 205 221
190 203 221
190 203 221
191 204 221
191 204 221
194 205 221
191 204 221
191 204 221
189 203 221
193 205 221
190 203 221
193 205 221
189 203 221
192 204 221
193 205 221
191 204 221
191 204 221
193 204 221
193 205 221
192 204 221
191 203 221
189 203 221
193 204 221
164 93 100
155 46 51
171 50 55
183 54 58
169 50 56
191 56 61
210 61 65
175 52 57
177 53 58
163 49 55
165 49 55
180 53 58
164 49 54
162 49 54
167 50 55
179 53 58
168 50 55
198 58 62
170 51 56
184 127 136
226 238 255
226 238 255
226 238 255
226 238 255
226 238 255
226 238 255
225 238 255
225 238 255
225 238 255
225 238 255
225 238 255
225 238 255
225 238 255
225 238 255
225 238 255
225 238 255
225 238 255
225 238 255
225 238 255
225 238 255
225 238 255
225 238 255
225 238 255
225 238 255
225 238 255
225 238 255
225 238 255
225 238 255
225 238 255
225 238 255
225 238 255
225 238 255
225 238 255
225 238 255
225 238 255
225 238 255
225 238 255
225 238 255
225 238 255
225 238 255
225 238 255
225 238 255
225 238 255
225 238 255
225 238 255
225 238 255
225 238 255
225 238 255
225 238 255
225 238 255
225 238 255
225 238 255
225 238 255
225 238 255
225 238 255
225 238 255
225 238 255
225 238 255
225 238 255
225 238 255
225 238 255
225 238 255
225 238 255
225 238 255
225 238 255
225 238 255
225 238 255
225 238 255
225 238 255
225 238 255
225 238 255
225 238 255
225 238 255
225 238 255
225 238 255
225 238 255
225 238 255
225 238 255
226 238 255
226 238 255
226 238 255
226 238 255
226 238 255
226 238 255
226 238 255
226 238 255
226 238 255
226 238 255
226 238 255
226 238 255
226 238 255
226 238 255
226 238 255
226 238 255
226 238 255
226 238 255
226 238 255
226 238 255
226 238 255
226 238 255
226 238 255
226 238 255
226 238 255
226 238 255
226 238 255
226 238 255
226 238 255
226 238 255
226 238 255
226 238 255
226 238 255
226 238 255
226 238 255
226 238 255
226 238 255
226 238 255
226 238 255
226 238 255
226 238 255
226 238 255
226 238 255
226 238 255
226 238 255
224 236 253
189 203 221
193 205 221
193 205 221
192 204 221
193 205 221
190 203 221
190 203 221
194 205 221
192 204 221
192 204 221
191 204 221
190 203 221
191 204 221
193 205 221
192 204 221
193 205 221
190 203 221
192 204 221
190 203 221
193 205 221
191 204 221
193 205 221
188 202 221
191 203 221
193 205 221
192 204 221
190 203 221
192 204 221
192 204 221
194 205 221
191 203 221
192 204 221
189 203 221
191 203 221
192 204 221
191 204 221
192 204 221
193 204 221
192 204 221
192 204 221
193 205 221
191 204 221
189 203 221
190 203 221
190 203 221
193 205 221
192 204 221
193 205 221
191 204 221
192 204 221
189 203 221
192 204 221
193 205 221
192 204 221
190 203 221
190 203 221
161 92 100
157 47 52
156 47 52
171 51 55
214 62 66
168 50 55
186 55 60
172 51 56
157 48 53
174 52 57
191 56 60
165 49 55
178 53 58
162 49 54
163 49 54
165 49 55
184 54 59
167 50 55
168 50 55
190 139 150
226 238 255
226 238 255
226 238 255
226 238 255
226 238 255
226 238 255
226 238 255
226 238 255
226 238 255
226 238 255
226 238 255
226 238 255
226 238 255
226 238 255
226 238 255
226 238 255
226 238 255
226 238 255
226 238 255
226 238 255
226 238 255
226 238 255
226 238 255
226 238 255
226 238 255
226 238 255
225 238 255
225 238 255
225 238 255
225 238 255
225 238 255
225 238 255
225 238 255
225 238 255
225 238 255
225 238 255
225 238 255
225 238 255
225 238 255
225 238 255
225 238 255
225 238 255
225 238 255
225 238 255
225 238 255
225 238 255
225 238 255
225 238 255
225 238 255
225 238 255
225 238 255
225 238 255
225 238 255
225 238 255
225 238 255
225 238 255
225 238 255
225 238 255
225 238 255
225 238 255
225 238 255
226 238 255
226 238 255
226 238 255
226 238 255
226 238 255
226 238 255
226 238 255
226 238 255
226 238 255
226 238 255
226 238 255
226 238 255
226 238 255
226 238 255
226 238 255
226 238 255
226 238 255
226 238 255
226 238 255
226 238 255
226 238 255
226 238 255
226 238 255
226 238 255
226 238 255
226 238 255
226 238 255
226 238 255
226 238 255
226 238 255
226 238 255
226 238 255
226 238 255
226 238 255
226 238 255
226 238 255
226 238 255
226 238 255
226 238 255
226 238 255
226 238 255
226 238 255
226 238 255
226 238 255
226 238 255
226 238 255
226 238 255
226 238 255
226 238 255
226 238 255
226 238 255
226 238 255
226 238 255
226 238 255
226 238 255
226 238 255
226 238 255
226 238 255
226 238 255
226 238 255
226 238 255
226 238 255
225 237 254
194 206 221
189 202 221
192 204 221
190 203 221
195 206 221
192 204 221
190 203 221
192 204 221
191 203 221
194 205 221
192 204 221
191 204 221
195 206 221
191 204 221
194 205 221
190 203 221
191 204 221
190 203 221
189 202 221
191 204 221
192 204 221
193 205 221
190 203 221
192 204 221
192 204 221
193 205 221
190 203 221
192 204 221
192 204 221
191 204 221
190 203 221
189 202 221
189 203 221
190 203 221
191 204 221
190 203 221
190 203 221
192 204 221
192 204 221
192 204 221
195 206 221
190 203 221
189 203 221
191 204 221
191 204 221
192 204 221
190 203 221
192 204 221
192 204 221
192 204 221
190 203 221
192 204 221
193 205 221
190 203 221
191 204 221
193 205 221
162 89 98
182 53 58
182 54 58
156 47 52
158 47 53
157 47 53
175 52 57
177 52 58
156 47 53
160 48 54
196 57 62
161 48 54
200 58 63
163 49 55
166 50 55
203 59 64
180 53 58
165 49 55
171 51 55
203 131 140
226 238 255
226 238 255
226 238 255
226 238 255
226 238 255
226 238 255
226 238 255
226 238 255
226 238 255
226 238 255
226 238 255
226 238 255
226 238 255
226 238 255
226 238 255
226 238 255
226 238 255
226 238 255
226 238 255
226 238 255
226 238 255
226 238 255
226 238 255
226 238 255
226 238 255
226 238 255
226 238 255
226 238 255
226 238 255
226 238 255
226 238 255
226 238 255
226 238 255
226 238 255
226 238 255
226 238 255
226 238 255
226 238 255
226 238 255
226 238 255
226 238 255
226 238 255
226 238 255
225 238 255
225 238 255
225 238 255
225 238 255
225 238 255
225 238 255
225 238 255
225 238 255
225 238 255
226 238 255
226 238 255
226 238 255
226 238 255
226 238 255
226 238 255
226 238 255
226 238 255
226 238 255
226 238 255
226 238 255
226 238 255
226 238 255
226 238 255
226 238 255
226 238 255
226 238 255
226 238 255
226 238 255
226 238 255
226 238 255
226 238 255
226 238 255
226 238 255
226 238 255
226 238 255
226 238 255
226 238 255
226 238 255
226 238 255
226 238 255
226 238 255
226 238 255
226 238 255
226 238 255
226 238 255
226 238 255
226 238 255
226 238 255
226 238 255
226 238 255
226 238 255
226 238 255
226 238 255
226 238 255
226 238 255
226 238 255
226 238 255
226 238 255
226 238 255
226 238 255
226 238 255
226 238 255
226 238 255
226 238 255
226 238 255
226 238 255
226 238 255
226 238 255
226 238 255
226 238 255
226 238 255
226 238 255
226 238 255
226 238 255
226 238 255
226 238 255
226 238 255
226 238 255
226 238 255
226 238 255
224 236 253
190 203 221
192 204 221
188 202 221
192 204 221
191 203 221
191 204 221
193 205 221
193 205 221
190 203 221
192 204 221
190 203 221
193 204 221
194 205 221
192 204 221
193 205 221
189 202 221
194 205 221
193 204 221
192 204 221
190 203 221
193 205 221
192 204 221
193 204 221
191 204 221
191 204 221
191 204 221
190 203 221
191 204 221
194 206 221
191 204 221
193 205 221
192 204 221
191 203 221
192 204 221
192 204 221
193 205 221
191 204 221
191 204 221
193 205 221
191 204 221
191 204 221
190 203 221
192 204 221
192 204 221
192 204 221
192 204 221
190 203 221
192 204 221
192 204 221
193 205 221
190 203 221
190 203 221
191 203 221
192 204 221
190 203 221
190 203 221
163 98 107
185 54 59
173 51 56
152 46 52
168 50 55
159 48 53
170 51 56
159 48 54
195 57 62
161 49 54
159 48 54
180 53 58
163 49 55
179 53 57
198 58 63
178 53 58
193 57 61
183 54 59
204 59 63
184 118 127
226 238 255
226 238 255
226 238 255
226 238 255
226 238 255
226 238 255
226 238 255
226 238 255
226 238 255
226 238 255
226 238 255
226 238 255
226 238 255
226 238 255
226 238 255
226 238 255
226 238 255
226 238 255
226 238 255
226 238 255
226 238 255
226 238 255
226 238 255
226 238 255
226 238 255
226 238 255
226 238 255
226 238 255
226 238 255
226 238 255
226 238 255
226 238 255
226 238 255
226 238 255
226 238 255
226 238 255
226 238 255
226 238 255
226 238 255
226 238 255
226 238 255
226 238 255
226 238 255
226 238 255
226 238 255
226 238 255
226 238 255
226 238 255
226 238 255
226 238 255
226 238 255
226 238 255
226 238 255
226 238 255
226 238 255
226 238 255
226 238 255
226 238 255
226 238 255
226 238 255
226 238 255
226 238 255
226 238 255
226 238 255
226 238 255
226 238 255
226 238 255
226 238 255
226 238 255
226 238 255
226 238 255
226 238 255
226 238 255
226 238 255
226 238 255
226 238 255
226 238 255
226 238 255
226 238 255
226 238 255
226 238 255
226 238 255
226 238 255
226 238 255
226 238 255
226 238 255
226 238 255
226 238 255
226 238 255
226 238 255
226 238 255
226 238 255
226 238 255
226 238 255
226 238 255
226 238 255
226 238 255
226 238 255
226 238 255
226 238 255
226 239 255
227 239 255
227 239 255
227 239 255
227 239 255
227 239 255
227 239 255
227 239 255
227 239 255
227 239 255
227 239 255
227 239 255
227 239 255
227 239 255
227 239 255
227 239 255
227 239 255
227 239 255
227 239 255
227 239 255
227 239 255
227 239 255
227 239 255
223 236 253
191 204 221
191 204 221
194 205 221
190 203 221
191 204 221
189 203 221
191 204 221
195 206 221
191 203 221
190 203 221
191 203 221
191 204 221
193 205 221
192 204 221
191 203 221
191 204 221
192 204 221
191 203 221
190 203 221
191 204 221
192 204 221
192 204 221
194 205 221
189 203 221
191 204 221
190 203 221
193 205 221
193 205 221
193 205 221
189 203 221
192 204 221
190 203 221
191 204 221
192 204 221
191 203 221
194 205 221
191 204 221
193 205 221
191 204 221
193 205 221
191 204 221
191 203 221
192 204 221
193 204 221
192 204 221
191 204 221
191 204 221
189 203 221
194 205 221
193 204 221
193 205 221
189 203 221
191 203 221
192 204 221
191 204 221
192 204 221
166 106 115
157 47 52
153 46 51
157 47 53
156 47 53
185 54 59
170 51 56
174 51 56
172 51 57
161 48 54
178 53 58
177 53 58
174 52 57
159 48 54
177 53 58
166 50 55
165 49 54
167 50 55
167 50 55
181 116 124
227 239 255
227 239 255
226 239 255
226 239 255
226 239 255
226 238 255
226 238 255
226 238 255
226 238 255
226 238 255
226 238 255
226 238 255
226 238 255
226 238 255
226 238 255
226 238 255
226 238 255
226 238 255
226 238 255
226 238 255
226 238 255
226 238 255
226 238 255
226 238 255
226 238 255
226 238 255
226 238 255
226 238 255
226 238 255
226 238 255
226 238 255
226 238 255
226 238 255
226 238 255
226 238 255
226 238 255
226 238 255
226 238 255
226 238 255
226 238 255
226 238 255
226 238 255
226 238 255
226 238 255
226 238 255
226 238 255
226 238 255
226 238 255
226 238 255
226 238 255
226 238 255
226 238 255
226 238 255
226 238 255
226 238 255
226 238 255
226 238 255
226 238 255
226 238 255
226 238 255
226 238 255
226 238 255
226 238 255
226 238 255
226 238 255
226 238 255
226 238 255
226 238 255
226 238 255
226 238 255
226 238 255
226 238 255
226 238 255
226 238 255
226 238 255
226 238 255
226 238 255
226 238 255
226 238 255
226 238 255
226 238 255
226 238 255
226 238 255
226 239 255
227 239 255
227 239 255
227 239 255
227 239 255
227 239 255
227 239 255
227 239 255
227 239 255
227 239 255
227 239 255
227 239 255
227 239 255
227 239 255
227 239 255
227 239 255
227 239 255
227 239 255
227 239 255
227 239 255
227 239 255
227 239 255
227 239 255
227 239 255
227 239 255
227 239 255
227 239 255
227 239 255
227 239 255
227 239 255
227 239 255
227 239 255
227 239 255
227 239 255
227 239 255
227 239 255
227 239 255
227 239 255
227 239 255
227 239 255
221 233 251
192 204 221
189 203 221
191 204 221
191 204 221
193 205 221
191 203 221
193 205 221
192 204 221
192 204 221
191 204 221
192 204 221
191 204 221
193 205 221
191 204 221
189 202 221
191 204 221
192 204 221
191 203 221
190 203 221
191 204 221
189 203 221
194 205 221
192 204 221
192 204 221
192 204 221
191 204 221
191 203 221
192 204 221
190 203 221
192 204 221
192 204 221
191 204 221
193 205 221
189 203 221
191 204 221
192 204 221
192 204 221
192 204 221
194 205 221
191 204 221
192 204 221
190 203 221
194 205 221
191 203 221
192 204 221
191 204 221
195 206 221
191 203 221
191 204 221
190 203 221
189 203 221
190 203 221
191 203 221
193 205 221
193 205 221
191 204 221
179 95 102
168 50 54
155 47 52
186 55 59
166 50 55
175 52 57
170 51 56
157 47 53
175 52 57
157 47 53
192 56 61
173 52 57
175 52 57
164 49 55
189 55 60
174 52 57
178 53 58
191 56 61
169 50 55
189 135 145
227 239 255
227 239 255
227 239 255
227 239 255
227 239 255
227 239 255
227 239 255
227 239 255
227 239 255
227 239 255
227 239 255
227 239 255
227 239 255
227 239 255
227 239 255
227 239 255
227 239 255
227 239 255
227 239 255
227 239 255
226 239 255
226 239 255
226 238 255
226 238 255
226 238 255
226 238 255
226 238 255
226 238 255
226 238 255
226 238 255
226 238 255
226 238 255
226 238 255
226 238 255
226 238 255
226 238 255
226 238 255
226 238 255
226 238 255
226 238 255
226 238 255
226 238 255
226 238 255
226 238 255
226 238 255
226 238 255
226 238 255
226 238 255
226 238 255
226 238 255
226 238 255
226 238 255
226 238 255
226 238 255
226 238 255
226 238 255
226 238 255
226 238 255
226 238 255
226 238 255
226 238 255
226 238 255
226 238 255
226 238 255
226 238 255
226 238 255
226 238 255
226 238 255
226 239 255
226 239 255
227 239 255
227 239 255
227 239 255
227 239 255
227 239 255
227 239 255
227 239 255
227 239 255
227 239 255
227 239 255
227 239 255
227 239 255
227 239 255
227 239 255
227 239 255
227 239 255
227 239 255
227 239 255
227 239 255
227 239 255
227 239 255
227 239 255
227 239 255
227 239 255
227 239 255
227 239 255
227 239 255
227 239 255
227 239 255
227 239 255
227 239 255
227 239 255
227 239 255
227 239 255
227 239 255
227 239 255
227 239 255
227 239 255
227 239 255
227 239 255
227 239 255
227 239 255
227 239 255
227 239 255
227 239 255
227 239 255
227 239 255
227 239 255
227 239 255
227 239 255
227 239 255
227 239 255
227 239 255
225 237 254
192 204 221
192 204 221
193 205 221
192 204 221
193 205 221
191 204 221
193 205 221
192 204 221
192 204 221
192 204 221
190 203 221
191 203 221
191 204 221
190 203 221
191 204 221
191 204 221
191 203 221
191 204 221
192 204 221
193 205 221
192 204 221
189 203 221
192 204 221
192 204 221
192 204 221
191 203 221
191 204 221
192 204 221
189 203 221
193 205 221
189 203 221
192 204 221
193 205 221
191 203 221
192 204 221
190 203 221
193 205 221
192 204 221
191 204 221
190 203 221
192 204 221
191 204 221
192 204 221
192 204 221
192 204 221
190 203 221
195 206 221
191 204 221
191 204 221
189 202 221
190 203 221
191 204 221
193 205 221
192 204 221
193 205 221
192 204 221
177 100 109
169 50 55
149 45 51
152 46 51
156 47 52
196 57 62
168 50 55
188 55 60
172 51 56
158 48 54
161 48 54
231 67 71
160 48 54
185 54 59
175 52 57
163 49 54
179 53 58
221 64 68
186 55 59
184 118 127
227 239 255
227 239 255
227 239 255
227 239 255
227 239 255
227 239 255
227 239 255
227 239 255
227 239 255
227 239 255
227 239 255
227 239 255
227 239 255
227 239 255
227 239 255
227 239 255
227 239 255
227 239 255
227 239 255
227 239 255
227 239 255
227 239 255
227 239 255
227 239 255
227 239 255
227 239 255
227 239 255
227 239 255
227 239 255
227 239 255
227 239 255
227 239 255
227 239 255
227 239 255
226 239 255
226 239 255
226 238 255
226 238 255
226 238 255
226 238 255
226 238 255
226 238 255
226 238 255
226 238 255
226 238 255
226 238 255
226 238 255
226 238 255
226 238 255
226 238 255
226 238 255
226 238 255
226 238 255
226 238 255
226 238 255
226 239 255
226 239 255
226 239 255
227 239 255
227 239 255
227 239 255
227 239 255
227 239 255
227 239 255
227 239 255
227 239 255
227 239 255
227 239 255
227 239 255
227 239 255
227 239 255
227 239 255
227 239 255
227 239 255
227 239 255
227 239 255
227 239 255
227 239 255
227 239 255
227 239 255
227 239 255
227 239 255
227 239 255
227 239 255
227 239 255
227 239 255
227 239 255
227 239 255
227 239 255
227 239 255
227 239 255
227 239 255
227 239 255
227 239 255
227 239 255
227 239 255
227 239 255
227 239 255
227 239 255
227 239 255
227 239 255
227 239 255
227 239 255
227 239 255
227 239 255
227 239 255
227 239 255
227 239 255
227 239 255
227 239 255
227 239 255
227 239 255
227 239 255
227 239 255
227 239 255
227 239 255
227 239 255
227 239 255
227 239 255
227 239 255
227 239 255
227 239 255
227 239 255
226 237 254
191 204 221
193 204 221
190 203 221
192 204 221
192 204 221
191 204 221
192 204 221
190 203 221
192 204 221
191 204 221
192 204 221
188 202 221
194 205 221
189 203 221
191 204 221
195 206 221
190 203 221
190 203 221
193 205 221
190 203 221
191 203 221
193 205 221
192 204 221
190 203 221
189 203 221
192 204 221
191 204 221
191 204 221
190 203 221
192 204 221
190 203 221
192 204 221
191 204 221
191 204 221
192 204 221
193 205 221
189 203 221
190 203 221
192 204 221
190 203 221
192 204 221
191 203 221
194 205 221
192 204 221
192 204 221
192 204 221
190 203 221
192 204 221
191 204 221
190 203 221
190 203 221
191 204 221
192 204 221
191 204 221
191 204 221
193 205 221
173 91 99
152 46 51
154 46 52
149 45 51
173 51 56
169 50 56
167 50 55
155 47 53
156 47 53
169 51 56
189 55 60
158 48 53
177 53 58
163 49 55
175 52 57
163 49 54
165 49 55
197 58 62
184 54 59
187 131 141
227 239 255
227 239 255
227 239 255
227 239 255
227 239 255
227 239 255
227 239 255
227 239 255
227 239 255
227 239 255
227 239 255
227 239 255
227 239 255
227 239 255
227 239 255
227 239 255
227 239 255
227 239 255
227 239 255
227 239 255
227 239 255
227 239 255
227 239 255
227 239 255
227 239 255
227 239 255
227 239 255
227 239 255
227 239 255
227 239 255
227 239 255
227 239 255
227 239 255
227 239 255
227 239 255
227 239 255
227 239 255
227 239 255
227 239 255
227 239 255
227 239 255
227 239 255
227 239 255
227 239 255
227 239 255
227 239 255
226 239 255
226 239 255
226 239 255
226 238 255
226 238 255
226 238 255
227 239 255
227 239 255
227 239 255
227 239 255
227 239 255
227 239 255
227 239 255
227 239 255
227 239 255
227 239 255
227 239 255
227 239 255
227 239 255
227 239 255
227 239 255
227 239 255
227 239 255
227 239 255
227 239 255
227 239 255
227 239 255
227 239 255
227 239 255
227 239 255
227 239 255
227 239 255
227 239 255
227 239 255
227 239 255
227 239 255
227 239 255
227 239 255
227 239 255
227 239 255
227 239 255
227 239 255
227 239 255
227 239 255
227 239 255
227 239 255
227 239 255
227 239 255
227 239 255
227 239 255
227 239 255
227 239 255
227 239 255
227 239 255
227 239 255
227 239 255
227 239 255
227 239 255
227 239 255
227 239 255
228 239 255
228 239 255
228 239 255
228 239 255
228 239 255
228 239 255
228 239 255
228 239 255
228 239 255
228 239 255
228 239 255
228 239 255
228 239 255
228 239 255
228 239 255
228 239 255
228 239 255
222 234 250
191 203 221
191 204 221
193 205 221
192 204 221
191 204 221
192 204 221
191 203 221
193 205 221
188 202 221
192 204 221
192 204 221
192 204 221
192 204 221
190 203 221
194 205 221
193 205 221
191 204 221
192 204 221
193 205 221
193 205 221
189 202 221
192 204 221
190 203 221
192 204 221
191 204 221
193 205 221
192 204 221
191 204 221
191 204 221
192 204 221
191 204 221
193 205 221
193 205 221
190 203 221
193 205 221
193 205 221
190 203 221
191 204 221
193 205 221
194 205 221
191 204 221
192 204 221
190 203 221
192 204 221
193 205 221
191 204 221
189 203 221
191 204 221
194 205 221
192 204 221
193 205 221
191 203 221
191 203 221
191 204 221
191 204 221
190 203 221
163 100 109
150 45 51
168 50 55
179 53 58
166 50 55
170 51 56
167 50 55
156 47 53
156 47 53
160 48 53
189 56 61
170 51 57
192 56 61
175 52 58
179 53 58
162 49 54
202 59 63
183 54 59
182 54 58
185 123 132
227 239 255
227 239 255
227 239 255
227 239 255
227 239 255
227 239 255
227 239 255
227 239 255
227 239 255
227 239 255
227 239 255
227 239 255
227 239 255
227 239 255
227 239 255
227 239 255
227 239 255
227 239 255
227 239 255
227 239 255
227 239 255
227 239 255
227 239 255
227 239 255
227 239 255
227 239 255
227 239 255
227 239 255
227 239 255
227 239 255
227 239 255
227 239 255
227 239 255
227 239 255
227 239 255
227 239 255
227 239 255
227 239 255
227 239 255
227 239 255
227 239 255
227 239 255
227 239 255
227 239 255
227 239 255
227 239 255
227 239 255
227 239 255
227 239 255
227 239 255
227 239 255
227 239 255
227 239 255
227 239 255
227 239 255
227 239 255
227 239 255
227 239 255
227 239 255
227 239 255
227 239 255
227 239 255
227 239 255
227 239 255
227 239 255
227 239 255
227 239 255
227 239 255
227 239 255
227 239 255
227 239 255
227 239 255
227 239 255
227 239 255
227 239 255
227 239 255
227 239 255
227 239 255
227 239 255
227 239 255
227 239 255
227 239 255
227 239 255
227 239 255
227 239 255
227 239 255
227 239 255
227 239 255
227 239 255
227 239 255
228 239 255
228 239 255
228 239 255
228 239 255
228 239 255
228 239 255
228 239 255
228 239 255
228 239 255
228 239 255
228 239 255
228 239 255
228 239 255
228 239 255
228 239 255
228 239 255
228 239 255
228 239 255
228 239 255
228 239 255
228 239 255
228 239 255
228 239 255
228 239 255
228 239 255
228 239 255
228 239 255
228 239 255
228 239 255
228 239 255
228 239 255
228 239 255
228 239 255
226 237 253
189 203 221
192 204 221
190 203 221
192 204 221
191 204 221
192 204 221
191 204 221
193 205 221
191 204 221
192 204 221
193 204 221
193 205 221
194 205 221
192 204 221
192 204 221
193 205 221
191 204 221
193 205 221
192 204 221
192 204 221
192 204 221
190 203 221
191 204 221
192 204 221
191 204 221
191 204 221
192 204 221
193 205 221
189 203 221
190 203 221
190 203 221
190 203 221
192 204 221
192 204 221
192 204 221
193 205 221
191 203 221
193 205 221
190 203 221
193 205 221
194 205 221
193 205 221
191 203 221
190 203 221
193 205 221
190 203 221
191 204 221
188 202 221
191 203 221
192 204 221
192 204 221
192 204 221
191 204 221
191 204 221
193 205 221
193 205 221
173 98 106
167 50 55
172 51 56
167 50 55
183 54 59
185 54 59
184 54 59
169 50 56
161 49 54
155 47 53
170 51 56
199 58 63
192 56 61
176 52 57
161 48 54
173 52 57
164 49 54
166 50 55
165 50 55
181 111 119
228 239 255
228 239 255
228 239 255
228 239 255
228 239 255
228 239 255
228 239 255
228 239 255
228 239 255
228 239 255
228 239 255
228 239 255
228 239 255
228 239 255
227 239 255
227 239 255
227 239 255
227 239 255
227 239 255
227 239 255
227 239 255
227 239 255
227 239 255
227 239 255
227 239 255
227 239 255
227 239 255
227 239 255
227 239 255
227 239 255
227 239 255
227 239 255
227 239 255
227 239 255
227 239 255
227 239 255
227 239 255
227 239 255
227 239 255
227 239 255
227 239 255
227 239 255
227 239 255
227 239 255
227 239 255
227 239 255
227 239 255
227 239 255
227 239 255
227 239 255
227 239 255
227 239 255
227 239 255
227 239 255
227 239 255
227 239 255
227 239 255
227 239 255
227 239 255
227 239 255
227 239 255
227 239 255
227 239 255
227 239 255
227 239 255
227 239 255
227 239 255
227 239 255
227 239 255
227 239 255
227 239 255
227 239 255
227 239 255
227 239 255
227 239 255
227 239 255
227 239 255
228 239 255
228 239 255
228 239 255
228 239 255
228 239 255
228 239 255
228 239 255
228 239 255
228 239 255
228 239 255
228 239 255
228 239 255
228 239 255
228 239 255
228 239 255
228 239 255
228 239 255
228 239 255
228 239 255
228 239 255
228 239 255
228 239 255
228 239 255
228 239 255
228 239 255
228 239 255
228 239 255
228 239 255
228 239 255
228 239 255
228 239 255
228 239 255
228 239 255
228 239 255
228 239 255
228 239 255
228 239 255
228 239 255
228 239 255
228 239 255
228 239 255
228 239 255
228 239 255
228 239 255
228 239 255
228 239 255
226 238 254
191 204 221
192 204 221
190 203 221
188 202 221
191 204 221
192 204 221
193 204 221
192 204 221
192 204 221
189 203 221
191 203 221
192 204 221
193 205 221
191 204 221
190 203 221
192 204 221
191 204 221
191 204 221
191 203 221
191 203 221
191 204 221
191 204 221
192 204 221
191 204 221
192 204 221
191 203 221
190 203 221
192 204 221
191 204 221
192 204 221
192 204 221
191 204 221
194 205 221
189 203 221
189 202 221
194 205 221
192 204 221
193 205 221
193 205 221
192 204 221
190 203 221
193 205 221
190 203 221
189 203 221
194 205 221
192 204 221
192 204 221
193 205 221
193 204 221
193 205 221
194 205 221
192 204 221
192 204 221
192 204 221
192 204 221
192 204 221
160 102 111
167 50 55
151 46 51
168 50 55
167 50 55
201 58 63
169 51 56
188 55 60
157 48 54
171 51 56
172 51 57
213 62 66
172 51 57
160 48 53
167 50 55
167 50 55
167 50 55
193 57 61
171 51 56
184 123 132
228 239 255
228 239 255
228 239 255
228 239 255
228 239 255
228 239 255
228 239 255
228 239 255
228 239 255
228 239 255
228 239 255
228 239 255
228 239 255
228 239 255
228 239 255
228 239 255
228 239 255
228 239 255
228 239 255
228 239 255
228 239 255
228 239 255
228 239 255
228 239 255
228 239 255
228 239 255
227 239 255
227 239 255
227 239 255
227 239 255
227 239 255
227 239 255
227 239 255
227 239 255
227 239 255
227 239 255
227 239 255
227 239 255
227 239 255
227 239 255
227 239 255
227 239 255
227 239 255
227 239 255
227 239 255
227 239 255
227 239 255
227 239 255
227 239 255
227 239 255
227 239 255
227 239 255
227 239 255
227 239 255
227 239 255
227 239 255
227 239 255
227 239 255
227 239 255
227 239 255
227 239 255
227 239 255
227 239 255
227 239 255
227 239 255
227 239 255
228 239 255
228 239 255
228 239 255
228 239 255
228 239 255
228 239 255
228 239 255
228 239 255
228 239 255
228 239 255
228 239 255
228 239 255
228 239 255
228 239 255
228 239 255
228 239 255
228 239 255
228 239 255
228 239 255
228 239 255
228 239 255
228 239 255
228 239 255
228 239 255
228 239 255
228 239 255
228 239 255
228 239 255
228 239 255
228 239 255
228 239 255
228 239 255
228 239 255
228 239 255
228 239 255
228 239 255
228 239 255
228 239 255
228 239 255
228 239 255
228 240 255
228 240 255
228 240 255
228 240 255
228 240 255
228 240 255
228 240 255
228 240 255
228 240 255
228 240 255
228 240 255
228 240 255
228 240 255
228 240 255
228 240 255
228 240 255
228 240 255
199 214 235
172 190 214
169 188 213
191 206 228
189 204 225
207 222 243
207 222 242
192 207 227
224 237 255
188 204 225
206 219 237
225 238 256
190 205 226
190 205 226
207 221 240
189 205 227
171 188 211
170 187 210
190 206 228
191 206 226
172 188 211
208 222 242
170 187 210
168 185 209
206 220 240
169 187 211
209 222 241
207 222 242
190 205 224
207 222 243
169 186 209
189 204 224
223 235 253
240 252 269
209 223 242
224 237 254
169 187 210
188 204 225
186 203 225
171 188 211
189 205 226
207 221 241
171 188 210
170 187 210
188 205 227
170 187 210
168 187 211
206 221 241
170 188 212
189 204 225
209 223 241
192 207 228
169 186 210
169 186 210
222 237 257
171 189 212
190 207 229
158 132 151
152 46 51
177 52 57
150 45 51
151 46 51
167 50 56
166 50 55
180 53 59
156 47 53
172 51 57
152 46 53
199 58 63
157 48 54
159 48 54
188 55 60
193 56 61
162 49 54
191 56 61
210 61 65
191 115 123
228 239 255
228 239 255
228 239 255
228 239 255
228 239 255
228 239 255
228 239 255
228 239 255
228 239 255
228 239 255
228 239 255
228 239 255
228 239 255
228 239 255
228 239 255
228 239 255
228 239 255
228 239 255
228 239 255
228 239 255
228 239 255
228 239 255
228 239 255
228 239 255
228 239 255
228 239 255
228 239 255
228 239 255
228 239 255
228 239 255
228 239 255
228 239 255
228 239 255
228 239 255
228 239 255
228 239 255
228 239 255
228 239 255
228 239 255
227 239 255
227 239 255
227 239 255
227 239 255
227 239 255
227 239 255
227 239 255
227 239 255
227 239 255
227 239 255
227 239 255
227 239 255
227 239 255
227 239 255
227 239 255
227 239 255
227 239 255
228 239 255
228 239 255
228 239 255
228 239 255
228 239 255
228 239 255
228 239 255
228 239 255
228 239 255
228 239 255
228 239 255
228 239 255
228 239 255
228 239 255
228 239 255
228 239 255
228 239 255
228 239 255
228 239 255
228 239 255
228 239 255
228 239 255
228 239 255
228 239 255
228 239 255
228 239 255
228 239 255
228 239 255
228 239 255
228 239 255
228 239 255
228 239 255
228 239 255
228 239 255
228 239 255
228 239 255
228 240 255
228 240 255
228 240 255
228 240 255
228 240 255
228 240 255
228 240 255
228 240 255
228 240 255
228 240 255
228 240 255
228 240 255
228 240 255
228 240 255
228 240 255
228 240 255
228 240 255
228 240 255
229 240 255
229 240 255
229 240 255
229 240 255
229 240 255
229 240 255
229 240 255
229 240 255
229 240 255
229 240 255
229 240 255
229 240 255
204 219 240
165 187 216
183 202 227
165 186 212
182 202 228
186 204 227
164 185 213
203 220 243
185 203 228
185 203 228
163 183 210
235 249 268
186 202 223
165 184 211
221 235 255
219 233 254
264 275 292
185 202 225
219 234 256
235 248 267
185 203 226
203 219 242
184 201 224
204 220 241
202 218 241
250 262 279
165 184 210
164 185 212
263 275 292
185 203 227
236 250 269
203 219 240
184 202 227
202 219 242
185 202 224
165 184 209
165 185 210
203 219 240
163 183 210
166 185 210
220 235 255
235 249 269
203 219 240
202 218 240
184 201 225
204 219 240
164 184 212
203 219 241
165 184 210
203 220 242
185 203 226
183 202 226
203 220 243
203 220 243
185 203 228
184 203 227
185 203 228
165 186 214
184 204 231
154 115 133
148 45 51
180 53 58
165 50 55
186 55 60
172 51 57
152 46 52
167 50 56
169 51 56
198 58 63
173 52 57
172 51 57
172 51 57
172 51 57
174 52 58
160 48 54
175 52 57
179 53 58
198 133 142
228 240 255
228 240 255
228 240 255
228 240 255
228 240 255
228 240 255
228 240 255
228 240 255
228 240 255
228 240 255
228 240 255
228 240 255
228 239 255
228 239 255
228 239 255
228 239 255
228 239 255
228 239 255
228 239 255
228 239 255
228 239 255
228 239 255
228 239 255
228 239 255
228 239 255
228 239 255
228 239 255
228 239 255
228 239 255
228 239 255
228 239 255
228 239 255
228 239 255
228 239 255
228 239 255
228 239 255
228 239 255
228 239 255
228 239 255
228 239 255
228 239 255
228 239 255
228 239 255
228 239 255
228 239 255
228 239 255
228 239 255
228 239 255
227 239 255
227 239 255
227 239 255
227 239 255
228 239 255
228 239 255
228 239 255
228 239 255
228 239 255
228 239 255
228 239 255
228 239 255
228 239 255
228 239 255
228 239 255
228 239 255
228 239 255
228 239 255
228 239 255
228 239 255
228 239 255
228 239 255
228 239 255
228 239 255
228 239 255
228 239 255
228 239 255
228 239 255
228 239 255
228 239 255
228 239 255
228 239 255
228 239 255
228 240 255
228 240 255
228 240 255
228 240 255
228 240 255
228 240 255
228 240 255
228 240 255
228 240 255
228 240 255
228 240 255
228 240 255
228 240 255
228 240 255
229 240 255
229 240 255
229 240 255
229 240 255
229 240 255
229 240 255
229 240 255
229 240 255
229 240 255
229 240 255
229 240 255
229 240 255
229 240 255
229 240 255
229 240 255
229 240 255
229 240 255
229 240 255
229 240 255
229 240 255
229 240 255
229 240 255
229 240 255
229 240 255
229 240 255
229 240 255
221 235 254
185 204 230
164 187 217
203 221 245
163 185 213
185 205 230
185 203 229
166 186 213
235 250 271
184 204 232
184 203 229
185 203 227
185 203 229
183 203 230
220 235 256
186 203 227
204 219 240
203 220 243
186 203 226
251 264 282
184 202 227
202 219 241
203 219 242
204 221 244
204 219 240
234 249 269
202 219 242
185 203 227
203 220 243
202 219 241
203 220 243
185 203 227
164 185 212
163 184 212
221 235 254
185 203 228
202 220 244
220 235 255
166 186 212
185 203 227
220 235 255
184 203 227
264 276 293
235 250 271
203 219 242
185 202 226
203 220 244
203 220 243
235 249 269
204 220 243
220 235 257
163 185 213
164 185 212
184 203 229
164 185 213
204 220 243
164 186 216
165 186 214
202 220 245
235 251 273
184 204 231
171 139 161
148 45 51
150 46 52
152 46 52
151 46 52
170 51 56
179 53 58
180 53 59
168 50 56
159 48 54
187 55 60
155 47 53
174 52 57
159 48 54
160 48 54
195 57 62
179 53 58
180 118 127
229 240 255
229 240 255
229 240 255
229 240 255
229 240 255
229 240 255
229 240 255
229 240 255
229 240 255
228 240 255
228 240 255
228 240 255
228 240 255
228 240 255
228 240 255
228 240 255
228 240 255
228 240 255
228 240 255
228 240 255
228 240 255
228 240 255
228 240 255
228 240 255
228 239 255
228 239 255
228 239 255
228 239 255
228 239 255
228 239 255
228 239 255
228 239 255
228 239 255
228 239 255
228 239 255
228 239 255
228 239 255
228 239 255
228 239 255
228 239 255
228 239 255
228 239 255
228 239 255
228 239 255
228 239 255
228 239 255
228 239 255
228 239 255
228 239 255
228 239 255
228 239 255
228 239 255
228 239 255
228 239 255
228 239 255
228 239 255
228 239 255
228 239 255
228 239 255
228 239 255
228 239 255
228 239 255
228 239 255
228 239 255
228 239 255
228 239 255
228 239 255
228 239 255
228 239 255
228 239 255
228 240 255
228 240 255
228 240 255
228 240 255
228 240 255
228 240 255
228 240 255
228 240 255
228 240 255
228 240 255
228 240 255
228 240 255
228 240 255
229 240 255
229 240 255
229 240 255
229 240 255
229 240 255
229 240 255
229 240 255
229 240 255
229 240 255
229 240 255
229 240 255
229 240 255
229 240 255
229 240 255
229 240 255
229 240 255
229 240 255
229 240 255
229 240 255
229 240 255
229 240 255
229 240 255
229 240 255
229 240 255
229 240 255
229 240 255
229 240 255
229 240 255
229 240 255
229 240 255
229 240 255
229 240 255
229 240 255
229 240 255
229 240 255
229 240 255
229 240 255
208 222 242
249 264 285
183 205 233
219 236 260
202 221 245
165 187 214
163 186 215
202 221 247
235 250 271
184 204 231
203 221 244
203 219 242
202 220 244
235 249 269
219 236 259
203 221 245
204 221 245
202 220 244
183 204 230
203 220 244
202 219 243
166 186 213
220 236 259
185 203 229
184 203 229
203 220 244
219 235 257
203 220 244
219 235 258
185 203 229
203 220 243
204 220 242
185 204 229
220 235 256
202 219 242
202 219 243
184 203 229
203 220 242
219 236 258
235 250 271
203 221 245
220 235 257
220 235 257
165 185 212
219 235 257
165 186 213
234 249 269
185 203 227
185 204 229
182 203 230
185 203 227
203 221 246
184 203 230
183 204 232
203 220 244
202 220 245
219 236 260
219 236 259
250 264 284
185 205 231
185 205 233
202 221 246
202 220 245
177 159 177
166 50 56
166 50 55
150 46 52
152 46 52
170 51 56
153 47 53
168 50 56
153 47 53
158 48 53
160 48 54
205 60 64
171 51 56
162 49 54
206 60 64
180 53 58
186 130 139
229 240 255
229 240 255
229 240 255
229 240 255
229 240 255
229 240 255
229 240 255
229 240 255
229 240 255
229 240 255
229 240 255
229 240 255
229 240 255
229 240 255
229 240 255
229 240 255
229 240 255
229 240 255
229 240 255
229 240 255
229 240 255
228 240 255
228 240 255
228 240 255
228 240 255
228 240 255
228 240 255
228 240 255
228 240 255
228 240 255
228 240 255
228 240 255
228 240 255
228 240 255
228 239 255
228 239 255
228 239 255
228 239 255
228 239 255
228 239 255
228 239 255
228 239 255
228 239 255
228 239 255
228 239 255
228 239 255
228 239 255
228 239 255
228 239 255
228 239 255
228 239 255
228 239 255
228 239 255
228 239 255
228 239 255
228 239 255
228 239 255
228 239 255
228 239 255
228 239 255
228 240 255
228 240 255
228 240 255
228 240 255
228 240 255
228 240 255
228 240 255
228 240 255
228 240 255
228 240 255
228 240 255
228 240 255
228 240 255
229 240 255
229 240 255
229 240 255
229 240 255
229 240 255
229 240 255
229 240 255
229 240 255
229 240 255
229 240 255
229 240 255
229 240 255
229 240 255
229 240 255
229 240 255
229 240 255
229 240 255
229 240 255
229 240 255
229 240 255
229 240 255
229 240 255
229 240 255
229 240 255
229 240 255
229 240 255
229 240 255
229 240 255
229 240 255
229 240 255
229 240 255
229 240 255
229 240 255
229 240 255
229 240 255
229 240 255
229 240 255
229 240 255
229 240 255
229 240 255
229 240 255
229 240 255
229 240 255
229 240 255
229 240 255
229 240 255
222 236 256
185 206 233
219 237 260
203 222 247
219 236 261
219 236 260
249 264 285
202 220 245
185 205 232
164 186 216
184 204 232
185 204 230
250 265 285
219 236 259
203 220 244
185 205 231
201 220 246
202 220 244
204 222 246
203 221 245
185 204 231
236 251 271
220 236 259
164 186 214
263 277 296
219 236 259
235 251 273
202 221 245
203 221 245
250 264 284
202 220 245
202 219 242
220 236 258
203 221 244
219 235 258
184 203 230
202 220 244
220 236 259
185 204 230
220 236 258
202 220 244
183 202 228
202 220 245
235 250 272
164 187 217
220 236 259
202 220 244
202 221 246
184 204 231
184 204 231
263 277 298
185 205 232
185 204 230
202 221 246
203 221 246
184 205 232
166 187 215
164 187 216
185 204 231
164 187 216
201 220 246
164 186 216
202 221 247
235 251 274
163 186 217
218 177 192
163 49 55
192 57 62
183 54 59
146 45 51
193 57 62
153 46 52
200 58 63
170 51 57
171 51 57
158 48 54
157 48 54
175 52 57
163 49 54
166 50 55
193 151 161
229 240 255
229 240 255
229 240 255
229 240 255
229 240 255
229 240 255
229 240 255
229 240 255
229 240 255
229 240 255
229 240 255
229 240 255
229 240 255
229 240 255
229 240 255
229 240 255
229 240 255
229 240 255
229 240 255
229 240 255
229 240 255
229 240 255
229 240 255
229 240 255
229 240 255
229 240 255
229 240 255
229 240 255
229 240 255
229 240 255
229 240 255
228 240 255
228 240 255
228 240 255
228 240 255
228 240 255
228 240 255
228 240 255
228 240 255
228 240 255
228 240 255
228 240 255
228 240 255
228 240 255
228 239 255
228 239 255
228 239 255
228 239 255
228 239 255
228 239 255
228 239 255
228 239 255
228 240 255
228 240 255
228 240 255
228 240 255
228 240 255
228 240 255
228 240 255
228 240 255
228 240 255
228 240 255
228 240 255
228 240 255
229 240 255
229 240 255
229 240 255
229 240 255
229 240 255
229 240 255
229 240 255
229 240 255
229 240 255
229 240 255
229 240 255
229 240 255
229 240 255
229 240 255
229 240 255
229 240 255
229 240 255
229 240 255
229 240 255
229 240 255
229 240 255
229 240 255
229 240 255
229 240 255
229 240 255
229 240 255
229 240 255
229 240 255
229 240 255
229 240 255
229 240 255
229 240 255
229 240 255
229 240 255
229 240 255
229 240 255
229 240 255
229 240 255
229 240 255
229 240 255
229 240 255
229 240 255
229 240 255
229 240 255
229 240 255
229 240 255
229 240 255
229 240 255
229 240 255
229 240 255
230 240 255
230 240 255
230 240 255
230 240 255
208 222 241
202 222 248
184 206 234
184 205 233
183 204 233
203 221 246
220 237 261
165 188 217
163 186 217
203 221 245
203 221 245
203 221 246
184 204 231
220 236 258
219 236 261
277 290 308
204 221 245
250 263 283
220 237 261
203 221 245
186 206 233
219 236 259
184 204 231
263 277 296
250 264 284
220 236 259
234 250 271
183 204 232
204 221 244
183 204 231
235 250 272
250 264 284
235 250 272
185 205 232
202 220 245
201 220 246
202 220 245
220 236 259
219 237 261
220 235 257
185 205 231
235 250 273
219 236 259
220 236 259
263 277 297
202 221 246
220 236 259
185 204 230
184 204 231
164 187 217
220 236 258
220 236 259
203 221 245
203 221 246
184 205 232
219 237 261
165 187 216
184 205 233
165 187 216
249 264 286
219 237 260
202 222 248
202 222 248
202 221 247
236 251 273
163 187 218
202 221 248
171 145 169
164 49 55
182 54 59
154 47 53
169 51 56
172 52 57
169 51 56
205 60 65
156 47 54
161 49 54
172 51 57
173 52 57
163 49 55
178 53 58
184 127 136
229 240 255
229 240 255
229 240 255
229 240 255
229 240 255
229 240 255
229 240 255
229 240 255
229 240 255
229 240 255
229 240 255
229 240 255
229 240 255
229 240 255
229 240 255
229 240 255
229 240 255
229 240 255
229 240 255
229 240 255
229 240 255
229 240 255
229 240 255
229 240 255
229 240 255
229 240 255
229 240 255
229 240 255
229 240 255
229 240 255
229 240 255
229 240 255
229 240 255
229 240 255
229 240 255
229 240 255
229 240 255
229 240 255
229 240 255
229 240 255
228 240 255
228 240 255
228 240 255
228 240 255
228 240 255
228 240 255
228 240 255
228 240 255
228 240 255
228 240 255
228 240 255
228 240 255
228 240 255
228 240 255
228 240 255
229 240 255
229 240 255
229 240 255
229 240 255
229 240 255
229 240 255
229 240 255
229 240 255
229 240 255
229 240 255
229 240 255
229 240 255
229 240 255
229 240 255
229 240 255
229 240 255
229 240 255
229 240 255
229 240 255
229 240 255
229 240 255
229 240 255
229 240 255
229 240 255
229 240 255
229 240 255
229 240 255
229 240 255
229 240 255
229 240 255
229 240 255
229 240 255
229 240 255
229 240 255
229 240 255
229 240 255
229 240 255
229 240 255
229 240 255
229 240 255
229 240 255
229 240 255
229 240 255
229 240 255
229 240 255
229 240 255
230 240 255
230 240 255
230 240 255
230 240 255
230 240 255
230 240 255
230 240 255
230 240 255
230 240 255
230 240 255
230 240 255
230 240 255
230 240 255
230 240 255
230 240 255
230 240 255
220 235 255
184 205 233
203 222 248
204 222 247
235 252 275
184 205 232
202 222 249
184 204 231
203 221 247
220 237 260
219 236 259
183 204 232
301 313 330
263 277 297
202 221 246
163 186 217
220 236 259
220 236 259
202 221 248
234 250 272
164 187 218
203 222 247
202 221 247
203 221 245
219 236 260
184 205 232
290 302 319
249 264 284
184 205 233
202 220 245
235 250 272
184 204 231
184 204 231
202 220 245
277 290 308
202 221 248
184 205 233
184 205 232
249 264 286
219 236 260
250 265 287
249 264 286
220 237 260
203 221 246
164 187 218
235 251 272
218 236 260
184 205 233
218 236 261
184 205 232
202 221 247
184 205 233
203 222 247
162 186 217
203 221 246
165 188 219
264 278 298
250 265 287
219 236 259
185 205 232
184 204 232
219 237 262
184 206 234
184 205 232
203 222 248
184 205 233
184 205 234
219 237 262
184 206 234
194 154 170
163 49 55
164 49 55
167 50 56
192 57 62
185 55 60
168 51 56
153 47 53
155 47 53
159 48 54
172 51 57
178 53 58
178 53 58
189 142 151
230 240 255
230 240 255
230 240 255
229 240 255
229 240 255
229 240 255
229 240 255
229 240 255
229 240 255
229 240 255
229 240 255
229 240 255
229 240 255
229 240 255
229 240 255
229 240 255
229 240 255
229 240 255
229 240 255
229 240 255
229 240 255
229 240 255
229 240 255
229 240 255
229 240 255
229 240 255
229 240 255
229 240 255
229 240 255
229 240 255
229 240 255
229 240 255
229 240 255
229 240 255
229 240 255
229 240 255
229 240 255
229 240 255
229 240 255
229 240 255
229 240 255
229 240 255
229 240 255
229 240 255
229 240 255
229 240 255
229 240 255
229 240 255
229 240 255
228 240 255
228 240 255
228 240 255
229 240 255
229 240 255
229 240 255
229 240 255
229 240 255
229 240 255
229 240 255
229 240 255
229 240 255
229 240 255
229 240 255
229 240 255
229 240 255
229 240 255
229 240 255
229 240 255
229 240 255
229 240 255
229 240 255
229 240 255
229 240 255
229 240 255
229 240 255
229 240 255
229 240 255
229 240 255
229 240 255
229 240 255
229 240 255
229 240 255
229 240 255
229 240 255
229 240 255
229 240 255
229 240 255
229 240 255
229 240 255
229 240 255
230 240 255
230 240 255
230 240 255
230 240 255
230 240 255
230 240 255
230 240 255
230 240 255
230 240 255
230 240 255
230 240 255
230 240 255
230 240 255
230 240 255
230 240 255
230 240 255
230 240 255
230 240 255
230 240 255
230 240 255
230 240 255
230 240 255
230 240 255
230 240 255
230 241 255
230 241 255
205 220 241
184 205 233
219 237 261
164 188 219
164 188 218
166 188 218
202 222 248
185 206 234
185 206 234
249 265 286
163 187 219
185 205 231
204 222 248
235 252 275
202 222 247
164 187 218
219 237 261
163 186 217
185 206 234
249 264 286
163 187 218
184 204 232
163 187 218
202 221 246
184 204 231
184 206 234
184 205 233
183 204 232
219 237 261
184 206 235
183 205 234
251 265 284
235 251 273
203 222 247
264 278 297
235 252 275
185 205 233
203 222 247
264 277 296
203 221 246
184 205 232
202 221 247
235 251 273
202 221 246
203 222 248
202 221 247
164 187 216
235 250 272
236 252 274
202 221 246
202 221 247
250 265 287
219 236 260
202 221 248
235 251 273
235 251 273
202 221 247
184 205 233
185 206 235
183 204 233
235 251 273
183 205 233
184 205 233
164 187 218
184 205 233
202 221 247
184 205 234
164 188 219
183 205 233
202 222 248
203 222 249
156 130 151
176 53 58
165 50 56
168 50 56
151 46 53
166 50 56
183 54 60
154 47 53
171 51 57
162 49 55
160 48 54
178 53 58
181 121 129
230 240 255
230 240 255
230 240 255
230 240 255
230 240 255
230 240 255
230 240 255
230 240 255
230 240 255
230 240 255
230 240 255
230 240 255
230 240 255
230 240 255
230 240 255
229 240 255
229 240 255
229 240 255
229 240 255
229 240 255
229 240 255
229 240 255
229 240 255
229 240 255
229 240 255
229 240 255
229 240 255
229 240 255
229 240 255
229 240 255
229 240 255
229 240 255
229 240 255
229 240 255
229 240 255
229 240 255
229 240 255
229 240 255
229 240 255
229 240 255
229 240 255
229 240 255
229 240 255
229 240 255
229 240 255
229 240 255
229 240 255
229 240 255
229 240 255
229 240 255
229 240 255
229 240 255
229 240 255
229 240 255
229 240 255
229 240 255
229 240 255
229 240 255
229 240 255
229 240 255
229 240 255
229 240 255
229 240 255
229 240 255
229 240 255
229 240 255
229 240 255
229 240 255
229 240 255
229 240 255
229 240 255
229 240 255
229 240 255
229 240 255
229 240 255
229 240 255
229 240 255
229 240 255
229 240 255
229 240 255
230 240 255
230 240 255
230 240 255
230 240 255
230 240 255
230 240 255
230 240 255
230 240 255
230 240 255
230 240 255
230 240 255
230 240 255
230 240 255
230 240 255
230 240 255
230 240 255
230 240 255
230 240 255
230 240 255
230 240 255
230 240 255
230 240 255
230 241 255
230 241 255
230 241 255
230 241 255
230 241 255
230 241 255
230 241 255
230 241 255
230 241 255
230 241 255
230 241 255
230 241 255
230 241 255
210 224 243
185 206 234
164 187 217
203 222 248
219 237 261
234 252 276
220 237 260
202 222 249
202 222 249
234 251 273
203 222 248
184 205 233
219 237 261
202 222 248
183 205 234
203 222 249
202 222 248
183 205 234
163 187 218
202 221 248
202 222 248
219 237 261
219 237 261
202 221 247
220 237 260
202 221 247
219 237 261
184 205 233
219 236 261
219 236 259
263 278 299
203 222 247
202 221 247
184 205 233
234 251 273
203 222 247
164 188 219
202 222 248
220 237 261
249 264 286
184 205 233
203 221 246
219 237 261
203 222 248
163 188 219
184 204 231
250 265 286
235 251 273
235 251 273
235 251 273
163 187 218
185 206 234
218 237 262
184 205 233
184 206 234
202 221 246
219 236 260
234 250 272
219 237 262
219 238 263
220 237 262
202 222 248
202 222 248
250 265 287
219 236 260
164 188 219
183 205 234
184 205 233
185 205 233
164 187 218
185 205 233
184 206 234
164 187 217
230 210 222
191 56 61
166 50 56
171 51 57
182 54 60
169 51 56
168 51 56
158 48 54
160 48 54
206 60 64
177 52 57
205 130 138
230 241 255
230 241 255
230 241 255
230 240 255
230 240 255
230 240 255
230 240 255
230 240 255
230 240 255
230 240 255
230 240 255
230 240 255
230 240 255
230 240 255
230 240 255
230 240 255
230 240 255
230 240 255
230 240 255
230 240 255
230 240 255
230 240 255
230 240 255
230 240 255
229 240 255
229 240 255
229 240 255
229 240 255
229 240 255
229 240 255
229 240 255
229 240 255
229 240 255
229 240 255
229 240 255
229 240 255
229 240 255
229 240 255
229 240 255
229 240 255
229 240 255
229 240 255
229 240 255
229 240 255
229 240 255
229 240 255
229 240 255
229 240 255
229 240 255
229 240 255
229 240 255
229 240 255
229 240 255
229 240 255
229 240 255
229 240 255
229 240 255
229 240 255
229 240 255
229 240 255
229 240 255
229 240 255
229 240 255
229 240 255
229 240 255
229 240 255
229 240 255
229 240 255
229 240 255
229 240 255
229 240 255
230 240 255
230 240 255
230 240 255
230 240 255
230 240 255
230 240 255
230 240 255
230 240 255
230 240 255
230 240 255
230 240 255
230 240 255
230 240 255
230 240 255
230 240 255
230 240 255
230 240 255
230 240 255
230 240 255
230 240 255
230 241 255
230 241 255
230 241 255
230 241 255
230 241 255
230 241 255
230 241 255
230 241 255
230 241 255
230 241 255
230 241 255
230 241 255
230 241 255
230 241 255
230 241 255
230 241 255
230 241 255
230 241 255
230 241 255
230 241 255
230 241 255
230 241 255
230 241 255
224 238 256
203 223 249
184 205 233
185 206 235
163 188 220
184 206 235
235 252 275
220 238 262
184 206 234
183 205 235
163 187 218
183 205 234
249 265 288
249 265 287
163 187 218
249 265 287
162 187 219
202 222 248
202 222 248
220 237 261
235 252 274
201 221 248
184 206 234
202 221 247
219 237 262
234 251 273
163 188 220
184 205 232
183 204 233
235 252 275
219 237 261
235 251 275
235 251 275
235 251 273
219 237 261
219 237 261
202 221 247
184 205 234
164 187 218
220 237 260
219 237 261
219 237 262
220 237 261
201 221 248
219 237 261
184 206 235
219 237 261
219 236 260
184 205 234
219 237 261
218 236 261
185 206 234
203 222 248
203 222 248
235 252 275
203 222 249
184 205 234
218 236 261
249 265 287
219 236 260
219 237 261
202 222 248
184 205 234
236 252 275
235 252 275
164 188 219
219 237 261
202 222 248
203 223 249
277 291 311
202 222 249
202 222 249
219 237 261
202 222 249
203 223 250
177 158 177
164 49 55
184 54 60
149 46 52
156 48 54
173 52 57
150 46 53
172 51 57
159 48 54
179 53 58
185 136 145
230 241 255
230 241 255
230 241 255
230 241 255
230 241 255
230 241 255
230 241 255
230 241 255
230 241 255
230 241 255
230 241 255
230 241 255
230 241 255
230 240 255
230 240 255
230 240 255
230 240 255
230 240 255
230 240 255
230 240 255
230 240 255
230 240 255
230 240 255
230 240 255
230 240 255
230 240 255
230 240 255
230 240 255
230 240 255
230 240 255
230 240 255
230 240 255
230 240 255
229 240 255
229 240 255
229 240 255
229 240 255
229 240 255
229 240 255
229 240 255
229 240 255
229 240 255
229 240 255
229 240 255
229 240 255
229 240 255
229 240 255
229 240 255
229 240 255
229 240 255
229 240 255
229 240 255
229 240 255
229 240 255
229 240 255
229 240 255
229 240 255
229 240 255
229 240 255
229 240 255
229 240 255
229 240 255
229 240 255
230 240 255
230 240 255
230 240 255
230 240 255
230 240 255
230 240 255
230 240 255
230 240 255
230 240 255
230 240 255
230 240 255
230 240 255
230 240 255
230 240 255
230 240 255
230 240 255
230 240 255
230 240 255
230 240 255
230 241 255
230 241 255
230 241 255
230 241 255
230 241 255
230 241 255
230 241 255
230 241 255
230 241 255
230 241 255
230 241 255
230 241 255
230 241 255
230 241 255
230 241 255
230 241 255
230 241 255
230 241 255
230 241 255
230 241 255
230 241 255
230 241 255
230 241 255
230 241 255
231 241 255
231 241 255
231 241 255
231 241 255
231 241 255
231 241 255
231 241 255
204 219 240
166 190 221
184 206 235
184 206 234
203 222 248
164 187 218
203 222 249
203 222 249
202 222 248
185 205 233
163 187 218
203 222 248
219 238 263
203 222 248
184 206 235
202 222 249
220 237 262
184 205 234
164 188 219
164 188 219
183 205 235
203 222 249
184 205 234
203 222 248
263 278 298
219 237 262
163 188 219
263 278 298
220 238 262
219 237 262
234 251 274
219 237 261
220 237 262
184 205 234
219 237 262
204 223 249
235 252 275
219 238 262
219 237 261
184 206 234
184 206 234
202 221 248
201 221 248
263 278 299
220 237 261
219 237 261
250 265 287
183 205 234
202 222 249
220 237 260
235 250 272
183 205 234
164 188 220
250 265 287
185 206 233
218 236 262
234 251 275
219 237 261
165 188 219
163 188 220
183 205 235
164 187 218
220 236 259
202 222 249
163 188 220
203 222 248
163 188 220
249 265 287
263 278 298
203 222 249
220 237 262
164 188 219
219 237 262
202 222 248
162 187 219
185 206 234
235 252 276
192 157 174
161 49 55
169 51 56
166 50 56
166 50 56
170 51 56
159 48 54
173 52 57
178 53 58
205 147 157
230 241 255
230 241 255
230 241 255
230 241 255
230 241 255
230 241 255
230 241 255
230 241 255
230 241 255
230 241 255
230 241 255
230 241 255
230 241 255
230 241 255
230 241 255
230 241 255
230 241 255
230 241 255
230 241 255
230 241 255
230 241 255
230 241 255
230 240 255
230 240 255
230 240 255
230 240 255
230 240 255
230 240 255
230 240 255
230 240 255
230 240 255
230 240 255
230 240 255
230 240 255
230 240 255
230 240 255
230 240 255
230 240 255
230 240 255
230 240 255
230 240 255
229 240 255
229 240 255
229 240 255
229 240 255
229 240 255
229 240 255
229 240 255
229 240 255
229 240 255
229 240 255
229 240 255
229 240 255
229 240 255
229 240 255
229 240 255
230 240 255
230 240 255
230 240 255
230 240 255
230 240 255
230 240 255
230 240 255
230 240 255
230 240 255
230 240 255
230 240 255
230 240 255
230 240 255
230 240 255
230 240 255
230 240 255
230 240 255
230 240 255
230 241 255
230 241 255
230 241 255
230 241 255
230 241 255
230 241 255
230 241 255
230 241 255
230 241 255
230 241 255
230 241 255
230 241 255
230 241 255
230 241 255
230 241 255
230 241 255
230 241 255
230 241 255
230 241 255
230 241 255
230 241 255
230 241 255
231 241 255
231 241 255
231 241 255
231 241 255
231 241 255
231 241 255
231 241 255
231 241 255
231 241 255
231 241 255
231 241 255
231 241 255
231 241 255
231 241 255
231 241 255
231 241 255
219 234 254
186 207 235
202 222 248
184 205 234
235 251 275
235 252 275
220 238 262
164 188 220
220 238 262
184 206 235
183 205 234
203 222 248
202 222 249
203 222 247
202 222 249
164 188 218
183 205 234
249 265 287
202 222 250
163 188 220
185 206 234
185 206 234
219 237 262
220 238 263
202 222 249
184 206 235
164 188 220
202 221 248
235 251 274
165 188 218
184 206 234
164 188 219
202 222 247
185 206 235
235 251 274
235 252 275
235 252 275
220 238 262
219 237 262
164 187 218
162 187 218
234 251 274
202 222 248
219 237 262
202 222 248
219 237 262
203 221 247
183 205 233
202 222 248
164 187 218
235 252 275
235 252 275
235 251 274
219 238 263
235 251 275
164 187 218
203 222 248
235 252 275
184 206 234
185 206 234
184 206 234
184 206 235
164 188 219
219 237 263
162 187 219
235 252 275
184 206 234
202 222 249
235 252 275
184 206 235
184 206 235
203 222 249
163 188 221
184 206 235
219 237 262
184 206 235
164 188 219
219 237 263
219 238 263
223 180 196
166 50 56
149 46 52
209 61 65
172 51 57
158 48 54
169 51 56
166 50 55
191 113 121
231 241 255
231 241 255
231 241 255
231 241 255
231 241 255
231 241 255
231 241 255
231 241 255
230 241 255
230 241 255
230 241 255
230 241 255
230 241 255
230 241 255
230 241 255
230 241 255
230 241 255
230 241 255
230 241 255
230 241 255
230 241 255
230 241 255
230 241 255
230 241 255
230 241 255
230 241 255
230 241 255
230 241 255
230 241 255
230 241 255
230 240 255
230 240 255
230 240 255
230 240 255
230 240 255
230 240 255
230 240 255
230 240 255
230 240 255
230 240 255
230 240 255
230 240 255
230 240 255
230 240 255
230 240 255
230 240 255
230 240 255
230 240 255
229 240 255
229 240 255
229 240 255
229 240 255
230 240 255
230 240 255
230 240 255
230 240 255
230 240 255
230 240 255
230 240 255
230 240 255
230 240 255
230 240 255
230 240 255
230 240 255
230 240 255
230 240 255
230 241 255
230 241 255
230 241 255
230 241 255
230 241 255
230 241 255
230 241 255
230 241 255
230 241 255
230 241 255
230 241 255
230 241 255
230 241 255
230 241 255
230 241 255
230 241 255
230 241 255
230 241 255
230 241 255
230 241 255
230 241 255
231 241 255
231 241 255
231 241 255
231 241 255
231 241 255
231 241 255
231 241 255
231 241 255
231 241 255
231 241 255
231 241 255
231 241 255
231 241 255
231 241 255
231 241 255
231 241 255
231 241 255
231 241 255
231 241 255
231 241 255
231 241 255
231 241 255
231 241 255
231 241 255
208 223 243
203 222 249
184 206 235
184 206 235
203 223 249
185 206 234
163 188 219
202 222 249
249 265 287
184 206 235
165 189 220
162 187 220
202 222 249
184 206 235
219 237 262
184 206 234
185 206 235
184 206 234
163 188 219
184 206 234
203 223 249
219 237 262
163 187 219
204 222 248
203 222 249
164 188 219
202 222 248
249 265 287
163 188 220
185 206 235
235 252 275
164 188 219
248 264 287
184 205 233
163 188 219
163 188 220
184 205 234
202 222 248
163 188 220
203 222 248
184 206 235
202 222 248
218 237 262
202 222 249
203 222 249
220 238 262
219 237 261
184 205 233
219 238 263
277 290 310
164 188 218
219 237 262
183 205 234
202 222 249
184 206 235
235 252 275
184 205 234
235 252 275
202 222 248
235 252 275
202 222 249
202 222 249
220 237 261
202 222 250
249 265 288
218 237 262
220 237 262
164 187 217
184 206 235
184 206 235
235 252 276
202 222 249
184 206 235
203 223 250
202 222 249
183 205 235
164 189 221
219 238 262
202 222 249
203 223 250
184 205 234
186 150 174
162 49 55
181 54 59
151 46 53
156 47 53
172 51 57
161 48 54
175 109 116
231 241 255
231 241 255
231 241 255
231 241 255
231 241 255
231 241 255
231 241 255
231 241 255
231 241 255
231 241 255
231 241 255
231 241 255
231 241 255
231 241 255
231 241 255
231 241 255
231 241 255
230 241 255
230 241 255
230 241 255
230 241 255
230 241 255
230 241 255
230 241 255
230 241 255
230 241 255
230 241 255
230 241 255
230 241 255
230 241 255
230 241 255
230 241 255
230 241 255
230 241 255
230 241 255
230 241 255
230 241 255
230 241 255
230 241 255
230 240 255
230 240 255
230 240 255
230 240 255
230 240 255
230 240 255
230 240 255
230 240 255
230 240 255
230 240 255
230 240 255
230 240 255
230 240 255
230 240 255
230 240 255
230 240 255
230 240 255
230 240 255
230 240 255
230 241 255
230 241 255
230 241 255
230 241 255
230 241 255
230 241 255
230 241 255
230 241 255
230 241 255
230 241 255
230 241 255
230 241 255
230 241 255
230 241 255
230 241 255
230 241 255
230 241 255
230 241 255
230 241 255
230 241 255
231 241 255
231 241 255
231 241 255
231 241 255
231 241 255
231 241 255
231 241 255
231 241 255
231 241 255
231 241 255
231 241 255
231 241 255
231 241 255
231 241 255
231 241 255
231 241 255
231 241 255
231 241 255
231 241 255
231 241 255
231 241 255
231 241 255
231 241 255
231 241 255
231 241 255
231 241 255
231 241 255
231 241 255
231 241 255
231 241 255
231 241 255
231 241 255
207 221 241
185 207 236
183 206 235
220 238 263
235 252 276
165 189 220
219 238 263
163 188 220
203 222 248
164 188 220
219 237 262
164 188 220
184 206 235
219 237 262
203 222 248
183 205 235
203 222 248
185 206 234
165 189 220
163 188 220
163 188 220
165 188 219
202 222 249
202 222 249
202 222 248
183 205 234
219 238 263
203 222 249
184 206 234
203 223 249
183 205 234
203 222 249
219 237 261
164 188 219
164 189 220
234 251 275
164 188 220
183 205 233
203 223 249
219 237 262
164 188 219
203 222 249
163 187 219
184 206 235
250 266 288
264 278 298
249 265 287
183 206 235
202 222 249
185 206 234
201 222 249
203 222 249
263 278 299
219 237 263
202 222 249
202 222 249
202 221 248
165 189 220
203 222 248
164 188 220
235 252 275
184 206 235
219 237 262
165 188 220
164 188 219
203 223 250
203 223 250
184 205 234
235 252 275
184 206 235
219 237 262
164 188 219
185 206 235
185 206 234
184 206 234
184 206 235
184 206 235
184 206 236
202 222 249
165 189 220
219 237 263
185 207 236
219 237 262
178 159 177
149 46 52
184 55 60
151 46 53
208 61 65
162 49 55
185 134 143
231 241 255
231 241 255
231 241 255
231 241 255
231 241 255
231 241 255
231 241 255
231 241 255
231 241 255
231 241 255
231 241 255
231 241 255
231 241 255
231 241 255
231 241 255
231 241 255
231 241 255
231 241 255
231 241 255
231 241 255
231 241 255
231 241 255
231 241 255
231 241 255
231 241 255
231 241 255
230 241 255
230 241 255
230 241 255
230 241 255
230 241 255
230 241 255
230 241 255
230 241 255
230 241 255
230 241 255
230 241 255
230 241 255
230 241 255
230 241 255
230 241 255
230 241 255
230 241 255
230 241 255
230 241 255
230 241 255
230 240 255
230 240 255
230 240 255
230 240 255
230 240 255
230 240 255
230 241 255
230 241 255
230 241 255
230 241 255
230 241 255
230 241 255
230 241 255
230 241 255
230 241 255
230 241 255
230 241 255
230 241 255
230 241 255
230 241 255
230 241 255
230 241 255
230 241 255
230 241 255
230 241 255
231 241 255
231 241 255
231 241 255
231 241 255
231 241 255
231 241 255
231 241 255
231 241 255
231 241 255
231 241 255
231 241 255
231 241 255
231 241 255
231 241 255
231 241 255
231 241 255
231 241 255
231 241 255
231 241 255
231 241 255
231 241 255
231 241 255
231 241 255
231 241 255
231 241 255
231 241 255
231 241 255
231 241 255
231 241 255
231 241 255
231 241 255
231 241 255
231 241 255
231 241 255
231 241 255
231 241 255
231 241 255
231 241 255
210 224 244
165 189 220
163 188 220
201 222 250
163 188 220
219 237 262
263 278 299
202 223 250
203 223 250
204 223 250
202 222 249
202 222 248
184 206 235
184 206 235
163 188 220
163 188 220
184 206 235
219 238 263
165 189 220
185 207 236
250 266 288
249 265 288
185 205 233
184 205 234
203 222 249
219 238 263
202 223 250
202 222 249
164 188 219
219 237 262
234 251 276
184 206 234
235 252 275
185 206 234
184 206 236
202 222 249
202 222 249
264 278 299
219 237 262
163 188 220
203 222 248
202 222 249
185 206 234
219 237 262
220 237 261
184 206 235
235 252 275
184 206 235
219 237 261
163 187 218
184 205 234
164 188 220
202 222 249
184 206 235
202 222 249
234 251 274
234 251 275
204 223 249
219 237 263
184 206 235
184 206 235
184 206 235
218 237 262
185 207 235
249 265 288
219 237 262
235 252 274
202 223 250
183 205 235
184 206 235
184 206 235
184 206 235
235 252 275
184 206 235
163 188 220
164 188 219
202 222 249
184 206 235
185 207 236
185 206 234
184 206 235
184 206 235
164 188 220
202 222 249
203 222 249
159 148 174
165 50 56
156 47 54
175 52 58
160 48 54
179 121 129
231 241 255
231 241 255
231 241 255
231 241 255
231 241 255
231 241 255
231 241 255
231 241 255
231 241 255
231 241 255
231 241 255
231 241 255
231 241 255
231 241 255
231 241 255
231 241 255
231 241 255
231 241 255
231 241 255
231 241 255
231 241 255
231 241 255
231 241 255
231 241 255
231 241 255
231 241 255
231 241 255
231 241 255
231 241 255
231 241 255
231 241 255
231 241 255
231 241 255
230 241 255
230 241 255
230 241 255
230 241 255
230 241 255
230 241 255
230 241 255
230 241 255
230 241 255
230 241 255
230 241 255
230 241 255
230 241 255
230 241 255
230 241 255
230 241 255
230 241 255
230 241 255
230 241 255
230 241 255
230 241 255
230 241 255
230 241 255
230 241 255
230 241 255
230 241 255
230 241 255
230 241 255
230 241 255
230 241 255
230 241 255
231 241 255
231 241 255
231 241 255
231 241 255
231 241 255
231 241 255
231 241 255
231 241 255
231 241 255
231 241 255
231 241 255
231 241 255
231 241 255
231 241 255
231 241 255
231 241 255
231 241 255
231 241 255
231 241 255
231 241 255
231 241 255
231 241 255
231 241 255
231 241 255
231 241 255
231 241 255
231 241 255
231 241 255
231 241 255
231 241 255
231 241 255
231 241 255
231 241 255
231 241 255
231 241 255
231 241 255
231 241 255
231 241 255
232 241 255
232 241 255
232 241 255
232 241 255
232 241 255
232 241 255
216 228 246
164 188 220
184 206 234
184 206 235
164 189 221
219 238 263
184 206 236
164 188 220
201 222 250
163 188 220
220 238 263
183 205 234
185 207 236
184 206 235
202 222 249
203 222 249
220 238 262
183 206 235
202 222 249
202 222 249
219 237 262
235 252 275
234 252 275
184 206 235
163 187 219
219 238 263
203 222 249
183 205 234
202 222 249
164 188 219
219 237 263
203 222 249
218 237 262
203 223 249
219 237 262
163 188 220
184 206 235
162 187 219
183 206 235
203 222 249
202 223 250
249 265 288
184 206 234
184 206 235
185 207 235
201 221 248
202 222 250
202 222 249
202 222 249
203 222 249
203 223 249
184 205 234
184 206 235
235 252 275
185 207 235
203 222 249
219 237 262
185 206 235
164 188 220
219 238 263
184 206 235
202 222 249
184 206 235
219 237 262
164 188 220
202 222 250
203 222 249
183 205 235
202 222 249
165 189 220
202 222 249
184 206 234
164 189 221
184 206 235
184 206 235
220 238 263
202 222 249
163 187 218
202 222 250
183 206 236
202 222 249
184 207 236
184 206 235
164 188 220
220 238 263
164 188 218
203 223 250
176 158 177
168 51 56
169 51 57
157 48 54
187 142 151
232 241 255
231 241 255
231 241 255
231 241 255
231 241 255
231 241 255
231 241 255
231 241 255
231 241 255
231 241 255
231 241 255
231 241 255
231 241 255
231 241 255
231 241 255
231 241 255
231 241 255
231 241 255
231 241 255
231 241 255
231 241 255
231 241 255
231 241 255
231 241 255
231 241 255
231 241 255
231 241 255
231 241 255
231 241 255
231 241 255
231 241 255
231 241 255
231 241 255
231 241 255
231 241 255
231 241 255
231 241 255
231 241 255
231 241 255
231 241 255
231 241 255
230 241 255
230 241 255
230 241 255
230 241 255
230 241 255
230 241 255
230 241 255
230 241 255
230 241 255
230 241 255
230 241 255
230 241 255
230 241 255
230 241 255
230 241 255
230 241 255
231 241 255
231 241 255
231 241 255
231 241 255
231 241 255
231 241 255
231 241 255
231 241 255
231 241 255
231 241 255
231 241 255
231 241 255
231 241 255
231 241 255
231 241 255
231 241 255
231 241 255
231 241 255
231 241 255
231 241 255
231 241 255
231 241 255
231 241 255
231 241 255
231 241 255
231 241 255
231 241 255
231 241 255
231 241 255
231 241 255
231 241 255
231 241 255
231 241 255
231 241 255
231 241 255
231 241 255
232 241 255
232 241 255
232 241 255
232 241 255
232 241 255
232 241 255
232 241 255
232 241 255
232 241 255
232 242 255
232 242 255
232 242 255
232 242 255
232 242 255
209 223 242
251 267 289
165 189 221
203 223 250
163 188 221
185 207 236
184 206 235
202 222 250
163 188 220
219 238 263
203 222 248
184 206 235
184 206 236
164 189 221
184 206 235
185 206 235
185 206 235
184 206 235
164 188 219
234 252 276
202 222 250
164 188 220
164 188 219
184 206 235
184 206 235
183 206 236
184 206 235
184 206 235
184 206 236
202 222 248
164 188 219
219 237 262
235 252 276
202 222 250
165 189 221
203 222 248
183 206 235
202 222 250
184 206 236
203 223 250
202 222 249
202 222 249
220 238 263
220 238 263
184 206 235
164 188 220
163 188 220
203 223 249
219 238 263
220 238 263
184 206 235
164 188 219
203 223 250
163 188 220
220 238 263
220 238 263
184 206 236
220 238 262
183 206 235
203 223 250
184 206 235
165 189 220
184 206 235
164 188 218
220 237 262
184 206 235
164 188 220
164 188 220
219 238 263
250 265 287
184 206 235
163 188 220
184 206 235
202 222 249
184 206 235
202 222 250
163 188 221
184 206 235
203 222 249
203 223 249
163 188 221
203 222 248
184 206 235
235 252 275
203 222 249
184 206 235
163 188 220
203 222 249
184 206 235
158 142 166
166 50 56
170 51 56
183 121 129
232 242 255
232 242 255
232 241 255
232 241 255
232 241 255
232 241 255
232 241 255
232 241 255
232 241 255
232 241 255
232 241 255
231 241 255
231 241 255
231 241 255
231 241 255
231 241 255
231 241 255
231 241 255
231 241 255
231 241 255
231 241 255
231 241 255
231 241 255
231 241 255
231 241 255
231 241 255
231 241 255
231 241 255
231 241 255
231 241 255
231 241 255
231 241 255
231 241 255
231 241 255
231 241 255
231 241 255
231 241 255
231 241 255
231 241 255
231 241 255
231 241 255
231 241 255
231 241 255
231 241 255
231 241 255
231 241 255
231 241 255
230 241 255
230 241 255
230 241 255
230 241 255
230 241 255
231 241 255
231 241 255
231 241 255
231 241 255
231 241 255
231 241 255
231 241 255
231 241 255
231 241 255
231 241 255
231 241 255
231 241 255
231 241 255
231 241 255
231 241 255
231 241 255
231 241 255
231 241 255
231 241 255
231 241 255
231 241 255
231 241 255
231 241 255
231 241 255
231 241 255
231 241 255
231 241 255
231 241 255
231 241 255
231 241 255
231 241 255
231 241 255
231 241 255
232 241 255
232 241 255
232 241 255
232 241 255
232 241 255
232 241 255
232 241 255
232 241 255
232 242 255
232 242 255
232 242 255
232 242 255
232 242 255
232 242 255
232 242 255
232 242 255
232 242 255
232 242 255
232 242 255
232 242 255
232 242 255
212 226 245
165 189 220
164 189 220
164 188 220
163 188 221
164 188 220
185 206 235
185 206 235
202 222 249
163 188 221
184 206 235
184 206 235
164 189 221
184 206 236
164 188 220
202 223 250
164 188 218
185 206 235
185 206 234
164 188 220
183 206 236
219 237 262
219 237 263
184 206 235
165 189 220
219 238 263
203 223 249
164 189 221
163 188 220
163 188 221
220 238 263
203 223 250
202 222 249
235 252 276
219 237 262
202 222 249
203 223 249
203 222 249
220 237 261
202 222 249
164 189 221
184 206 235
202 222 249
219 238 263
203 222 249
166 189 219
184 206 235
184 206 234
202 222 249
203 222 249
202 223 250
163 188 221
203 223 250
219 238 263
164 188 220
235 252 275
249 265 288
219 238 263
202 222 249
202 222 250
185 207 235
202 223 250
203 223 249
184 206 236
163 188 221
203 223 250
163 188 220
164 189 221
203 222 249
219 238 263
202 222 250
163 188 221
235 252 276
203 223 250
184 206 236
220 238 262
183 206 236
184 206 236
184 206 235
165 188 218
165 189 220
164 188 220
203 223 250
183 205 235
235 252 276
184 206 235
163 188 221
203 223 249
203 223 250
185 207 235
165 189 220
190 172 193
152 47 53
178 125 133
232 242 255
232 242 255
232 242 255
232 242 255
232 242 255
232 242 255
232 242 255
232 242 255
232 242 255
232 242 255
232 242 255
232 241 255
232 241 255
232 241 255
232 241 255
232 241 255
232 241 255
232 241 255
232 241 255
231 241 255
231 241 255
231 241 255
231 241 255
231 241 255
231 241 255
231 241 255
231 241 255
231 241 255
231 241 255
231 241 255
231 241 255
231 241 255
231 241 255
231 241 255
231 241 255
231 241 255
231 241 255
231 241 255
231 241 255
231 241 255
231 241 255
231 241 255
231 241 255
231 241 255
231 241 255
231 241 255
231 241 255
231 241 255
231 241 255
231 241 255
231 241 255
231 241 255
231 241 255
231 241 255
231 241 255
231 241 255
231 241 255
231 241 255
231 241 255
231 241 255
231 241 255
231 241 255
231 241 255
231 241 255
231 241 255
231 241 255
231 241 255
231 241 255
231 241 255
231 241 255
231 241 255
231 241 255
231 241 255
231 241 255
231 241 255
231 241 255
231 241 255
231 241 255
232 241 255
232 241 255
232 241 255
232 241 255
232 241 255
232 241 255
232 241 255
232 242 255
232 242 255
232 242 255
232 242 255
232 242 255
232 242 255
232 242 255
232 242 255
232 242 255
232 242 255
232 242 255
232 242 255
232 242 255
232 242 255
232 242 255
232 242 255
232 242 255
232 242 255
232 242 255
232 242 255
208 223 242
185 207 236
163 188 220
164 189 221
164 188 220
219 238 263
165 189 220
203 223 250
184 206 236
185 207 236
164 188 220
185 207 236
183 206 235
163 188 220
183 206 235
164 188 220
184 206 235
182 205 236
163 188 221
203 223 249
164 188 221
202 222 249
163 188 220
185 207 235
203 223 250
186 207 236
162 188 220
185 207 236
203 223 250
219 238 263
164 188 220
202 222 250
219 238 263
164 188 220
164 189 221
219 237 262
202 222 249
250 266 287
184 206 236
220 238 263
184 206 236
184 206 236
184 206 235
163 188 220
202 222 249
203 223 249
184 206 235
164 188 220
219 237 263
163 188 220
203 223 250
184 206 235
184 205 235
183 206 235
202 222 250
185 207 236
184 206 235
184 206 235
202 222 250
164 189 221
203 223 250
201 221 249
164 188 219
185 206 235
185 207 236
164 188 220
164 188 220
219 238 263
202 222 249
164 189 221
184 206 235
185 206 235
185 207 236
184 206 235
202 222 250
184 206 235
164 188 220
184 206 235
202 222 250
164 189 221
249 266 288
234 252 275
202 222 250
235 252 276
184 206 236
220 238 263
163 188 220
185 207 235
202 222 250
218 237 263
219 238 263
202 222 250
184 206 236
183 141 164
177 119 126
232 242 255
232 242 255
232 242 255
232 242 255
232 242 255
232 242 255
232 242 255
232 242 255
232 242 255
232 242 255
232 242 255
232 242 255
232 242 255
232 242 255
232 242 255
232 242 255
232 242 255
232 242 255
232 242 255
232 241 255
232 241 255
232 241 255
232 241 255
232 241 255
232 241 255
232 241 255
232 241 255
231 241 255
231 241 255
231 241 255
231 241 255
231 241 255
231 241 255
231 241 255
231 241 255
231 241 255
231 241 255
231 241 255
231 241 255
231 241 255
231 241 255
231 241 255
231 241 255
231 241 255
231 241 255
231 241 255
231 241 255
231 241 255
231 241 255
231 241 255
231 241 255
231 241 255
231 241 255
231 241 255
231 241 255
231 241 255
231 241 255
231 241 255
231 241 255
231 241 255
231 241 255
231 241 255
231 241 255
231 241 255
231 241 255
231 241 255
231 241 255
231 241 255
231 241 255
231 241 255
231 241 255
232 241 255
232 241 255
232 241 255
232 241 255
232 241 255
232 241 255
232 241 255
232 242 255
232 242 255
232 242 255
232 242 255
232 242 255
232 242 255
232 242 255
232 242 255
232 242 255
232 242 255
232 242 255
232 242 255
232 242 255
232 242 255
232 242 255
232 242 255
232 242 255
232 242 255
232 242 255
232 242 255
232 242 255
232 242 255
232 242 255
232 242 255
232 242 255
232 242 255
240 250 265
183 203 230
207 224 247
183 203 230
233 248 270
186 205 231
188 206 231
203 221 245
226 241 261
204 221 245
203 221 245
186 205 231
189 208 233
201 219 244
206 223 245
201 219 244
190 209 233
183 202 229
197 216 242
194 214 240
187 206 231
188 206 231
184 203 229
196 215 241
187 205 231
193 210 234
248 262 282
180 201 229
202 220 245
201 219 244
206 222 245
198 216 242
236 251 272
204 222 245
187 206 231
179 200 228
198 216 241
205 222 246
181 202 229
204 221 244
249 263 282
206 223 246
199 218 243
204 222 245
212 227 249
222 237 259
188 207 232
185 204 230
209 225 247
185 205 231
202 219 243
203 220 244
182 202 229
204 221 246
192 209 233
222 238 260
216 233 256
221 237 259
187 206 232
218 234 257
201 219 244
205 222 246
225 240 261
202 220 245
189 207 232
234 249 270
186 205 231
203 221 245
222 238 260
185 204 230
179 200 227
186 205 230
181 202 229
206 223 246
202 220 244
200 218 243
202 220 245
219 235 257
182 202 229
185 204 230
204 221 245
204 221 245
182 202 229
205 222 246
183 203 230
186 204 230
201 219 244
186 206 231
184 203 229
188 206 231
190 208 233
202 220 244
198 217 242
185 204 230
204 221 245
205 193 211
232 242 255
232 242 255
232 242 255
232 242 255
232 242 255
232 242 255
232 242 255
232 242 255
232 242 255
232 242 255
232 242 255
232 242 255
232 242 255
232 242 255
232 242 255
232 242 255
232 242 255
232 242 255
232 242 255
232 242 255
232 242 255
232 242 255
232 242 255
232 242 255
232 242 255
232 242 255
232 241 255
232 241 255
232 241 255
232 241 255
232 241 255
232 241 255
232 241 255
231 241 255
231 241 255
231 241 255
231 241 255
231 241 255
231 241 255
231 241 255
231 241 255
231 241 255
231 241 255
231 241 255
231 241 255
231 241 255
231 241 255
231 241 255
231 241 255
231 241 255
231 241 255
231 241 255
231 241 255
231 241 255
231 241 255
231 241 255
231 241 255
231 241 255
231 241 255
231 241 255
231 241 255
231 241 255
231 241 255
231 241 255
231 241 255
232 241 255
232 241 255
232 241 255
232 241 255
232 241 255
232 241 255
232 241 255
232 242 255
232 242 255
232 242 255
232 242 255
232 242 255
232 242 255
232 242 255
232 242 255
232 242 255
232 242 255
232 242 255
232 242 255
232 242 255
232 242 255
232 242 255
232 242 255
232 242 255
232 242 255
232 242 255
232 242 255
232 242 255
232 242 255
232 242 255
232 242 255
232 242 255
232 242 255
232 242 255
232 242 255
233 242 255
233 242 255
233 242 255
233 242 255
233 242 255
233 242 255
233 242 255
233 242 255
233 242 255
233 242 255
233 242 255
233 242 255
233 242 255
233 242 255
233 242 255
233 242 255
233 242 255
233 242 255
233 242 255
233 242 255
233 242 255
233 242 255
233 242 255
233 242 255
233 242 255
233 242 255
233 242 255
233 242 255
233 242 255
233 242 255
233 242 255
233 242 255
233 242 255
233 242 255
233 242 255
233 242 255
233 242 255
233 242 255
233 242 255
233 242 255
233 242 255
233 242 255
233 242 255
233 242 255
233 242 255
233 242 255
233 242 255
233 242 255
233 242 255
233 242 255
233 242 255
233 242 255
233 242 255
233 242 255
233 242 255
233 242 255
233 242 255
233 242 255
233 242 255
233 242 255
233 242 255
233 242 255
233 242 255
233 242 255
233 242 255
233 242 255
233 242 255
233 242 255
233 242 255
233 242 255
233 242 255
233 242 255
233 242 255
233 242 255
233 242 255
233 242 255
233 242 255
233 242 255
233 242 255
233 242 255
233 242 255
233 242 255
233 242 255
233 242 255
233 242 255
233 242 255
233 242 255
233 242 255
233 242 255
233 242 255
233 242 255
233 242 255
233 242 255
233 242 255
233 242 255
233 242 255
233 242 255
233 242 255
233 242 255
233 242 255
233 242 255
233 242 255
233 242 255
233 242 255
232 242 255
232 242 255
232 242 255
232 242 255
232 242 255
232 242 255
232 242 255
232 242 255
232 242 255
232 242 255
232 242 255
232 242 255
232 242 255
232 242 255
232 242 255
232 242 255
232 242 255
232 242 255
232 242 255
232 242 255
232 242 255
232 242 255
232 242 255
232 242 255
232 242 255
232 242 255
232 242 255
232 242 255
232 242 255
232 241 255
232 241 255
232 241 255
232 241 255
232 241 255
232 241 255
231 241 255
231 241 255
231 241 255
231 241 255
231 241 255
231 241 255
231 241 255
231 241 255
231 241 255
231 241 255
231 241 255
231 241 255
231 241 255
231 241 255
231 241 255
231 241 255
231 241 255
231 241 255
231 241 255
231 241 255
232 241 255
232 241 255
232 241 255
232 241 255
232 241 255
232 241 255
232 242 255
232 242 255
232 242 255
232 242 255
232 242 255
232 242 255
232 242 255
232 242 255
232 242 255
232 242 255
232 242 255
232 242 255
232 242 255
232 242 255
232 242 255
232 242 255
232 242 255
232 242 255
232 242 255
232 242 255
232 242 255
232 242 255
232 242 255
232 242 255
232 242 255
232 242 255
232 242 255
233 242 255
233 242 255
233 242 255
233 242 255
233 242 255
233 242 255
233 242 255
233 242 255
233 242 255
233 242 255
233 242 255
233 242 255
233 242 255
233 242 255
233 242 255
233 242 255
233 242 255
233 242 255
233 242 255
233 242 255
233 242 255
233 242 255
233 242 255
233 242 255
233 242 255
233 242 255
233 242 255
233 242 255
233 242 255
233 242 255
233 242 255
233 242 255
233 242 255
233 242 255
233 242 255
233 242 255
233 242 255
233 242 255
233 242 255
233 242 255
233 242 255
233 242 255
233 242 255
233 242 255
233 242 255
233 242 255
233 242 255
233 242 255
233 242 255
233 242 255
233 242 255
233 242 255
233 242 255
233 242 255
233 242 255
233 242 255
233 242 255
233 242 255
233 242 255
233 242 255
233 242 255
233 242 255
233 242 255
233 242 255
233 242 255
233 242 255
233 242 255
233 242 255
233 242 255
233 242 255
233 242 255
233 242 255
233 242 255
233 242 255
233 242 255
233 242 255
233 242 255
233 242 255
233 242 255
233 242 255
233 242 255
233 242 255
233 242 255
233 242 255
233 242 255
233 242 255
233 242 255
233 242 255
233 242 255
233 242 255
233 242 255
233 242 255
233 242 255
233 242 255
233 242 255
233 242 255
233 242 255
233 242 255
233 242 255
233 242 255
233 242 255
233 242 255
233 242 255
233 242 255
233 242 255
233 242 255
233 242 255
233 242 255
233 242 255
233 242 255
233 242 255
233 242 255
233 242 255
233 242 255
233 242 255
233 242 255
233 242 255
233 242 255
233 242 255
233 242 255
232 242 255
232 242 255
232 242 255
232 242 255
232 242 255
232 242 255
232 242 255
232 242 255
232 242 255
232 242 255
232 242 255
232 242 255
232 242 255
232 242 255
232 242 255
232 242 255
232 242 255
232 242 255
232 242 255
232 242 255
232 242 255
232 242 255
232 242 255
232 242 255
232 242 255
232 242 255
232 242 255
232 241 255
232 241 255
232 241 255
232 241 255
232 241 255
232 241 255
231 241 255
231 241 255
231 241 255
231 241 255
231 241 255
231 241 255
231 241 255
